;-------------------------------Cut file parameters------------------------
; Input file name : right.DXF
; File rotation : 0 File scale : 0.005
; Machine : Desktop
; Material name : Glass - Borosilicate
; Material thickness : 0.18799999999999997 in
; Cut path  : Outside
; Cut quality : mediumRate
; Raw Material width : 98.83mm
; Raw Material height : 111.74mm
;-------------------------------Do Not modify the Gcode file---------------
G90
G21
M1403
M1405 X2.88 Y-1.84
M1406 X101.71 Y-113.58
M1407 S5.4
M1410 2.1.0; Generated on Wam
M1411 Glass - Borosilicate
M1412 0.18799999999999997 
G0 X50.93 Y-63.94
M3
M8
G4 S5.4
G1 X50.93 Y-68.94 F103.63
G1 X50.93 Y-73.94
G1 X50.93 Y-78.94
G1 X50.93 Y-83.94
G1 X50.93 Y-85.31
G1 X50.93 Y-90.31
G1 X50.93 Y-95.31
G1 X50.93 Y-100.31 F88.09
G1 X50.93 Y-105.31 F72.54
G1 X50.93 Y-106.68
G1 X50.86 Y-106.79
G1 X50.80 Y-106.90
G1 X50.43 Y-107.12 F88.09
G1 X50.06 Y-107.34 F82.91
G1 X47.57 Y-109.09 F88.09
G1 X45.08 Y-110.84 F72.54
G1 X44.91 Y-110.82
G1 X44.74 Y-110.81
G1 X43.55 Y-109.68 F88.09
G1 X42.36 Y-108.54 F67.36
G1 X41.50 Y-107.36 F46.63
G1 X40.63 Y-106.19
G1 X40.04 Y-108.46 F72.54
G1 X39.45 Y-110.73
G1 X38.30 Y-112.15
G1 X37.14 Y-113.58
G1 X36.88 Y-113.56
G1 X36.63 Y-113.53
G1 X35.96 Y-112.33 F88.09
G1 X35.30 Y-111.13
G1 X34.84 Y-109.95 F72.54
G1 X34.39 Y-108.77 F67.36
G1 X34.05 Y-108.58 F46.63
G1 X33.71 Y-108.39
G1 X33.38 Y-109.14 F72.54
G1 X33.06 Y-109.90
G1 X32.88 Y-109.98
G1 X32.70 Y-110.05
G1 X32.15 Y-109.83
G1 X31.60 Y-109.61
G1 X31.44 Y-109.70
G1 X31.27 Y-109.80
G1 X31.12 Y-109.79
G1 X30.97 Y-109.77
G1 X30.56 Y-109.44
G1 X30.15 Y-109.10
G1 X30.11 Y-109.04
G1 X30.07 Y-108.98
G1 X29.66 Y-107.49 F82.91
G1 X29.25 Y-106.01 F93.27
G1 X28.05 Y-102.28 F88.09
G1 X26.86 Y-98.55 F72.54
G1 X26.87 Y-98.44
G1 X26.89 Y-98.33
G1 X29.69 Y-94.18 F88.09
G1 X32.48 Y-90.04 F103.63
G1 X35.28 Y-85.90
G1 X38.08 Y-81.75
G1 X38.57 Y-81.03 F98.45
G1 X41.36 Y-76.88 F103.63
G1 X44.16 Y-72.74 F88.09
G1 X46.96 Y-68.60 F67.36
G1 X49.76 Y-64.45 F46.63
G1 X50.25 Y-63.73 F67.36
G1 X50.59 Y-63.83 F51.82
G1 X50.93 Y-63.94
G1 X50.93 Y-63.94
G4 S1.
M9
G4 S1.
M5
G4 S1.
G0 X40.85 Y-57.07
M3
M8
G4 S5.4
G1 X40.86 Y-57.21
G1 X40.86 Y-57.34 F72.54
G1 X40.35 Y-58.33
G1 X39.84 Y-59.32
G1 X39.59 Y-59.35
G1 X39.35 Y-59.39 F67.36
G1 X39.24 Y-59.27 F46.63
G1 X39.13 Y-59.16
G1 X38.97 Y-60.04 F72.54
G1 X38.81 Y-60.92
G1 X36.74 Y-64.26 F82.91
G1 X34.68 Y-67.61 F88.09
G1 X34.21 Y-69.50 F72.54
G1 X33.73 Y-71.39
G1 X32.74 Y-72.59 F88.09
G1 X31.75 Y-73.79 F103.63
G1 X31.71 Y-73.82 F98.45
G1 X31.66 Y-73.85 F93.27
G1 X29.27 Y-74.88 F88.09
G1 X26.87 Y-75.90 F72.54
G1 X26.47 Y-77.46 F88.09
G1 X26.08 Y-79.02 F103.63
G1 X24.58 Y-81.50
G1 X23.08 Y-83.97 F88.09
G1 X22.54 Y-84.78 F72.54
G1 X22.00 Y-85.58
G1 X21.99 Y-87.40
G1 X21.98 Y-89.22
G1 X19.87 Y-93.63 F88.09
G1 X17.76 Y-98.05 F103.63
G1 X17.10 Y-99.59
G1 X16.43 Y-101.13
G1 X16.40 Y-101.18 F98.45
G1 X16.36 Y-101.23 F93.27
G1 X12.36 Y-104.23 F103.63
G1 X9.88 Y-106.08 F88.09
G1 X5.88 Y-109.08 F67.36
G1 X3.41 Y-110.94 F46.63
G1 X3.14 Y-110.81
G1 X2.88 Y-110.68
G1 X2.88 Y-105.68 F67.36
G1 X2.88 Y-100.68 F88.09
G1 X2.88 Y-95.68 F103.63
G1 X2.88 Y-90.68
G1 X2.88 Y-85.68
G1 X2.88 Y-80.68
G1 X2.88 Y-75.68
G1 X2.88 Y-70.68
G1 X2.88 Y-65.68
G1 X2.88 Y-60.68
G1 X2.88 Y-56.36
G1 X2.88 Y-51.36
G1 X2.88 Y-46.36
G1 X2.88 Y-41.36
G1 X2.88 Y-36.36
G1 X2.88 Y-31.36
G1 X2.88 Y-26.36
G1 X2.88 Y-21.36
G1 X2.88 Y-16.36
G1 X2.88 Y-11.36 F88.09
G1 X2.88 Y-6.36 F67.36
G1 X2.88 Y-2.04 F46.63
G1 X3.22 Y-1.94
G1 X3.56 Y-1.84
G1 X6.36 Y-5.98 F67.36
G1 X9.15 Y-10.12 F88.09
G1 X11.95 Y-14.27 F103.63
G1 X14.75 Y-18.41
G1 X17.55 Y-22.56
G1 X20.34 Y-26.70
G1 X22.20 Y-29.46
G1 X25.00 Y-33.60
G1 X27.80 Y-37.74
G1 X30.60 Y-41.89
G1 X33.39 Y-46.03
G1 X36.19 Y-50.18 F77.72
G1 X38.99 Y-54.32 F51.82
G1 X40.85 Y-57.07
G1 X40.85 Y-57.07
G4 S1.
M9
G4 S1.
M5
G4 S1.
G0 X100.83 Y-2.91
M3
M8
G4 S5.4
G1 X98.04 Y-7.06
G1 X95.25 Y-11.20 F103.63
G1 X92.45 Y-15.35
G1 X89.66 Y-19.50
G1 X89.27 Y-20.08 F98.45
G1 X86.47 Y-24.23 F103.63
G1 X83.68 Y-28.38
G1 X80.89 Y-32.53 F88.09
G1 X78.10 Y-36.67 F72.54
G1 X77.70 Y-37.26
G1 X77.43 Y-37.24
G1 X77.16 Y-37.23
G1 X75.12 Y-33.34 F67.36
G1 X73.08 Y-29.46 F46.63
G1 X72.03 Y-29.56
G1 X70.99 Y-29.65
G1 X70.83 Y-30.30 F67.36
G1 X70.68 Y-30.96 F82.91
G1 X69.65 Y-35.85 F93.27
G1 X69.63 Y-35.94 F88.09
G1 X68.60 Y-40.84 F72.54
G1 X68.58 Y-40.93
G1 X67.38 Y-42.64
G1 X66.17 Y-44.35
G1 X66.06 Y-44.40
G1 X65.95 Y-44.46 F67.36
G1 X65.79 Y-44.45 F46.63
G1 X65.63 Y-44.45
G1 X65.11 Y-45.33 F67.36
G1 X64.60 Y-46.22 F72.54
G1 X64.54 Y-46.49
G1 X64.48 Y-46.77
G1 X64.30 Y-46.87
G1 X64.12 Y-46.98 F67.36
G1 X61.88 Y-46.34 F46.63
G1 X59.65 Y-45.70
G1 X57.85 Y-49.15 F67.36
G1 X56.05 Y-52.59 F72.54
G1 X55.94 Y-52.66
G1 X55.83 Y-52.73 F67.36
G1 X55.78 Y-52.73 F46.63
G1 X55.74 Y-52.73
G1 X55.24 Y-54.58 F72.54
G1 X54.74 Y-56.42
G1 X54.59 Y-56.52
G1 X54.44 Y-56.62
G1 X51.80 Y-56.26 F88.09
G1 X49.16 Y-55.90 F72.54
G1 X48.43 Y-56.09 F88.09
G1 X47.70 Y-56.28
G1 X47.33 Y-56.50 F72.54
G1 X46.96 Y-56.72
G1 X46.76 Y-56.67
G1 X46.57 Y-56.61 F67.36
G1 X46.45 Y-56.40 F46.63
G1 X46.34 Y-56.20
G1 X45.49 Y-57.10 F72.54
G1 X44.65 Y-58.00
G1 X44.42 Y-57.98
G1 X44.19 Y-57.96
G1 X41.39 Y-53.81 F82.91
G1 X38.60 Y-49.66 F93.27
G1 X35.81 Y-45.52 F103.63
G1 X33.01 Y-41.37
G1 X30.22 Y-37.22
G1 X27.43 Y-33.07
G1 X25.65 Y-30.43
G1 X22.86 Y-26.29
G1 X20.07 Y-22.14
G1 X17.27 Y-17.99
G1 X14.48 Y-13.84
G1 X11.69 Y-9.70 F88.09
G1 X8.90 Y-5.55 F67.36
G1 X7.12 Y-2.91 F46.63
G1 X7.25 Y-2.65
G1 X7.39 Y-2.40
G1 X12.39 Y-2.40 F67.36
G1 X17.39 Y-2.40 F88.09
G1 X22.39 Y-2.40 F103.63
G1 X27.39 Y-2.40
G1 X32.39 Y-2.40
G1 X37.39 Y-2.40
G1 X42.39 Y-2.40
G1 X47.39 Y-2.40
G1 X52.39 Y-2.40
G1 X53.97 Y-2.40
G1 X58.97 Y-2.40
G1 X63.97 Y-2.40
G1 X68.97 Y-2.40
G1 X73.97 Y-2.40
G1 X78.97 Y-2.40
G1 X83.97 Y-2.40
G1 X88.97 Y-2.40 F88.09
G1 X93.97 Y-2.40 F67.36
G1 X98.97 Y-2.40 F46.63
G1 X100.56 Y-2.40 F67.36
G1 X100.70 Y-2.65 F51.82
G1 X100.83 Y-2.91
G1 X100.83 Y-2.91
G4 S1.
M9
G4 S1.
M5
G4 S1.
M1413 00:07:57
M1404
