;-------------------------------Cut file parameters------------------------
; Input file name : Part Studio 1 - background_2_x2.dxf
; File rotation : 0 File scale : 1
; Machine : Desktop
; Material name : Glass - Soda Lime
; Material thickness : 0.125 in
; Cut path  : Outside
; Cut quality : mediumRate
; Raw Material width : 201.6mm
; Raw Material height : 274.3mm
;-------------------------------Do Not modify the Gcode file---------------
G90
G21
M1403
M1405 X0.10 Y-3.99
M1406 X201.68 Y-278.27
M1407 S3.33
M1410 2.2.0; Generated on Wam
M1411 Glass - Soda Lime
M1412 0.125 in
G0 X95.91 Y-4.86
M3
M8
G4 S3.33
G1 X96.91 Y-4.93 F176.25
G1 X97.92 Y-5.00 F158.63
G1 X99.90 Y-5.21 F176.25
G1 X101.88 Y-5.42
G1 X102.88 Y-5.56 F167.44
G1 X103.88 Y-5.71 F158.63
G1 X105.85 Y-6.07 F176.25
G1 X107.83 Y-6.43
G1 X109.78 Y-6.89
G1 X111.74 Y-7.36
G1 X113.70 Y-7.92
G1 X115.65 Y-8.49
G1 X117.58 Y-9.15
G1 X119.51 Y-9.81
G1 X121.41 Y-10.57
G1 X123.31 Y-11.33
G1 X124.26 Y-11.75 F167.44
G1 X125.21 Y-12.17 F158.63
G1 X127.08 Y-13.07 F176.25
G1 X128.94 Y-13.98
G1 X130.79 Y-14.98
G1 X132.63 Y-15.98
G1 X133.55 Y-16.52 F167.44
G1 X134.46 Y-17.06 F158.63
G1 X136.25 Y-18.20 F176.25
G1 X138.04 Y-19.34
G1 X139.80 Y-20.57
G1 X141.55 Y-21.80
G1 X142.42 Y-22.45 F167.44
G1 X143.28 Y-23.10 F158.63
G1 X144.98 Y-24.46 F176.25
G1 X146.68 Y-25.82
G1 X147.51 Y-26.54 F167.44
G1 X148.35 Y-27.25 F158.63
G1 X149.99 Y-28.75 F176.25
G1 X151.63 Y-30.24
G1 X153.22 Y-31.82
G1 X154.81 Y-33.39
G1 X156.34 Y-35.04
G1 X157.88 Y-36.69
G1 X159.37 Y-38.43
G1 X160.87 Y-40.16
G1 X161.59 Y-41.06 F167.44
G1 X162.32 Y-41.96 F158.63
G1 X163.73 Y-43.80 F176.25
G1 X165.14 Y-45.64
G1 X166.50 Y-47.55
G1 X167.85 Y-49.47
G1 X169.15 Y-51.45
G1 X170.44 Y-53.42 F149.81
G1 X171.72 Y-55.54 F123.37
G1 X173.00 Y-57.66
G1 X172.98 Y-57.82
G1 X172.96 Y-57.98
G1 X169.42 Y-61.52 F149.81
G1 X165.89 Y-65.05 F176.25
G1 X162.35 Y-68.59
G1 X159.58 Y-71.37
G1 X156.04 Y-74.90
G1 X152.51 Y-78.44 F149.81
G1 X148.97 Y-81.97 F114.56
G1 X146.19 Y-84.75 F79.31
G1 X145.94 Y-84.63
G1 X145.68 Y-84.51
G1 X145.27 Y-85.01 F114.56
G1 X144.87 Y-85.51 F141.00
G1 X144.21 Y-86.25 F132.19
G1 X143.55 Y-87.00 F123.37
G1 X142.82 Y-87.76
G1 X142.09 Y-88.51
G1 X141.37 Y-89.19
G1 X140.66 Y-89.87
G1 X139.92 Y-90.50
G1 X139.18 Y-91.12
G1 X138.45 Y-91.68
G1 X137.72 Y-92.24
G1 X136.93 Y-92.78
G1 X136.14 Y-93.31
G1 X135.36 Y-93.78
G1 X134.57 Y-94.24
G1 X133.91 Y-94.59
G1 X133.25 Y-94.93
G1 X132.55 Y-95.26
G1 X131.84 Y-95.59
G1 X131.15 Y-95.87
G1 X130.45 Y-96.16
G1 X129.70 Y-96.43
G1 X128.95 Y-96.70
G1 X127.60 Y-97.11 F141.00
G1 X126.24 Y-97.53 F158.63
G1 X123.08 Y-98.37 F176.25
G1 X119.92 Y-99.21
G1 X119.17 Y-99.44 F167.44
G1 X118.41 Y-99.67 F158.63
G1 X117.74 Y-99.91 F149.81
G1 X117.06 Y-100.14 F141.00
G1 X116.39 Y-100.41 F132.19
G1 X115.72 Y-100.68 F123.37
G1 X115.05 Y-100.99
G1 X114.39 Y-101.31
G1 X113.72 Y-101.66
G1 X113.05 Y-102.02 F114.56
G1 X112.32 Y-102.48 F79.31
G1 X111.59 Y-102.93
G1 X111.33 Y-102.75
G1 X111.07 Y-102.56
G1 X112.16 Y-97.68 F114.56
G1 X113.24 Y-92.80 F149.81
G1 X113.65 Y-90.95
G1 X114.73 Y-86.07 F114.56
G1 X115.81 Y-81.19 F79.31
G1 X116.22 Y-79.34
G1 X113.54 Y-83.56 F114.56
G1 X110.85 Y-87.78 F149.81
G1 X109.60 Y-89.73
G1 X106.92 Y-93.95 F114.56
G1 X104.23 Y-98.16 F79.31
G1 X102.99 Y-100.12
G1 X102.61 Y-99.95
G1 X102.23 Y-99.78
G1 X102.66 Y-98.25 F114.56
G1 X103.09 Y-96.73 F149.81
G1 X103.85 Y-94.39 F176.25
G1 X104.62 Y-92.05
G1 X104.89 Y-91.14 F167.44
G1 X105.17 Y-90.24 F158.63
G1 X105.42 Y-89.30 F149.81
G1 X105.66 Y-88.37 F141.00
G1 X105.87 Y-87.38 F132.19
G1 X106.07 Y-86.40 F123.37
G1 X106.17 Y-85.79
G1 X106.26 Y-85.17
G1 X106.34 Y-84.53
G1 X106.41 Y-83.88
G1 X106.48 Y-82.74
G1 X106.54 Y-81.60
G1 X106.52 Y-80.35
G1 X106.50 Y-79.11
G1 X106.42 Y-78.03
G1 X106.33 Y-76.95
G1 X106.22 Y-76.09
G1 X106.12 Y-75.23
G1 X105.96 Y-74.32
G1 X105.81 Y-73.40
G1 X105.62 Y-72.44
G1 X105.42 Y-71.47
G1 X105.18 Y-70.44
G1 X104.94 Y-69.42
G1 X104.65 Y-68.33
G1 X104.35 Y-67.24
G1 X104.01 Y-66.09
G1 X103.66 Y-64.93
G1 X103.26 Y-63.71 F141.00
G1 X102.86 Y-62.49 F158.63
G1 X102.40 Y-61.19 F176.25
G1 X101.94 Y-59.90
G1 X101.42 Y-58.53
G1 X100.90 Y-57.16
G1 X100.32 Y-55.71
G1 X99.73 Y-54.25
G1 X98.61 Y-51.65
G1 X97.48 Y-49.04
G1 X96.16 Y-46.18
G1 X94.83 Y-43.32
G1 X93.27 Y-40.12 F149.81
G1 X91.71 Y-36.91 F123.37
G1 X91.71 Y-31.91 F149.81
G1 X91.71 Y-26.91 F176.25
G1 X91.71 Y-21.91
G1 X91.71 Y-20.97 F167.44
G1 X91.71 Y-15.97 F176.25
G1 X91.71 Y-10.97 F149.81
G1 X91.71 Y-5.97 F123.37
G1 X91.71 Y-5.03
G1 X91.85 Y-4.88
G1 X92.00 Y-4.74
G1 X93.95 Y-4.80 F88.13
G1 X95.91 Y-4.86
G1 X95.91 Y-4.86
G4 S1.
M9
G4 S1.
M5
G4 S1.
G0 X176.50 Y-59.96
M3
M8
G4 S3.33
G1 X177.69 Y-62.12
G1 X178.88 Y-64.27 F176.25
G1 X179.44 Y-65.35 F167.44
G1 X180.00 Y-66.43 F158.63
G1 X181.07 Y-68.63 F176.25
G1 X182.14 Y-70.82
G1 X183.15 Y-73.08
G1 X184.16 Y-75.33
G1 X185.10 Y-77.63
G1 X186.04 Y-79.93
G1 X186.91 Y-82.28
G1 X187.78 Y-84.63
G1 X188.58 Y-87.02
G1 X189.38 Y-89.41
G1 X190.11 Y-91.84
G1 X190.84 Y-94.27
G1 X191.49 Y-96.73
G1 X192.14 Y-99.19
G1 X192.73 Y-101.69
G1 X193.31 Y-104.19
G1 X193.82 Y-106.71
G1 X194.32 Y-109.24
G1 X194.75 Y-111.78
G1 X195.18 Y-114.33
G1 X195.54 Y-116.90
G1 X195.89 Y-119.47
G1 X196.17 Y-122.05
G1 X196.45 Y-124.64
G1 X196.65 Y-127.23
G1 X196.85 Y-129.83
G1 X196.98 Y-132.43
G1 X197.10 Y-135.04
G1 X197.15 Y-137.73 F149.81
G1 X197.20 Y-140.41 F123.37
G1 X197.10 Y-140.54
G1 X197.00 Y-140.68
G1 X194.42 Y-141.35 F149.81
G1 X191.83 Y-142.02 F176.25
G1 X189.53 Y-142.54
G1 X187.23 Y-143.06
G1 X185.11 Y-143.47
G1 X182.99 Y-143.87
G1 X181.05 Y-144.16
G1 X179.10 Y-144.45
G1 X177.17 Y-144.65
G1 X175.24 Y-144.85
G1 X173.47 Y-144.93
G1 X171.70 Y-145.01
G1 X170.81 Y-145.01 F167.44
G1 X169.93 Y-145.02 F158.63
G1 X169.07 Y-144.99 F149.81
G1 X168.22 Y-144.96 F141.00
G1 X167.41 Y-144.91 F132.19
G1 X166.59 Y-144.85 F123.37
G1 X165.83 Y-144.77
G1 X165.08 Y-144.70
G1 X163.96 Y-144.53
G1 X162.84 Y-144.37
G1 X161.77 Y-144.16
G1 X160.70 Y-143.94
G1 X159.52 Y-143.64
G1 X158.34 Y-143.33
G1 X157.20 Y-142.98
G1 X156.07 Y-142.62
G1 X155.11 Y-142.28
G1 X154.16 Y-141.93
G1 X153.22 Y-141.56
G1 X152.28 Y-141.19
G1 X147.94 Y-139.32 F141.00
G1 X143.59 Y-137.44 F158.63
G1 X141.42 Y-136.58 F176.25
G1 X139.25 Y-135.72
G1 X138.07 Y-135.30 F167.44
G1 X136.90 Y-134.88 F158.63
G1 X135.65 Y-134.48 F176.25
G1 X134.40 Y-134.07
G1 X133.29 Y-133.75 F149.81
G1 X132.18 Y-133.43 F114.56
G1 X130.85 Y-133.08 F79.31
G1 X129.53 Y-132.74
G1 X129.48 Y-132.43
G1 X129.43 Y-132.11
G1 X133.64 Y-129.43 F114.56
G1 X137.86 Y-126.74 F149.81
G1 X141.89 Y-124.18 F176.25
G1 X146.11 Y-121.49 F149.81
G1 X150.32 Y-118.80 F114.56
G1 X154.35 Y-116.24 F79.31
G1 X149.47 Y-117.32 F114.56
G1 X144.59 Y-118.40 F149.81
G1 X139.71 Y-119.48 F176.25
G1 X137.44 Y-119.99
G1 X132.56 Y-121.07
G1 X127.67 Y-122.15 F149.81
G1 X122.79 Y-123.23 F123.37
G1 X120.52 Y-123.74
G1 X120.34 Y-123.53
G1 X120.15 Y-123.33
G1 X120.39 Y-122.56 F149.81
G1 X120.62 Y-121.79 F141.00
G1 X120.84 Y-121.20 F132.19
G1 X121.06 Y-120.61 F123.37
G1 X121.31 Y-120.06
G1 X121.55 Y-119.50
G1 X121.81 Y-118.99
G1 X122.08 Y-118.47
G1 X122.37 Y-117.99
G1 X122.66 Y-117.50
G1 X123.02 Y-116.98
G1 X123.39 Y-116.45
G1 X123.71 Y-116.04
G1 X124.04 Y-115.63
G1 X124.44 Y-115.19
G1 X124.85 Y-114.74
G1 X125.21 Y-114.39
G1 X125.58 Y-114.04
G1 X126.02 Y-113.65
G1 X126.46 Y-113.27
G1 X126.93 Y-112.91
G1 X127.39 Y-112.55
G1 X127.96 Y-112.16
G1 X128.53 Y-111.77
G1 X129.60 Y-111.11
G1 X130.68 Y-110.46
G1 X133.45 Y-108.94 F141.00
G1 X136.23 Y-107.41 F158.63
G1 X136.98 Y-106.95 F149.81
G1 X137.74 Y-106.49 F141.00
G1 X138.39 Y-106.05 F132.19
G1 X139.03 Y-105.61 F123.37
G1 X139.67 Y-105.13
G1 X140.30 Y-104.65
G1 X140.91 Y-104.12
G1 X141.52 Y-103.58
G1 X142.03 Y-103.08
G1 X142.53 Y-102.57
G1 X143.01 Y-102.01
G1 X143.49 Y-101.46
G1 X143.95 Y-100.84
G1 X144.41 Y-100.23
G1 X144.84 Y-99.55
G1 X145.27 Y-98.87
G1 X145.60 Y-98.26
G1 X145.94 Y-97.64
G1 X146.31 Y-96.84
G1 X146.68 Y-96.03
G1 X146.96 Y-95.30
G1 X147.24 Y-94.57
G1 X147.55 Y-93.61
G1 X147.85 Y-92.65
G1 X148.07 Y-91.79
G1 X148.29 Y-90.92
G1 X148.49 Y-89.99
G1 X148.68 Y-89.06
G1 X148.84 Y-88.02
G1 X149.01 Y-86.97
G1 X149.04 Y-86.91
G1 X149.08 Y-86.84
G1 X152.61 Y-83.30 F141.00
G1 X156.15 Y-79.77 F158.63
G1 X159.68 Y-76.23 F176.25
G1 X162.55 Y-73.37
G1 X166.08 Y-69.83
G1 X169.62 Y-66.30
G1 X173.16 Y-62.76 F149.81
G1 X176.02 Y-59.90 F123.37
G1 X176.26 Y-59.93 F88.13
G1 X176.50 Y-59.96
G1 X176.50 Y-59.96
G4 S1.
M9
G4 S1.
M5
G4 S1.
G0 X201.17 Y-145.07
M3
M8
G4 S3.33
G1 X201.12 Y-147.99
G1 X201.06 Y-150.91 F176.25
G1 X200.93 Y-153.52
G1 X200.80 Y-156.12
G1 X200.59 Y-158.72
G1 X200.38 Y-161.31
G1 X200.10 Y-163.90
G1 X199.82 Y-166.48
G1 X199.45 Y-169.04
G1 X199.09 Y-171.61
G1 X198.66 Y-174.16
G1 X198.22 Y-176.70
G1 X197.71 Y-179.23
G1 X197.19 Y-181.75
G1 X196.61 Y-184.24
G1 X196.02 Y-186.74
G1 X195.36 Y-189.20
G1 X194.70 Y-191.66
G1 X194.34 Y-192.88
G1 X193.98 Y-194.10
G1 X193.21 Y-196.50
G1 X192.44 Y-198.91
G1 X191.60 Y-201.27
G1 X190.76 Y-203.64
G1 X189.85 Y-205.97
G1 X188.94 Y-208.29
G1 X187.96 Y-210.56
G1 X186.98 Y-212.83
G1 X185.94 Y-215.05
G1 X184.89 Y-217.27
G1 X183.78 Y-219.44
G1 X182.67 Y-221.60 F149.81
G1 X181.44 Y-223.81 F123.37
G1 X180.21 Y-226.03
G1 X179.97 Y-226.06
G1 X179.73 Y-226.09
G1 X176.20 Y-222.56 F149.81
G1 X172.66 Y-219.02 F176.25
G1 X169.13 Y-215.48
G1 X166.06 Y-212.42
G1 X162.53 Y-208.89
G1 X158.99 Y-205.35 F149.81
G1 X155.46 Y-201.81 F114.56
G1 X152.39 Y-198.75 F79.31
G1 X152.50 Y-198.53
G1 X152.60 Y-198.30
G1 X151.98 Y-197.78 F114.56
G1 X151.35 Y-197.25 F141.00
G1 X150.43 Y-196.39 F132.19
G1 X149.50 Y-195.52 F123.37
G1 X148.65 Y-194.63
G1 X147.80 Y-193.74
G1 X147.03 Y-192.83
G1 X146.26 Y-191.92
G1 X145.63 Y-191.05
G1 X144.99 Y-190.19
G1 X144.41 Y-189.28
G1 X143.83 Y-188.36
G1 X143.31 Y-187.41
G1 X142.80 Y-186.47
G1 X142.36 Y-185.52
G1 X141.93 Y-184.57
G1 X141.57 Y-183.65
G1 X141.21 Y-182.72
G1 X140.87 Y-181.70
G1 X140.53 Y-180.67
G1 X140.25 Y-179.68
G1 X139.97 Y-178.69
G1 X139.28 Y-176.08 F141.00
G1 X138.59 Y-173.46 F158.63
G1 X138.36 Y-172.70 F149.81
G1 X138.14 Y-171.95 F141.00
G1 X137.91 Y-171.27 F132.19
G1 X137.68 Y-170.59 F123.37
G1 X137.40 Y-169.85
G1 X137.11 Y-169.10
G1 X136.77 Y-168.36
G1 X136.43 Y-167.61
G1 X136.08 Y-166.95
G1 X135.73 Y-166.28 F114.56
G1 X135.23 Y-165.48 F79.31
G1 X134.73 Y-164.67
G1 X134.92 Y-164.41
G1 X135.10 Y-164.15
G1 X139.98 Y-165.24 F114.56
G1 X144.86 Y-166.32 F149.81
G1 X146.71 Y-166.73
G1 X151.59 Y-167.81 F114.56
G1 X156.47 Y-168.89 F79.31
G1 X158.32 Y-169.30
G1 X154.11 Y-166.62 F114.56
G1 X149.89 Y-163.93 F149.81
G1 X147.93 Y-162.68
G1 X143.72 Y-160.00 F114.56
G1 X139.50 Y-157.31 F79.31
G1 X137.55 Y-156.07
G1 X137.72 Y-155.69
G1 X137.89 Y-155.31
G1 X139.41 Y-155.74 F114.56
G1 X140.93 Y-156.17 F149.81
G1 X143.27 Y-156.93 F176.25
G1 X145.61 Y-157.69
G1 X146.70 Y-158.02 F167.44
G1 X147.79 Y-158.35 F158.63
G1 X148.92 Y-158.63 F149.81
G1 X150.06 Y-158.92 F141.00
G1 X151.27 Y-159.13 F132.19
G1 X152.49 Y-159.34 F123.37
G1 X153.13 Y-159.42
G1 X153.77 Y-159.49
G1 X154.44 Y-159.54
G1 X155.11 Y-159.59
G1 X155.82 Y-159.61
G1 X156.53 Y-159.63
G1 X157.27 Y-159.62
G1 X158.01 Y-159.61
G1 X159.35 Y-159.51 F141.00
G1 X160.68 Y-159.42 F158.63
G1 X162.15 Y-159.21 F176.25
G1 X163.61 Y-159.01
G1 X164.56 Y-158.83 F167.44
G1 X165.50 Y-158.65 F158.63
G1 X166.50 Y-158.43 F149.81
G1 X167.51 Y-158.20 F141.00
G1 X169.32 Y-157.72 F158.63
G1 X171.13 Y-157.23 F176.25
G1 X173.12 Y-156.60
G1 X175.12 Y-155.96
G1 X177.31 Y-155.17
G1 X179.51 Y-154.37
G1 X181.92 Y-153.40
G1 X184.34 Y-152.43
G1 X186.99 Y-151.27
G1 X189.64 Y-150.11
G1 X192.54 Y-148.75
G1 X195.44 Y-147.38
G1 X198.08 Y-146.08 F149.81
G1 X200.72 Y-144.78 F123.37
G1 X200.94 Y-144.92 F88.13
G1 X201.17 Y-145.07
G1 X201.17 Y-145.07
G4 S1.
M9
G4 S1.
M5
G4 S1.
G0 X108.61 Y-169.46
M3
M8
G4 S3.33
G1 X109.33 Y-169.73
G1 X110.05 Y-170.00 F158.63
G1 X110.59 Y-170.25 F149.81
G1 X111.14 Y-170.50 F141.00
G1 X111.74 Y-170.83 F132.19
G1 X112.35 Y-171.15 F123.37
G1 X112.89 Y-171.50
G1 X113.44 Y-171.85
G1 X113.95 Y-172.23
G1 X114.47 Y-172.62
G1 X114.93 Y-173.02
G1 X115.39 Y-173.43
G1 X115.89 Y-173.92
G1 X116.38 Y-174.42
G1 X116.70 Y-174.79
G1 X117.03 Y-175.16
G1 X117.39 Y-175.62
G1 X117.75 Y-176.08
G1 X118.41 Y-177.05
G1 X119.07 Y-178.02
G1 X119.66 Y-179.03
G1 X120.25 Y-180.04
G1 X121.57 Y-182.46 F141.00
G1 X122.90 Y-184.88 F158.63
G1 X123.29 Y-185.54 F149.81
G1 X123.69 Y-186.20 F141.00
G1 X124.06 Y-186.76 F132.19
G1 X124.42 Y-187.32 F123.37
G1 X124.88 Y-187.96
G1 X125.34 Y-188.61
G1 X125.78 Y-189.14
G1 X126.21 Y-189.67
G1 X126.69 Y-190.19
G1 X127.16 Y-190.71
G1 X127.68 Y-191.20
G1 X128.21 Y-191.70
G1 X128.88 Y-192.25
G1 X129.56 Y-192.80
G1 X130.32 Y-193.31
G1 X131.08 Y-193.83
G1 X131.93 Y-194.30
G1 X132.77 Y-194.78
G1 X133.72 Y-195.21
G1 X134.67 Y-195.64
G1 X135.73 Y-196.02
G1 X136.79 Y-196.40
G1 X137.79 Y-196.68
G1 X138.79 Y-196.97
G1 X139.88 Y-197.21
G1 X140.97 Y-197.45
G1 X142.21 Y-197.65
G1 X143.44 Y-197.85
G1 X143.51 Y-197.89
G1 X143.58 Y-197.92
G1 X147.11 Y-201.46 F141.00
G1 X150.65 Y-204.99 F158.63
G1 X154.18 Y-208.53 F176.25
G1 X157.12 Y-211.46
G1 X160.65 Y-215.00
G1 X164.19 Y-218.53
G1 X167.72 Y-222.07 F149.81
G1 X170.66 Y-225.00 F123.37
G1 X170.68 Y-225.16
G1 X170.70 Y-225.33
G1 X169.47 Y-227.34 F149.81
G1 X168.25 Y-229.35 F176.25
G1 X167.61 Y-230.35 F167.44
G1 X166.96 Y-231.34 F158.63
G1 X165.64 Y-233.29 F176.25
G1 X164.31 Y-235.23
G1 X163.62 Y-236.18 F167.44
G1 X162.93 Y-237.13 F158.63
G1 X161.52 Y-238.97 F176.25
G1 X160.10 Y-240.81
G1 X158.64 Y-242.57
G1 X157.17 Y-244.33
G1 X155.65 Y-246.02
G1 X154.13 Y-247.71
G1 X152.56 Y-249.32
G1 X151.00 Y-250.93
G1 X150.19 Y-251.70 F167.44
G1 X149.39 Y-252.48 F158.63
G1 X147.75 Y-253.97 F176.25
G1 X146.11 Y-255.46
G1 X144.43 Y-256.86
G1 X142.75 Y-258.26
G1 X141.03 Y-259.57
G1 X139.31 Y-260.89
G1 X137.54 Y-262.12
G1 X135.78 Y-263.35
G1 X133.99 Y-264.48
G1 X132.20 Y-265.61
G1 X130.37 Y-266.65
G1 X128.54 Y-267.70
G1 X127.61 Y-268.19 F167.44
G1 X126.68 Y-268.67 F158.63
G1 X124.81 Y-269.57 F176.25
G1 X122.95 Y-270.47
G1 X121.99 Y-270.89 F167.44
G1 X121.04 Y-271.30 F158.63
G1 X119.14 Y-272.06 F176.25
G1 X117.23 Y-272.81
G1 X115.30 Y-273.47
G1 X113.36 Y-274.13
G1 X111.42 Y-274.68
G1 X109.48 Y-275.24
G1 X107.51 Y-275.70
G1 X105.55 Y-276.16
G1 X104.56 Y-276.35 F167.44
G1 X103.56 Y-276.54 F158.63
G1 X101.59 Y-276.84 F176.25
G1 X99.61 Y-277.15
G1 X98.61 Y-277.27 F167.44
G1 X97.61 Y-277.38 F158.63
G1 X95.63 Y-277.53 F176.25
G1 X93.64 Y-277.69 F149.81
G1 X91.55 Y-277.74 F123.37
G1 X89.45 Y-277.79
G1 X89.31 Y-277.65
G1 X89.16 Y-277.51
G1 X89.16 Y-272.51 F149.81
G1 X89.16 Y-267.51 F176.25
G1 X89.16 Y-262.51
G1 X89.16 Y-261.44 F167.44
G1 X89.16 Y-256.44 F176.25
G1 X89.16 Y-251.44 F149.81
G1 X89.16 Y-246.44 F123.37
G1 X89.16 Y-245.37
G1 X89.30 Y-245.23
G1 X89.43 Y-245.09 F114.56
G1 X89.49 Y-245.08 F79.31
G1 X89.54 Y-245.08
G1 X88.97 Y-242.87 F114.56
G1 X88.39 Y-240.65 F149.81
G1 X87.87 Y-238.36 F176.25
G1 X87.35 Y-236.06
G1 X86.95 Y-233.94
G1 X86.55 Y-231.83
G1 X86.25 Y-229.88
G1 X85.96 Y-227.93
G1 X85.77 Y-226.00
G1 X85.57 Y-224.07
G1 X85.49 Y-222.31
G1 X85.40 Y-220.55
G1 X85.40 Y-219.66 F167.44
G1 X85.40 Y-218.77 F158.63
G1 X85.43 Y-217.92 F149.81
G1 X85.46 Y-217.06 F141.00
G1 X85.51 Y-216.24 F132.19
G1 X85.57 Y-215.42 F123.37
G1 X85.64 Y-214.67
G1 X85.72 Y-213.91
G1 X85.89 Y-212.79
G1 X86.05 Y-211.67
G1 X86.26 Y-210.60
G1 X86.48 Y-209.54
G1 X86.78 Y-208.36
G1 X87.08 Y-207.18
G1 X87.44 Y-206.04
G1 X87.80 Y-204.90
G1 X88.14 Y-203.95
G1 X88.49 Y-203.00
G1 X88.85 Y-202.06
G1 X89.22 Y-201.13
G1 X91.10 Y-196.78 F141.00
G1 X92.97 Y-192.43 F158.63
G1 X93.84 Y-190.26 F176.25
G1 X94.70 Y-188.09
G1 X95.12 Y-186.92 F167.44
G1 X95.54 Y-185.74 F158.63
G1 X95.94 Y-184.49 F176.25
G1 X96.35 Y-183.24
G1 X96.67 Y-182.13 F149.81
G1 X96.99 Y-181.02 F114.56
G1 X97.34 Y-179.70 F79.31
G1 X97.68 Y-178.37
G1 X97.99 Y-178.32
G1 X98.30 Y-178.27
G1 X100.99 Y-182.49 F114.56
G1 X103.68 Y-186.70 F149.81
G1 X106.24 Y-190.73 F176.25
G1 X108.93 Y-194.95 F149.81
G1 X111.61 Y-199.17 F114.56
G1 X114.18 Y-203.19 F79.31
G1 X113.10 Y-198.31 F114.56
G1 X112.02 Y-193.43 F149.81
G1 X110.93 Y-188.55 F176.25
G1 X110.43 Y-186.28
G1 X109.35 Y-181.40
G1 X108.27 Y-176.52 F149.81
G1 X107.18 Y-171.64 F123.37
G1 X106.68 Y-169.37
G1 X106.88 Y-169.18
G1 X107.09 Y-168.99
G1 X107.85 Y-169.23 F88.13
G1 X108.61 Y-169.46
G1 X108.61 Y-169.46
G4 S1.
M9
G4 S1.
M5
G4 S1.
G0 X82.80 Y-276.88
M3
M8
G4 S3.33
G1 X81.80 Y-276.81
G1 X80.79 Y-276.75 F158.63
G1 X78.81 Y-276.54 F176.25
G1 X76.83 Y-276.33
G1 X75.83 Y-276.18 F167.44
G1 X74.83 Y-276.04 F158.63
G1 X72.86 Y-275.68 F176.25
G1 X70.88 Y-275.31
G1 X68.92 Y-274.85
G1 X66.97 Y-274.39
G1 X65.01 Y-273.82
G1 X63.06 Y-273.26
G1 X61.13 Y-272.59
G1 X59.20 Y-271.93
G1 X57.30 Y-271.17
G1 X55.40 Y-270.41
G1 X54.45 Y-269.99 F167.44
G1 X53.49 Y-269.57 F158.63
G1 X51.63 Y-268.67 F176.25
G1 X49.76 Y-267.77
G1 X47.92 Y-266.76
G1 X46.07 Y-265.76
G1 X45.16 Y-265.22 F167.44
G1 X44.25 Y-264.69 F158.63
G1 X42.46 Y-263.54 F176.25
G1 X40.67 Y-262.40
G1 X38.91 Y-261.18
G1 X37.16 Y-259.95
G1 X36.29 Y-259.30 F167.44
G1 X35.43 Y-258.65 F158.63
G1 X33.73 Y-257.28 F176.25
G1 X32.03 Y-255.92
G1 X31.19 Y-255.20 F167.44
G1 X30.36 Y-254.49 F158.63
G1 X28.72 Y-252.99 F176.25
G1 X27.08 Y-251.50
G1 X25.49 Y-249.93
G1 X23.90 Y-248.35
G1 X22.36 Y-246.70
G1 X20.83 Y-245.05
G1 X19.33 Y-243.31
G1 X17.84 Y-241.58
G1 X17.11 Y-240.68 F167.44
G1 X16.39 Y-239.79 F158.63
G1 X14.98 Y-237.95 F176.25
G1 X13.57 Y-236.10
G1 X12.21 Y-234.19
G1 X10.86 Y-232.27
G1 X9.56 Y-230.30
G1 X8.27 Y-228.32 F149.81
G1 X6.99 Y-226.20 F123.37
G1 X5.71 Y-224.09
G1 X5.73 Y-223.92
G1 X5.75 Y-223.76
G1 X9.29 Y-220.22 F149.81
G1 X12.82 Y-216.69 F176.25
G1 X16.36 Y-213.15
G1 X19.13 Y-210.38
G1 X22.67 Y-206.84
G1 X26.20 Y-203.31 F149.81
G1 X29.74 Y-199.77 F114.56
G1 X32.51 Y-197.00 F79.31
G1 X32.77 Y-197.11
G1 X33.03 Y-197.23
G1 X33.43 Y-196.73 F114.56
G1 X33.84 Y-196.24 F141.00
G1 X34.50 Y-195.49 F132.19
G1 X35.16 Y-194.74 F123.37
G1 X35.89 Y-193.99
G1 X36.62 Y-193.23
G1 X37.33 Y-192.55
G1 X38.05 Y-191.88
G1 X38.79 Y-191.25
G1 X39.52 Y-190.62
G1 X40.25 Y-190.06
G1 X40.99 Y-189.50
G1 X41.78 Y-188.97
G1 X42.57 Y-188.43
G1 X43.35 Y-187.97
G1 X44.13 Y-187.50
G1 X44.79 Y-187.15
G1 X45.45 Y-186.81
G1 X46.16 Y-186.48
G1 X46.86 Y-186.15
G1 X47.56 Y-185.87
G1 X48.26 Y-185.58
G1 X49.01 Y-185.31
G1 X49.76 Y-185.05
G1 X51.11 Y-184.63 F141.00
G1 X52.47 Y-184.22 F158.63
G1 X55.63 Y-183.38 F176.25
G1 X58.79 Y-182.54
G1 X59.54 Y-182.30 F167.44
G1 X60.30 Y-182.07 F158.63
G1 X60.97 Y-181.84 F149.81
G1 X61.64 Y-181.60 F141.00
G1 X62.32 Y-181.33 F132.19
G1 X62.99 Y-181.06 F123.37
G1 X63.65 Y-180.75
G1 X64.32 Y-180.44
G1 X64.99 Y-180.08
G1 X65.65 Y-179.72 F114.56
G1 X66.38 Y-179.26 F79.31
G1 X67.11 Y-178.81
G1 X67.37 Y-178.99
G1 X67.63 Y-179.18
G1 X66.55 Y-184.06 F114.56
G1 X65.47 Y-188.94 F149.81
G1 X65.06 Y-190.79
G1 X63.98 Y-195.67 F114.56
G1 X62.90 Y-200.55 F79.31
G1 X62.49 Y-202.40
G1 X65.17 Y-198.18 F114.56
G1 X67.86 Y-193.97 F149.81
G1 X69.10 Y-192.01
G1 X71.79 Y-187.80 F114.56
G1 X74.48 Y-183.58 F79.31
G1 X75.72 Y-181.62
G1 X76.10 Y-181.79
G1 X76.48 Y-181.96
G1 X76.05 Y-183.49 F114.56
G1 X75.62 Y-185.01 F149.81
G1 X74.85 Y-187.35 F176.25
G1 X74.09 Y-189.69
G1 X73.82 Y-190.60 F167.44
G1 X73.54 Y-191.51 F158.63
G1 X73.29 Y-192.44 F149.81
G1 X73.05 Y-193.38 F141.00
G1 X72.84 Y-194.36 F132.19
G1 X72.64 Y-195.34 F123.37
G1 X72.54 Y-195.96
G1 X72.44 Y-196.57
G1 X72.37 Y-197.22
G1 X72.30 Y-197.86
G1 X72.23 Y-199.00
G1 X72.17 Y-200.15
G1 X72.19 Y-201.39
G1 X72.21 Y-202.63
G1 X72.29 Y-203.71
G1 X72.38 Y-204.79
G1 X72.48 Y-205.65
G1 X72.59 Y-206.51
G1 X72.74 Y-207.43
G1 X72.89 Y-208.34
G1 X73.09 Y-209.31
G1 X73.28 Y-210.28
G1 X73.53 Y-211.30
G1 X73.77 Y-212.33
G1 X74.06 Y-213.42
G1 X74.35 Y-214.50
G1 X74.70 Y-215.66
G1 X75.04 Y-216.81
G1 X75.44 Y-218.03 F141.00
G1 X75.85 Y-219.25 F158.63
G1 X76.31 Y-220.55 F176.25
G1 X76.76 Y-221.84
G1 X77.29 Y-223.22
G1 X77.81 Y-224.59
G1 X78.39 Y-226.04
G1 X78.98 Y-227.49
G1 X80.10 Y-230.10
G1 X81.23 Y-232.71
G1 X82.55 Y-235.56
G1 X83.88 Y-238.42
G1 X85.44 Y-241.63 F149.81
G1 X87.00 Y-244.83 F123.37
G1 X87.00 Y-249.83 F149.81
G1 X87.00 Y-254.83 F176.25
G1 X87.00 Y-259.83
G1 X87.00 Y-260.77 F167.44
G1 X87.00 Y-265.77 F176.25
G1 X87.00 Y-270.77 F149.81
G1 X87.00 Y-275.77 F123.37
G1 X87.00 Y-276.72
G1 X86.86 Y-276.86
G1 X86.71 Y-277.00
G1 X84.75 Y-276.94 F88.13
G1 X82.80 Y-276.88
G1 X82.80 Y-276.88
G4 S1.
M9
G4 S1.
M5
G4 S1.
G0 X21.28 Y-187.68
M3
M8
G4 S3.33
G1 X20.09 Y-185.52
G1 X18.90 Y-183.37 F176.25
G1 X18.33 Y-182.29 F167.44
G1 X17.77 Y-181.21 F158.63
G1 X16.70 Y-179.01 F176.25
G1 X15.63 Y-176.82
G1 X14.62 Y-174.56
G1 X13.61 Y-172.31
G1 X12.67 Y-170.01
G1 X11.74 Y-167.71
G1 X10.86 Y-165.36
G1 X9.99 Y-163.01
G1 X9.19 Y-160.62
G1 X8.39 Y-158.23
G1 X7.67 Y-155.80
G1 X6.94 Y-153.37
G1 X6.28 Y-150.91
G1 X5.63 Y-148.45
G1 X5.05 Y-145.95
G1 X4.47 Y-143.45
G1 X3.96 Y-140.93
G1 X3.45 Y-138.40
G1 X3.02 Y-135.85
G1 X2.59 Y-133.31
G1 X2.23 Y-130.74
G1 X1.88 Y-128.17
G1 X1.60 Y-125.59
G1 X1.32 Y-123.00
G1 X1.12 Y-120.41
G1 X0.92 Y-117.81
G1 X0.80 Y-115.21
G1 X0.67 Y-112.60
G1 X0.62 Y-109.91 F149.81
G1 X0.58 Y-107.23 F123.37
G1 X0.68 Y-107.09
G1 X0.78 Y-106.96
G1 X3.36 Y-106.29 F149.81
G1 X5.94 Y-105.62 F176.25
G1 X8.24 Y-105.10
G1 X10.55 Y-104.58
G1 X12.66 Y-104.17
G1 X14.78 Y-103.77
G1 X16.73 Y-103.48
G1 X18.67 Y-103.19
G1 X20.60 Y-102.99
G1 X22.53 Y-102.79
G1 X24.30 Y-102.71
G1 X26.07 Y-102.63
G1 X26.96 Y-102.63 F167.44
G1 X27.85 Y-102.62 F158.63
G1 X28.70 Y-102.65 F149.81
G1 X29.55 Y-102.68 F141.00
G1 X30.37 Y-102.73 F132.19
G1 X31.18 Y-102.79 F123.37
G1 X31.94 Y-102.86
G1 X32.70 Y-102.94
G1 X33.82 Y-103.11
G1 X34.94 Y-103.27
G1 X36.01 Y-103.48
G1 X37.08 Y-103.70
G1 X38.26 Y-104.00
G1 X39.43 Y-104.30
G1 X40.57 Y-104.66
G1 X41.71 Y-105.02
G1 X42.66 Y-105.36
G1 X43.61 Y-105.71
G1 X44.55 Y-106.08
G1 X45.49 Y-106.45
G1 X49.84 Y-108.32 F141.00
G1 X54.19 Y-110.20 F158.63
G1 X56.36 Y-111.06 F176.25
G1 X58.53 Y-111.92
G1 X59.70 Y-112.34 F167.44
G1 X60.88 Y-112.76 F158.63
G1 X62.13 Y-113.16 F176.25
G1 X63.38 Y-113.57
G1 X64.49 Y-113.89 F149.81
G1 X65.59 Y-114.21 F114.56
G1 X66.92 Y-114.56 F79.31
G1 X68.25 Y-114.90
G1 X68.30 Y-115.21
G1 X68.35 Y-115.52
G1 X64.13 Y-118.21 F114.56
G1 X59.91 Y-120.90 F149.81
G1 X55.89 Y-123.46 F176.25
G1 X51.67 Y-126.15 F149.81
G1 X47.45 Y-128.84 F114.56
G1 X43.42 Y-131.40 F79.31
G1 X48.31 Y-130.32 F114.56
G1 X53.19 Y-129.24 F149.81
G1 X58.07 Y-128.16 F176.25
G1 X60.34 Y-127.65
G1 X65.22 Y-126.57
G1 X70.10 Y-125.49 F149.81
G1 X74.98 Y-124.41 F123.37
G1 X77.25 Y-123.90
G1 X77.44 Y-124.11
G1 X77.62 Y-124.31
G1 X77.39 Y-125.08 F149.81
G1 X77.15 Y-125.85 F141.00
G1 X76.93 Y-126.44 F132.19
G1 X76.71 Y-127.03 F123.37
G1 X76.47 Y-127.58
G1 X76.23 Y-128.13
G1 X75.96 Y-128.65
G1 X75.70 Y-129.16
G1 X75.41 Y-129.65
G1 X75.12 Y-130.14
G1 X74.75 Y-130.66
G1 X74.39 Y-131.19
G1 X74.06 Y-131.60
G1 X73.73 Y-132.01
G1 X73.33 Y-132.45
G1 X72.93 Y-132.90
G1 X72.56 Y-133.25
G1 X72.20 Y-133.60
G1 X71.75 Y-133.98
G1 X71.31 Y-134.37
G1 X70.85 Y-134.73
G1 X70.38 Y-135.09
G1 X69.82 Y-135.48
G1 X69.25 Y-135.87
G1 X68.17 Y-136.52
G1 X67.10 Y-137.18
G1 X64.32 Y-138.70 F141.00
G1 X61.55 Y-140.23 F158.63
G1 X60.79 Y-140.69 F149.81
G1 X60.04 Y-141.15 F141.00
G1 X59.39 Y-141.59 F132.19
G1 X58.74 Y-142.03 F123.37
G1 X58.11 Y-142.51
G1 X57.47 Y-142.99
G1 X56.86 Y-143.52
G1 X56.25 Y-144.06
G1 X55.75 Y-144.56
G1 X55.24 Y-145.07
G1 X54.76 Y-145.63
G1 X54.28 Y-146.18
G1 X53.82 Y-146.80
G1 X53.37 Y-147.41
G1 X52.94 Y-148.09
G1 X52.51 Y-148.77
G1 X52.17 Y-149.38
G1 X51.84 Y-149.99
G1 X51.47 Y-150.80
G1 X51.09 Y-151.61
G1 X50.81 Y-152.34
G1 X50.53 Y-153.07
G1 X50.23 Y-154.03
G1 X49.92 Y-154.99
G1 X49.70 Y-155.85
G1 X49.48 Y-156.72
G1 X49.29 Y-157.65
G1 X49.10 Y-158.58
G1 X48.93 Y-159.62
G1 X48.77 Y-160.66
G1 X48.73 Y-160.73
G1 X48.70 Y-160.80
G1 X45.16 Y-164.34 F141.00
G1 X41.63 Y-167.87 F158.63
G1 X38.09 Y-171.41 F176.25
G1 X35.23 Y-174.27
G1 X31.69 Y-177.81
G1 X28.15 Y-181.34
G1 X24.62 Y-184.88 F149.81
G1 X21.75 Y-187.74 F123.37
G1 X21.52 Y-187.71 F88.13
G1 X21.28 Y-187.68
G1 X21.28 Y-187.68
G4 S1.
M9
G4 S1.
M5
G4 S1.
G0 X70.85 Y-180.95
M3
M8
G4 S3.33
G1 X70.90 Y-178.03
G1 X70.96 Y-175.10 F176.25
G1 X71.09 Y-172.50
G1 X71.22 Y-169.90
G1 X71.43 Y-167.30
G1 X71.63 Y-164.70
G1 X71.92 Y-162.12
G1 X72.20 Y-159.54
G1 X72.56 Y-156.97
G1 X72.93 Y-154.41
G1 X73.36 Y-151.86
G1 X73.80 Y-149.31
G1 X74.31 Y-146.79
G1 X74.83 Y-144.27
G1 X75.41 Y-141.77
G1 X76.00 Y-139.28
G1 X76.66 Y-136.82
G1 X77.32 Y-134.36
G1 X77.68 Y-133.14
G1 X78.04 Y-131.92
G1 X78.81 Y-129.51
G1 X79.58 Y-127.11
G1 X80.42 Y-124.74
G1 X81.26 Y-122.38
G1 X82.17 Y-120.05
G1 X83.08 Y-117.73
G1 X84.06 Y-115.46
G1 X85.04 Y-113.19
G1 X86.08 Y-110.97
G1 X87.13 Y-108.75
G1 X88.24 Y-106.58
G1 X89.35 Y-104.41 F149.81
G1 X90.58 Y-102.20 F123.37
G1 X91.81 Y-99.99
G1 X92.05 Y-99.96
G1 X92.29 Y-99.93
G1 X95.82 Y-103.46 F149.81
G1 X99.36 Y-107.00 F176.25
G1 X102.89 Y-110.53
G1 X105.96 Y-113.60
G1 X109.49 Y-117.13
G1 X113.03 Y-120.67 F149.81
G1 X116.56 Y-124.20 F114.56
G1 X119.63 Y-127.27 F79.31
G1 X119.52 Y-127.49
G1 X119.42 Y-127.72
G1 X120.04 Y-128.24 F114.56
G1 X120.66 Y-128.77 F141.00
G1 X121.59 Y-129.63 F132.19
G1 X122.52 Y-130.50 F123.37
G1 X123.37 Y-131.39
G1 X124.22 Y-132.28
G1 X124.99 Y-133.19
G1 X125.76 Y-134.10
G1 X126.39 Y-134.96
G1 X127.02 Y-135.82
G1 X127.61 Y-136.74
G1 X128.19 Y-137.66
G1 X128.71 Y-138.60
G1 X129.22 Y-139.55
G1 X129.66 Y-140.50
G1 X130.09 Y-141.44
G1 X130.45 Y-142.37
G1 X130.81 Y-143.29
G1 X131.15 Y-144.32
G1 X131.49 Y-145.34
G1 X131.77 Y-146.33
G1 X132.05 Y-147.32
G1 X132.74 Y-149.94 F141.00
G1 X133.43 Y-152.56 F158.63
G1 X133.66 Y-153.32 F149.81
G1 X133.88 Y-154.07 F141.00
G1 X134.11 Y-154.75 F132.19
G1 X134.33 Y-155.42 F123.37
G1 X134.62 Y-156.17
G1 X134.91 Y-156.92
G1 X135.25 Y-157.66
G1 X135.59 Y-158.40
G1 X135.94 Y-159.07
G1 X136.29 Y-159.73 F114.56
G1 X136.79 Y-160.54 F79.31
G1 X137.29 Y-161.34
G1 X137.10 Y-161.60
G1 X136.92 Y-161.86
G1 X132.04 Y-160.78 F114.56
G1 X127.15 Y-159.70 F149.81
G1 X125.31 Y-159.29
G1 X120.43 Y-158.21 F114.56
G1 X115.54 Y-157.12 F79.31
G1 X113.70 Y-156.71
G1 X117.91 Y-159.40 F114.56
G1 X122.13 Y-162.09 F149.81
G1 X124.08 Y-163.33
G1 X128.30 Y-166.02 F114.56
G1 X132.52 Y-168.71 F79.31
G1 X134.47 Y-169.95
G1 X134.30 Y-170.33
G1 X134.13 Y-170.71
G1 X132.61 Y-170.28 F114.56
G1 X131.09 Y-169.85 F149.81
G1 X128.75 Y-169.08 F176.25
G1 X126.41 Y-168.32
G1 X125.32 Y-167.99 F167.44
G1 X124.23 Y-167.67 F158.63
G1 X123.10 Y-167.38 F149.81
G1 X121.96 Y-167.10 F141.00
G1 X120.75 Y-166.89 F132.19
G1 X119.53 Y-166.67 F123.37
G1 X118.89 Y-166.60
G1 X118.25 Y-166.53
G1 X117.58 Y-166.48
G1 X116.91 Y-166.43
G1 X116.20 Y-166.41
G1 X115.49 Y-166.39
G1 X114.75 Y-166.40
G1 X114.01 Y-166.41
G1 X112.67 Y-166.51 F141.00
G1 X111.34 Y-166.60 F158.63
G1 X109.87 Y-166.80 F176.25
G1 X108.41 Y-167.01
G1 X107.46 Y-167.19 F167.44
G1 X106.52 Y-167.36 F158.63
G1 X105.51 Y-167.59 F149.81
G1 X104.51 Y-167.81 F141.00
G1 X102.70 Y-168.30 F158.63
G1 X100.89 Y-168.78 F176.25
G1 X98.90 Y-169.42
G1 X96.90 Y-170.05
G1 X94.71 Y-170.85
G1 X92.51 Y-171.65
G1 X90.10 Y-172.62
G1 X87.68 Y-173.59
G1 X85.03 Y-174.75
G1 X82.38 Y-175.91
G1 X79.48 Y-177.27
G1 X76.58 Y-178.63
G1 X73.94 Y-179.94 F149.81
G1 X71.30 Y-181.24 F123.37
G1 X71.08 Y-181.10 F88.13
G1 X70.85 Y-180.95
G1 X70.85 Y-180.95
G4 S1.
M9
G4 S1.
M5
G4 S1.
G0 X70.46 Y-112.80
M3
M8
G4 S3.33
G1 X69.74 Y-112.53
G1 X69.02 Y-112.26 F158.63
G1 X68.48 Y-112.01 F149.81
G1 X67.93 Y-111.76 F141.00
G1 X67.33 Y-111.44 F132.19
G1 X66.72 Y-111.11 F123.37
G1 X66.18 Y-110.76
G1 X65.63 Y-110.41
G1 X65.12 Y-110.03
G1 X64.60 Y-109.65
G1 X64.14 Y-109.24
G1 X63.67 Y-108.84
G1 X63.18 Y-108.34
G1 X62.69 Y-107.85
G1 X62.37 Y-107.47
G1 X62.04 Y-107.10
G1 X61.68 Y-106.64
G1 X61.32 Y-106.18
G1 X60.66 Y-105.21
G1 X60.00 Y-104.24
G1 X59.41 Y-103.23
G1 X58.82 Y-102.23
G1 X57.50 Y-99.81 F141.00
G1 X56.17 Y-97.38 F158.63
G1 X55.78 Y-96.72 F149.81
G1 X55.38 Y-96.06 F141.00
G1 X55.01 Y-95.50 F132.19
G1 X54.65 Y-94.94 F123.37
G1 X54.19 Y-94.30
G1 X53.73 Y-93.66
G1 X53.29 Y-93.12
G1 X52.86 Y-92.59
G1 X52.38 Y-92.07
G1 X51.91 Y-91.56
G1 X51.39 Y-91.06
G1 X50.86 Y-90.57
G1 X50.19 Y-90.01
G1 X49.51 Y-89.46
G1 X48.75 Y-88.95
G1 X47.99 Y-88.43
G1 X47.14 Y-87.96
G1 X46.30 Y-87.48
G1 X45.35 Y-87.05
G1 X44.40 Y-86.62
G1 X43.34 Y-86.24
G1 X42.28 Y-85.86
G1 X41.28 Y-85.58
G1 X40.28 Y-85.30
G1 X39.19 Y-85.06
G1 X38.10 Y-84.82
G1 X36.86 Y-84.61
G1 X35.63 Y-84.41
G1 X35.56 Y-84.38
G1 X35.49 Y-84.34
G1 X31.96 Y-80.81 F141.00
G1 X28.42 Y-77.27 F158.63
G1 X24.88 Y-73.74 F176.25
G1 X21.95 Y-70.80
G1 X18.42 Y-67.27
G1 X14.88 Y-63.73
G1 X11.35 Y-60.20 F149.81
G1 X8.41 Y-57.26 F123.37
G1 X8.39 Y-57.10
G1 X8.37 Y-56.93
G1 X9.60 Y-54.93 F149.81
G1 X10.82 Y-52.92 F176.25
G1 X11.46 Y-51.92 F167.44
G1 X12.11 Y-50.92 F158.63
G1 X13.43 Y-48.98 F176.25
G1 X14.76 Y-47.03
G1 X15.45 Y-46.09 F167.44
G1 X16.14 Y-45.14 F158.63
G1 X17.55 Y-43.30 F176.25
G1 X18.97 Y-41.46
G1 X20.43 Y-39.69
G1 X21.90 Y-37.93
G1 X23.42 Y-36.24
G1 X24.94 Y-34.55
G1 X26.51 Y-32.95
G1 X28.07 Y-31.34
G1 X28.88 Y-30.56 F167.44
G1 X29.68 Y-29.78 F158.63
G1 X31.32 Y-28.29 F176.25
G1 X32.96 Y-26.80
G1 X34.64 Y-25.41
G1 X36.32 Y-24.01
G1 X38.04 Y-22.69
G1 X39.76 Y-21.38
G1 X41.53 Y-20.15
G1 X43.29 Y-18.92
G1 X45.08 Y-17.78
G1 X46.87 Y-16.65
G1 X48.70 Y-15.61
G1 X50.53 Y-14.57
G1 X51.46 Y-14.08 F167.44
G1 X52.39 Y-13.59 F158.63
G1 X54.26 Y-12.69 F176.25
G1 X56.12 Y-11.79
G1 X57.08 Y-11.38 F167.44
G1 X58.03 Y-10.96 F158.63
G1 X59.93 Y-10.21 F176.25
G1 X61.83 Y-9.45
G1 X63.77 Y-8.80
G1 X65.71 Y-8.14
G1 X67.65 Y-7.58
G1 X69.59 Y-7.02
G1 X71.56 Y-6.57
G1 X73.52 Y-6.11
G1 X74.51 Y-5.92 F167.44
G1 X75.51 Y-5.72 F158.63
G1 X77.48 Y-5.42 F176.25
G1 X79.46 Y-5.11
G1 X80.46 Y-5.00 F167.44
G1 X81.46 Y-4.88 F158.63
G1 X83.44 Y-4.73 F176.25
G1 X85.43 Y-4.58 F149.81
G1 X87.52 Y-4.52 F123.37
G1 X89.61 Y-4.47
G1 X89.76 Y-4.61
G1 X89.90 Y-4.75
G1 X89.90 Y-9.75 F149.81
G1 X89.90 Y-14.75 F176.25
G1 X89.90 Y-19.75
G1 X89.90 Y-20.83 F167.44
G1 X89.90 Y-25.83 F176.25
G1 X89.90 Y-30.83 F149.81
G1 X89.90 Y-35.83 F123.37
G1 X89.90 Y-36.90
G1 X89.77 Y-37.04
G1 X89.64 Y-37.18 F114.56
G1 X89.58 Y-37.18 F79.31
G1 X89.53 Y-37.18
G1 X90.10 Y-39.40 F114.56
G1 X90.67 Y-41.61 F149.81
G1 X91.20 Y-43.91 F176.25
G1 X91.72 Y-46.21
G1 X92.12 Y-48.32
G1 X92.52 Y-50.44
G1 X92.81 Y-52.39
G1 X93.11 Y-54.33
G1 X93.30 Y-56.26
G1 X93.50 Y-58.20
G1 X93.58 Y-59.95
G1 X93.66 Y-61.71
G1 X93.67 Y-62.60 F167.44
G1 X93.67 Y-63.50 F158.63
G1 X93.64 Y-64.35 F149.81
G1 X93.61 Y-65.20 F141.00
G1 X93.56 Y-66.02 F132.19
G1 X93.50 Y-66.84 F123.37
G1 X93.43 Y-67.60
G1 X93.35 Y-68.35
G1 X93.18 Y-69.47
G1 X93.02 Y-70.59
G1 X92.81 Y-71.66
G1 X92.59 Y-72.72
G1 X92.29 Y-73.90
G1 X91.99 Y-75.08
G1 X91.63 Y-76.22
G1 X91.27 Y-77.36
G1 X90.93 Y-78.31
G1 X90.58 Y-79.26
G1 X90.21 Y-80.20
G1 X89.85 Y-81.14
G1 X87.97 Y-85.49 F141.00
G1 X86.10 Y-89.84 F158.63
G1 X85.23 Y-92.00 F176.25
G1 X84.37 Y-94.17
G1 X83.95 Y-95.35 F167.44
G1 X83.53 Y-96.52 F158.63
G1 X83.13 Y-97.77 F176.25
G1 X82.72 Y-99.03
G1 X82.40 Y-100.13 F149.81
G1 X82.08 Y-101.24 F114.56
G1 X81.73 Y-102.57 F79.31
G1 X81.39 Y-103.90
G1 X81.08 Y-103.95
G1 X80.77 Y-103.99
G1 X78.08 Y-99.78 F114.56
G1 X75.39 Y-95.56 F149.81
G1 X72.83 Y-91.53 F176.25
G1 X70.14 Y-87.32 F149.81
G1 X67.46 Y-83.10 F114.56
G1 X64.89 Y-79.07 F79.31
G1 X65.97 Y-83.95 F114.56
G1 X67.05 Y-88.83 F149.81
G1 X68.14 Y-93.71 F176.25
G1 X68.64 Y-95.98
G1 X69.72 Y-100.86
G1 X70.80 Y-105.75 F149.81
G1 X71.89 Y-110.63 F123.37
G1 X72.39 Y-112.90
G1 X72.19 Y-113.08
G1 X71.98 Y-113.27
G1 X71.22 Y-113.04 F88.13
G1 X70.46 Y-112.80
G1 X70.46 Y-112.80
G4 S1.
M9
G4 S1.
M5
G4 S1.
M1413 00:19:33
M1404
