;-------------------------------Cut file parameters------------------------
; Input file name : Part Studio 1 - background_2_x2.dxf
; File rotation : 240 File scale : 1
; Machine : Desktop
; Material name : Glass - Soda Lime
; Material thickness : 0.125 in
; Cut path  : Inside
; Cut quality : mediumRate
; Raw Material width : 322.2mm
; Raw Material height : 209.0mm
;-------------------------------Do Not modify the Gcode file---------------
G90
G21
M1403
M1405 X2.51 Y-1.55
M1406 X324.72 Y-210.59
M1407 S3.33
M1410 2.2.0; Generated on Wam
M1411 Glass - Soda Lime
M1412 0.125 in
G0 X12.30 Y-97.17
M3
M8
G4 S3.33
G1 X11.87 Y-96.29 F176.25
G1 X11.44 Y-95.41 F158.63
G1 X10.63 Y-93.60 F176.25
G1 X9.83 Y-91.79
G1 X9.46 Y-90.87 F167.44
G1 X9.10 Y-89.96 F158.63
G1 X8.43 Y-88.09 F176.25
G1 X7.77 Y-86.22
G1 X7.19 Y-84.31
G1 X6.62 Y-82.40
G1 X6.14 Y-80.45
G1 X5.66 Y-78.51
G1 X5.27 Y-76.53
G1 X4.89 Y-74.55
G1 X4.60 Y-72.54
G1 X4.30 Y-70.52
G1 X4.20 Y-69.51 F167.44
G1 X4.09 Y-68.50 F158.63
G1 X3.94 Y-66.45 F176.25
G1 X3.79 Y-64.39
G1 X3.73 Y-62.32
G1 X3.68 Y-60.25
G1 X3.69 Y-59.20 F167.44
G1 X3.70 Y-58.16 F158.63
G1 X3.79 Y-56.06 F176.25
G1 X3.88 Y-53.96
G1 X4.07 Y-51.84
G1 X4.25 Y-49.72
G1 X4.38 Y-48.66 F167.44
G1 X4.51 Y-47.60 F158.63
G1 X4.84 Y-45.46 F176.25
G1 X5.17 Y-43.32
G1 X5.37 Y-42.26 F167.44
G1 X5.57 Y-41.19 F158.63
G1 X6.04 Y-39.05 F176.25
G1 X6.51 Y-36.90
G1 X7.07 Y-34.76
G1 X7.63 Y-32.61
G1 X8.29 Y-30.47
G1 X8.95 Y-28.32
G1 X9.70 Y-26.18
G1 X10.45 Y-24.04
G1 X10.85 Y-22.98 F167.44
G1 X11.26 Y-21.91 F158.63
G1 X12.14 Y-19.78 F176.25
G1 X13.03 Y-17.66
G1 X14.00 Y-15.54
G1 X14.97 Y-13.43
G1 X16.03 Y-11.33 F149.81
G1 X17.09 Y-9.23 F114.56
G1 X18.15 Y-7.31 F79.31
G1 X19.21 Y-5.39
G1 X24.04 Y-6.69 F114.56
G1 X28.87 Y-7.98 F149.81
G1 X33.70 Y-9.28 F176.25
G1 X36.45 Y-10.01
G1 X41.28 Y-11.31
G1 X46.11 Y-12.60 F149.81
G1 X50.94 Y-13.90 F114.56
G1 X53.69 Y-14.63 F79.31
G1 X53.66 Y-14.65
G1 X53.63 Y-14.66
G1 X53.68 Y-15.01
G1 X53.73 Y-15.35
G1 X55.19 Y-15.60 F114.56
G1 X56.64 Y-15.84 F149.81
G1 X57.60 Y-16.03 F167.44
G1 X58.56 Y-16.23 F158.63
G1 X59.55 Y-16.47 F149.81
G1 X60.55 Y-16.72 F141.00
G1 X61.47 Y-16.99 F132.19
G1 X62.39 Y-17.27 F123.37
G1 X63.29 Y-17.59
G1 X64.18 Y-17.90
G1 X65.00 Y-18.25
G1 X65.83 Y-18.59
G1 X66.66 Y-19.00
G1 X67.50 Y-19.40
G1 X68.27 Y-19.83
G1 X69.04 Y-20.27
G1 X69.64 Y-20.65
G1 X70.25 Y-21.03
G1 X70.86 Y-21.46
G1 X71.48 Y-21.90
G1 X72.06 Y-22.35
G1 X72.64 Y-22.80
G1 X73.23 Y-23.29
G1 X73.82 Y-23.79
G1 X74.84 Y-24.75 F141.00
G1 X75.87 Y-25.70 F158.63
G1 X78.17 Y-28.02 F176.25
G1 X80.48 Y-30.33
G1 X81.08 Y-30.89 F167.44
G1 X81.67 Y-31.44 F158.63
G1 X82.23 Y-31.92 F149.81
G1 X82.79 Y-32.40 F141.00
G1 X83.38 Y-32.86 F132.19
G1 X83.96 Y-33.32 F123.37
G1 X84.59 Y-33.76
G1 X85.21 Y-34.20 F114.56
G1 X86.01 Y-34.68 F79.31
G1 X86.80 Y-35.15
G1 X82.03 Y-36.66 F114.56
G1 X77.26 Y-38.16 F149.81
G1 X74.67 Y-38.98 F176.25
G1 X69.90 Y-40.48 F149.81
G1 X65.13 Y-41.99 F114.56
G1 X62.53 Y-42.81 F79.31
G1 X62.58 Y-43.21
G1 X62.63 Y-43.61
G1 X67.63 Y-43.82 F114.56
G1 X72.63 Y-44.04 F149.81
G1 X74.62 Y-44.13
G1 X79.61 Y-44.35 F114.56
G1 X84.61 Y-44.56 F79.31
G1 X86.60 Y-44.65
G1 X84.50 Y-45.10 F114.56
G1 X82.40 Y-45.54 F149.81
G1 X81.46 Y-45.76 F167.44
G1 X80.52 Y-45.98 F158.63
G1 X79.57 Y-46.24 F149.81
G1 X78.62 Y-46.49 F141.00
G1 X77.64 Y-46.82 F132.19
G1 X76.66 Y-47.14 F123.37
G1 X76.06 Y-47.37
G1 X75.45 Y-47.61
G1 X74.84 Y-47.87
G1 X74.24 Y-48.13
G1 X73.18 Y-48.67
G1 X72.12 Y-49.20
G1 X71.03 Y-49.86 F141.00
G1 X69.93 Y-50.51 F158.63
G1 X69.02 Y-51.14 F149.81
G1 X68.11 Y-51.77 F141.00
G1 X67.40 Y-52.30 F132.19
G1 X66.69 Y-52.84 F123.37
G1 X65.96 Y-53.44
G1 X65.23 Y-54.04
G1 X64.48 Y-54.70
G1 X63.73 Y-55.36
G1 X62.95 Y-56.10
G1 X62.17 Y-56.83
G1 X61.37 Y-57.64
G1 X60.56 Y-58.44
G1 X59.73 Y-59.33
G1 X58.89 Y-60.21
G1 X58.03 Y-61.18 F141.00
G1 X57.16 Y-62.15 F158.63
G1 X56.26 Y-63.20 F176.25
G1 X55.36 Y-64.25
G1 X54.43 Y-65.40
G1 X53.50 Y-66.54
G1 X52.52 Y-67.78
G1 X51.55 Y-69.03
G1 X49.85 Y-71.32
G1 X48.14 Y-73.61
G1 X46.33 Y-76.19
G1 X44.51 Y-78.78
G1 X42.60 Y-81.63 F149.81
G1 X40.69 Y-84.48 F123.37
G1 X36.36 Y-86.98 F149.81
G1 X32.03 Y-89.48 F176.25
G1 X27.70 Y-91.98
G1 X27.25 Y-92.24 F167.44
G1 X22.92 Y-94.74 F149.81
G1 X18.59 Y-97.24 F114.56
G1 X14.26 Y-99.74 F79.31
G1 X13.82 Y-99.99 F114.56
G1 X13.06 Y-98.58 F88.13
G1 X12.30 Y-97.17
G1 X12.30 Y-97.17
G4 S1.
M9
G4 S1.
M5
G4 S1.
G0 X203.20 Y-100.81
M3
M8
G4 S3.33
G1 X204.02 Y-101.36
G1 X204.83 Y-101.91 F158.63
G1 X206.43 Y-103.07 F176.25
G1 X208.03 Y-104.23
G1 X208.81 Y-104.84 F167.44
G1 X209.58 Y-105.45 F158.63
G1 X211.10 Y-106.74 F176.25
G1 X212.61 Y-108.03
G1 X214.06 Y-109.40
G1 X215.51 Y-110.76
G1 X216.90 Y-112.21
G1 X218.29 Y-113.65
G1 X219.61 Y-115.17
G1 X220.93 Y-116.69
G1 X222.19 Y-118.29
G1 X223.45 Y-119.89
G1 X224.05 Y-120.71 F167.44
G1 X224.65 Y-121.53 F158.63
G1 X225.81 Y-123.23 F176.25
G1 X226.96 Y-124.94
G1 X228.05 Y-126.71
G1 X229.13 Y-128.48
G1 X229.64 Y-129.38 F167.44
G1 X230.16 Y-130.29 F158.63
G1 X231.13 Y-132.16 F176.25
G1 X232.10 Y-134.02
G1 X233.00 Y-135.95
G1 X233.90 Y-137.88
G1 X234.32 Y-138.86 F167.44
G1 X234.74 Y-139.85 F158.63
G1 X235.52 Y-141.86 F176.25
G1 X236.30 Y-143.87
G1 X236.67 Y-144.90 F167.44
G1 X237.03 Y-145.92 F158.63
G1 X237.69 Y-148.01 F176.25
G1 X238.36 Y-150.11
G1 X238.94 Y-152.25
G1 X239.52 Y-154.39
G1 X240.03 Y-156.57
G1 X240.53 Y-158.76
G1 X240.95 Y-160.98
G1 X241.38 Y-163.21
G1 X241.55 Y-164.34 F167.44
G1 X241.73 Y-165.46 F158.63
G1 X242.03 Y-167.75 F176.25
G1 X242.33 Y-170.03
G1 X242.55 Y-172.35
G1 X242.76 Y-174.67
G1 X242.89 Y-177.02 F149.81
G1 X243.02 Y-179.36 F114.56
G1 X243.07 Y-181.55 F79.31
G1 X243.11 Y-183.74
G1 X238.28 Y-185.04 F114.56
G1 X233.45 Y-186.33 F149.81
G1 X228.62 Y-187.62 F176.25
G1 X225.87 Y-188.36
G1 X221.04 Y-189.66
G1 X216.21 Y-190.95 F149.81
G1 X211.38 Y-192.24 F114.56
G1 X208.63 Y-192.98 F79.31
G1 X208.65 Y-192.96
G1 X208.66 Y-192.93
G1 X208.45 Y-192.65
G1 X208.23 Y-192.38
G1 X206.85 Y-192.90 F114.56
G1 X205.47 Y-193.41 F149.81
G1 X204.54 Y-193.73 F167.44
G1 X203.61 Y-194.04 F158.63
G1 X202.63 Y-194.32 F149.81
G1 X201.65 Y-194.61 F141.00
G1 X200.71 Y-194.83 F132.19
G1 X199.78 Y-195.05 F123.37
G1 X198.84 Y-195.22
G1 X197.91 Y-195.39
G1 X197.02 Y-195.51
G1 X196.14 Y-195.62
G1 X195.21 Y-195.69
G1 X194.28 Y-195.76
G1 X193.40 Y-195.77
G1 X192.52 Y-195.78
G1 X191.80 Y-195.75
G1 X191.09 Y-195.72
G1 X190.34 Y-195.65
G1 X189.59 Y-195.59
G1 X188.86 Y-195.49
G1 X188.14 Y-195.39
G1 X187.37 Y-195.25
G1 X186.61 Y-195.11
G1 X185.25 Y-194.80 F141.00
G1 X183.89 Y-194.49 F158.63
G1 X180.73 Y-193.63 F176.25
G1 X177.57 Y-192.78
G1 X176.78 Y-192.60 F167.44
G1 X175.99 Y-192.42 F158.63
G1 X175.27 Y-192.28 F149.81
G1 X174.55 Y-192.15 F141.00
G1 X173.81 Y-192.04 F132.19
G1 X173.07 Y-191.94 F123.37
G1 X172.31 Y-191.87
G1 X171.54 Y-191.80 F114.56
G1 X170.62 Y-191.78 F79.31
G1 X169.69 Y-191.77
G1 X173.07 Y-188.08 F114.56
G1 X176.45 Y-184.39 F149.81
G1 X178.29 Y-182.39 F176.25
G1 X181.67 Y-178.70 F149.81
G1 X185.04 Y-175.01 F114.56
G1 X186.89 Y-173.00 F79.31
G1 X186.64 Y-172.68
G1 X186.40 Y-172.36
G1 X181.96 Y-174.67 F114.56
G1 X177.53 Y-176.98 F149.81
G1 X175.75 Y-177.90
G1 X171.32 Y-180.21 F114.56
G1 X166.88 Y-182.52 F79.31
G1 X165.11 Y-183.44
G1 X166.71 Y-182.01 F114.56
G1 X168.31 Y-180.57 F149.81
G1 X169.02 Y-179.91 F167.44
G1 X169.72 Y-179.25 F158.63
G1 X170.41 Y-178.56 F149.81
G1 X171.10 Y-177.86 F141.00
G1 X171.79 Y-177.09 F132.19
G1 X172.48 Y-176.31 F123.37
G1 X172.89 Y-175.81
G1 X173.29 Y-175.31
G1 X173.69 Y-174.78
G1 X174.08 Y-174.24
G1 X174.73 Y-173.25
G1 X175.38 Y-172.26
G1 X176.00 Y-171.15 F141.00
G1 X176.62 Y-170.03 F158.63
G1 X177.10 Y-169.03 F149.81
G1 X177.58 Y-168.03 F141.00
G1 X177.92 Y-167.21 F132.19
G1 X178.26 Y-166.40 F123.37
G1 X178.60 Y-165.51
G1 X178.93 Y-164.63
G1 X179.25 Y-163.68
G1 X179.57 Y-162.73
G1 X179.88 Y-161.70
G1 X180.18 Y-160.68
G1 X180.48 Y-159.58
G1 X180.77 Y-158.48
G1 X181.05 Y-157.30
G1 X181.33 Y-156.11
G1 X181.60 Y-154.84 F141.00
G1 X181.87 Y-153.57 F158.63
G1 X182.12 Y-152.21 F176.25
G1 X182.37 Y-150.85
G1 X182.61 Y-149.39
G1 X182.84 Y-147.93
G1 X183.06 Y-146.37
G1 X183.28 Y-144.81
G1 X183.61 Y-141.97
G1 X183.94 Y-139.14
G1 X184.23 Y-135.99
G1 X184.51 Y-132.84
G1 X184.74 Y-129.42 F149.81
G1 X184.96 Y-125.99 F123.37
G1 X187.46 Y-121.66 F149.81
G1 X189.96 Y-117.33 F176.25
G1 X192.46 Y-113.00
G1 X192.72 Y-112.56 F167.44
G1 X195.22 Y-108.23 F149.81
G1 X197.72 Y-103.90 F114.56
G1 X200.22 Y-99.57 F79.31
G1 X200.48 Y-99.13 F114.56
G1 X201.84 Y-99.97 F88.13
G1 X203.20 Y-100.81
G1 X203.20 Y-100.81
G4 S1.
M9
G4 S1.
M5
G4 S1.
G0 X93.65 Y-130.30
M3
M8
G4 S3.33
G1 X94.21 Y-131.37
G1 X94.76 Y-132.44 F158.63
G1 X95.83 Y-134.62 F176.25
G1 X96.90 Y-136.81
G1 X97.90 Y-139.04
G1 X98.90 Y-141.28
G1 X99.83 Y-143.57
G1 X100.76 Y-145.85
G1 X101.63 Y-148.19
G1 X102.49 Y-150.52
G1 X103.29 Y-152.90
G1 X104.08 Y-155.27
G1 X104.81 Y-157.69
G1 X105.53 Y-160.10
G1 X106.18 Y-162.55
G1 X106.83 Y-165.00
G1 X107.41 Y-167.48
G1 X107.99 Y-169.96
G1 X108.49 Y-172.47
G1 X109.00 Y-174.98
G1 X109.43 Y-177.52
G1 X109.85 Y-180.05
G1 X110.21 Y-182.60
G1 X110.56 Y-185.16
G1 X110.84 Y-187.73
G1 X111.11 Y-190.30
G1 X111.31 Y-192.88
G1 X111.51 Y-195.46
G1 X111.64 Y-198.05 F149.81
G1 X111.76 Y-200.64 F114.56
G1 X111.80 Y-203.05 F79.31
G1 X111.85 Y-205.46
G1 X109.53 Y-206.06 F114.56
G1 X107.22 Y-206.66 F149.81
G1 X104.93 Y-207.18 F176.25
G1 X102.65 Y-207.70
G1 X100.55 Y-208.10
G1 X98.45 Y-208.50
G1 X96.52 Y-208.79
G1 X94.60 Y-209.08
G1 X92.69 Y-209.27
G1 X90.78 Y-209.46
G1 X89.04 Y-209.55
G1 X87.30 Y-209.63
G1 X86.43 Y-209.63 F167.44
G1 X85.56 Y-209.63 F158.63
G1 X84.72 Y-209.60 F149.81
G1 X83.88 Y-209.58 F141.00
G1 X83.09 Y-209.52 F132.19
G1 X82.29 Y-209.47 F123.37
G1 X81.55 Y-209.40
G1 X80.81 Y-209.32
G1 X79.71 Y-209.16
G1 X78.62 Y-209.00
G1 X77.58 Y-208.79
G1 X76.54 Y-208.58
G1 X75.38 Y-208.28
G1 X74.22 Y-207.99
G1 X73.10 Y-207.64
G1 X71.99 Y-207.28
G1 X71.05 Y-206.95
G1 X70.12 Y-206.61
G1 X69.19 Y-206.25
G1 X68.27 Y-205.88
G1 X63.92 Y-204.01 F141.00
G1 X59.58 Y-202.13 F158.63
G1 X57.39 Y-201.27 F176.25
G1 X55.21 Y-200.40
G1 X54.02 Y-199.97 F167.44
G1 X52.82 Y-199.55 F158.63
G1 X51.56 Y-199.14 F149.81
G1 X50.30 Y-198.73 F114.56
G1 X48.53 Y-198.24 F79.31
G1 X46.76 Y-197.74
G1 X50.97 Y-195.05 F114.56
G1 X55.19 Y-192.37 F149.81
G1 X59.41 Y-189.68 F176.25
G1 X59.94 Y-189.34 F167.44
G1 X64.16 Y-186.66 F149.81
G1 X68.37 Y-183.97 F114.56
G1 X72.59 Y-181.28 F79.31
G1 X73.12 Y-180.94
G1 X72.97 Y-180.57
G1 X72.81 Y-180.20
G1 X67.93 Y-181.28 F114.56
G1 X63.05 Y-182.36 F149.81
G1 X58.17 Y-183.45 F176.25
G1 X54.91 Y-184.17
G1 X50.03 Y-185.25
G1 X45.15 Y-186.33 F149.81
G1 X40.27 Y-187.41 F114.56
G1 X37.01 Y-188.14 F79.31
G1 X37.29 Y-187.34 F114.56
G1 X37.57 Y-186.54 F149.81
G1 X37.81 Y-186.02
G1 X38.04 Y-185.49 F141.00
G1 X38.29 Y-185.00 F132.19
G1 X38.54 Y-184.51 F123.37
G1 X38.81 Y-184.06
G1 X39.08 Y-183.61
G1 X39.43 Y-183.10
G1 X39.77 Y-182.60
G1 X40.08 Y-182.22
G1 X40.38 Y-181.84
G1 X40.77 Y-181.41
G1 X41.16 Y-180.98
G1 X41.50 Y-180.65
G1 X41.84 Y-180.33
G1 X42.27 Y-179.96
G1 X42.69 Y-179.59
G1 X43.14 Y-179.24
G1 X43.58 Y-178.90
G1 X44.12 Y-178.53
G1 X44.66 Y-178.15
G1 X45.72 Y-177.51
G1 X46.78 Y-176.87
G1 X49.55 Y-175.34 F141.00
G1 X52.32 Y-173.82 F158.63
G1 X53.10 Y-173.34 F149.81
G1 X53.88 Y-172.87 F141.00
G1 X54.55 Y-172.42 F132.19
G1 X55.22 Y-171.96 F123.37
G1 X55.88 Y-171.46
G1 X56.53 Y-170.96
G1 X57.16 Y-170.41
G1 X57.79 Y-169.86
G1 X58.32 Y-169.33
G1 X58.85 Y-168.81
G1 X59.36 Y-168.22
G1 X59.87 Y-167.63
G1 X60.35 Y-166.98
G1 X60.82 Y-166.34
G1 X61.27 Y-165.64
G1 X61.71 Y-164.94
G1 X62.06 Y-164.30
G1 X62.41 Y-163.66
G1 X62.80 Y-162.82
G1 X63.19 Y-161.97
G1 X63.48 Y-161.21
G1 X63.77 Y-160.45
G1 X64.08 Y-159.47
G1 X64.40 Y-158.49
G1 X64.62 Y-157.60
G1 X64.85 Y-156.71
G1 X65.04 Y-155.76
G1 X65.24 Y-154.81
G1 X65.39 Y-153.87
G1 X65.54 Y-152.93
G1 X69.07 Y-149.40 F141.00
G1 X72.61 Y-145.86 F158.63
G1 X76.15 Y-142.32 F176.25
G1 X78.62 Y-139.85
G1 X82.15 Y-136.32
G1 X85.69 Y-132.78 F149.81
G1 X89.23 Y-129.24 F114.56
G1 X91.70 Y-126.77 F132.19
G1 X92.67 Y-128.53 F88.13
G1 X93.65 Y-130.30
G1 X93.65 Y-130.30
G4 S1.
M9
G4 S1.
M5
G4 S1.
G0 X21.67 Y-187.74
M3
M8
G4 S3.33
G1 X21.12 Y-186.67
G1 X20.56 Y-185.60 F158.63
G1 X19.49 Y-183.42 F176.25
G1 X18.43 Y-181.23
G1 X17.43 Y-178.99
G1 X16.43 Y-176.76
G1 X15.49 Y-174.47
G1 X14.56 Y-172.18
G1 X13.69 Y-169.85
G1 X12.83 Y-167.52
G1 X12.03 Y-165.14
G1 X11.24 Y-162.77
G1 X10.52 Y-160.35
G1 X9.79 Y-157.94
G1 X9.14 Y-155.49
G1 X8.49 Y-153.04
G1 X7.91 Y-150.55
G1 X7.33 Y-148.07
G1 X6.83 Y-145.56
G1 X6.33 Y-143.05
G1 X5.90 Y-140.52
G1 X5.47 Y-137.99
G1 X5.12 Y-135.43
G1 X4.76 Y-132.88
G1 X4.48 Y-130.31
G1 X4.21 Y-127.74
G1 X4.01 Y-125.16
G1 X3.81 Y-122.58
G1 X3.68 Y-119.99 F149.81
G1 X3.56 Y-117.39 F114.56
G1 X3.52 Y-114.99 F79.31
G1 X3.47 Y-112.58
G1 X5.79 Y-111.98 F114.56
G1 X8.10 Y-111.38 F149.81
G1 X10.39 Y-110.86 F176.25
G1 X12.68 Y-110.34
G1 X14.78 Y-109.94
G1 X16.87 Y-109.54
G1 X18.80 Y-109.25
G1 X20.72 Y-108.96
G1 X22.63 Y-108.77
G1 X24.54 Y-108.57
G1 X26.28 Y-108.49
G1 X28.02 Y-108.41
G1 X28.89 Y-108.41 F167.44
G1 X29.77 Y-108.41 F158.63
G1 X30.60 Y-108.43 F149.81
G1 X31.44 Y-108.46 F141.00
G1 X32.24 Y-108.51 F132.19
G1 X33.04 Y-108.57 F123.37
G1 X33.77 Y-108.64
G1 X34.51 Y-108.72
G1 X35.61 Y-108.88
G1 X36.71 Y-109.04
G1 X37.75 Y-109.25
G1 X38.79 Y-109.45
G1 X39.95 Y-109.75
G1 X41.10 Y-110.05
G1 X42.22 Y-110.40
G1 X43.34 Y-110.75
G1 X44.27 Y-111.09
G1 X45.20 Y-111.43
G1 X46.13 Y-111.79
G1 X47.06 Y-112.16
G1 X51.40 Y-114.03 F141.00
G1 X55.75 Y-115.90 F158.63
G1 X57.93 Y-116.77 F176.25
G1 X60.11 Y-117.64
G1 X61.31 Y-118.07 F167.44
G1 X62.50 Y-118.49 F158.63
G1 X63.76 Y-118.90 F149.81
G1 X65.02 Y-119.31 F114.56
G1 X66.79 Y-119.80 F79.31
G1 X68.57 Y-120.30
G1 X64.35 Y-122.98 F114.56
G1 X60.13 Y-125.67 F149.81
G1 X55.92 Y-128.36 F176.25
G1 X55.38 Y-128.70 F167.44
G1 X51.17 Y-131.38 F149.81
G1 X46.95 Y-134.07 F114.56
G1 X42.73 Y-136.76 F79.31
G1 X42.20 Y-137.09
G1 X42.36 Y-137.47
G1 X42.51 Y-137.84
G1 X47.39 Y-136.76 F114.56
G1 X52.27 Y-135.67 F149.81
G1 X57.15 Y-134.59 F176.25
G1 X60.41 Y-133.87
G1 X65.29 Y-132.79
G1 X70.17 Y-131.71 F149.81
G1 X75.05 Y-130.62 F114.56
G1 X78.31 Y-129.90 F79.31
G1 X78.03 Y-130.70 F114.56
G1 X77.75 Y-131.49 F149.81
G1 X77.52 Y-132.02
G1 X77.29 Y-132.55 F141.00
G1 X77.03 Y-133.04 F132.19
G1 X76.78 Y-133.53 F123.37
G1 X76.51 Y-133.98
G1 X76.24 Y-134.43
G1 X75.90 Y-134.93
G1 X75.55 Y-135.43
G1 X75.24 Y-135.82
G1 X74.94 Y-136.20
G1 X74.55 Y-136.63
G1 X74.16 Y-137.05
G1 X73.82 Y-137.38
G1 X73.48 Y-137.71
G1 X73.06 Y-138.08
G1 X72.63 Y-138.45
G1 X72.18 Y-138.79
G1 X71.74 Y-139.14
G1 X71.20 Y-139.51
G1 X70.66 Y-139.88
G1 X69.60 Y-140.53
G1 X68.54 Y-141.17
G1 X65.77 Y-142.69 F141.00
G1 X63.00 Y-144.22 F158.63
G1 X62.22 Y-144.69 F149.81
G1 X61.44 Y-145.17 F141.00
G1 X60.77 Y-145.62 F132.19
G1 X60.10 Y-146.07 F123.37
G1 X59.45 Y-146.57
G1 X58.79 Y-147.07
G1 X58.16 Y-147.62
G1 X57.53 Y-148.17
G1 X57.00 Y-148.70
G1 X56.48 Y-149.23
G1 X55.97 Y-149.82
G1 X55.46 Y-150.41
G1 X54.98 Y-151.05
G1 X54.50 Y-151.70
G1 X54.06 Y-152.39
G1 X53.61 Y-153.09
G1 X53.26 Y-153.74
G1 X52.91 Y-154.38
G1 X52.52 Y-155.22
G1 X52.14 Y-156.07
G1 X51.84 Y-156.82
G1 X51.55 Y-157.58
G1 X51.24 Y-158.57
G1 X50.93 Y-159.55
G1 X50.70 Y-160.44
G1 X50.47 Y-161.33
G1 X50.28 Y-162.28
G1 X50.08 Y-163.22
G1 X49.93 Y-164.16
G1 X49.78 Y-165.11
G1 X46.25 Y-168.64 F141.00
G1 X42.71 Y-172.18 F158.63
G1 X39.18 Y-175.71 F176.25
G1 X36.70 Y-178.19
G1 X33.17 Y-181.72
G1 X29.63 Y-185.26 F149.81
G1 X26.10 Y-188.79 F114.56
G1 X23.62 Y-191.27 F132.19
G1 X22.65 Y-189.50 F88.13
G1 X21.67 Y-187.74
G1 X21.67 Y-187.74
G4 S1.
M9
G4 S1.
M5
G4 S1.
G0 X175.75 Y-153.66
M3
M8
G4 S3.33
G1 X174.34 Y-155.84
G1 X172.94 Y-158.01 F176.25
G1 X171.47 Y-160.15
G1 X170.00 Y-162.28
G1 X168.47 Y-164.36
G1 X166.94 Y-166.44
G1 X165.35 Y-168.47
G1 X163.76 Y-170.51
G1 X162.12 Y-172.48
G1 X160.48 Y-174.46
G1 X158.78 Y-176.37
G1 X157.09 Y-178.29
G1 X155.34 Y-180.14
G1 X153.60 Y-182.00
G1 X151.80 Y-183.79
G1 X150.01 Y-185.58
G1 X149.10 Y-186.45 F167.44
G1 X148.19 Y-187.32 F158.63
G1 X146.33 Y-189.01 F176.25
G1 X144.47 Y-190.70
G1 X142.57 Y-192.32
G1 X140.67 Y-193.94
G1 X138.73 Y-195.48
G1 X136.80 Y-197.03
G1 X134.82 Y-198.50
G1 X132.85 Y-199.97
G1 X130.85 Y-201.36
G1 X128.85 Y-202.75
G1 X126.82 Y-204.06 F149.81
G1 X124.78 Y-205.38 F114.56
G1 X123.00 Y-206.44 F79.31
G1 X121.21 Y-207.51
G1 X119.91 Y-202.68 F114.56
G1 X118.62 Y-197.85 F149.81
G1 X117.33 Y-193.02 F176.25
G1 X116.52 Y-190.02
G1 X115.23 Y-185.19
G1 X113.93 Y-180.36 F149.81
G1 X112.64 Y-175.53 F114.56
G1 X111.83 Y-172.52 F79.31
G1 X112.09 Y-172.33
G1 X112.35 Y-172.13
G1 X111.81 Y-170.63 F114.56
G1 X111.26 Y-169.14 F149.81
G1 X110.90 Y-167.95 F167.44
G1 X110.53 Y-166.75 F158.63
G1 X110.25 Y-165.58 F149.81
G1 X109.96 Y-164.42 F141.00
G1 X109.76 Y-163.27 F132.19
G1 X109.56 Y-162.13 F123.37
G1 X109.44 Y-161.10
G1 X109.33 Y-160.06
G1 X109.28 Y-159.02
G1 X109.24 Y-157.98
G1 X109.26 Y-156.92
G1 X109.29 Y-155.87
G1 X109.38 Y-154.87
G1 X109.48 Y-153.87
G1 X109.62 Y-152.92
G1 X109.77 Y-151.96
G1 X109.99 Y-150.93
G1 X110.20 Y-149.89
G1 X110.45 Y-148.91
G1 X110.69 Y-147.92
G1 X111.41 Y-145.30 F141.00
G1 X112.12 Y-142.68 F158.63
G1 X112.31 Y-141.91 F149.81
G1 X112.49 Y-141.13 F141.00
G1 X112.64 Y-140.41 F132.19
G1 X112.78 Y-139.69 F123.37
G1 X112.91 Y-138.87
G1 X113.04 Y-138.05
G1 X113.12 Y-137.22
G1 X113.20 Y-136.38 F114.56
G1 X113.23 Y-135.36 F79.31
G1 X113.25 Y-134.34
G1 X116.93 Y-137.72 F114.56
G1 X120.62 Y-141.10 F149.81
G1 X122.63 Y-142.94 F176.25
G1 X126.32 Y-146.32 F149.81
G1 X130.00 Y-149.70 F114.56
G1 X132.01 Y-151.54 F79.31
G1 X132.33 Y-151.29
G1 X132.65 Y-151.05
G1 X130.34 Y-146.61 F114.56
G1 X128.04 Y-142.18 F149.81
G1 X127.11 Y-140.41
G1 X124.81 Y-135.97 F114.56
G1 X122.50 Y-131.54 F79.31
G1 X121.57 Y-129.77
G1 X123.01 Y-131.36 F114.56
G1 X124.44 Y-132.96 F149.81
G1 X125.24 Y-133.80 F167.44
G1 X126.03 Y-134.65 F158.63
G1 X126.89 Y-135.48 F149.81
G1 X127.76 Y-136.31 F141.00
G1 X128.72 Y-137.12 F132.19
G1 X129.68 Y-137.93 F123.37
G1 X130.23 Y-138.33
G1 X130.77 Y-138.73
G1 X131.34 Y-139.12
G1 X131.91 Y-139.51
G1 X132.53 Y-139.89
G1 X133.15 Y-140.27
G1 X133.83 Y-140.65
G1 X134.50 Y-141.02
G1 X135.73 Y-141.62 F141.00
G1 X136.96 Y-142.22 F158.63
G1 X138.36 Y-142.78 F176.25
G1 X139.75 Y-143.35
G1 X140.68 Y-143.67 F167.44
G1 X141.60 Y-144.00 F158.63
G1 X142.60 Y-144.31 F149.81
G1 X143.59 Y-144.62 F141.00
G1 X145.43 Y-145.11 F158.63
G1 X147.26 Y-145.60 F176.25
G1 X149.33 Y-146.06
G1 X151.39 Y-146.51
G1 X153.71 Y-146.92
G1 X156.03 Y-147.33
G1 X158.62 Y-147.70
G1 X161.21 Y-148.07
G1 X164.10 Y-148.39
G1 X166.99 Y-148.71
G1 X170.19 Y-148.98 F149.81
G1 X173.39 Y-149.25 F114.56
G1 X175.80 Y-149.41 F79.31
G1 X178.22 Y-149.57 F114.56
G1 X176.98 Y-151.61 F88.13
G1 X175.75 Y-153.66
G1 X175.75 Y-153.66
G4 S1.
M9
G4 S1.
M5
G4 S1.
G0 X99.17 Y-28.33
M3
M8
G4 S3.33
G1 X101.36 Y-26.96
G1 X103.56 Y-25.58 F176.25
G1 X105.79 Y-24.26
G1 X108.03 Y-22.95
G1 X110.29 Y-21.71
G1 X112.56 Y-20.47
G1 X114.86 Y-19.30
G1 X117.15 Y-18.13
G1 X119.48 Y-17.03
G1 X121.80 Y-15.94
G1 X124.14 Y-14.92
G1 X126.49 Y-13.90
G1 X128.86 Y-12.95
G1 X131.22 Y-12.01
G1 X133.61 Y-11.14
G1 X135.99 Y-10.28
G1 X137.18 Y-9.88 F167.44
G1 X138.38 Y-9.47 F158.63
G1 X140.78 Y-8.73 F176.25
G1 X143.17 Y-7.98
G1 X145.58 Y-7.32
G1 X147.99 Y-6.65
G1 X150.39 Y-6.07
G1 X152.80 Y-5.49
G1 X155.21 Y-4.99
G1 X157.62 Y-4.49
G1 X160.02 Y-4.08
G1 X162.43 Y-3.66
G1 X164.82 Y-3.33 F149.81
G1 X167.22 Y-3.00 F114.56
G1 X169.29 Y-2.79 F79.31
G1 X171.36 Y-2.58
G1 X170.49 Y-7.50 F114.56
G1 X169.62 Y-12.42 F149.81
G1 X168.76 Y-17.35 F176.25
G1 X168.22 Y-20.41
G1 X167.35 Y-25.34
G1 X166.48 Y-30.26 F149.81
G1 X165.61 Y-35.18 F114.56
G1 X165.07 Y-38.25 F79.31
G1 X164.75 Y-38.32
G1 X164.44 Y-38.39
G1 X164.30 Y-39.97 F114.56
G1 X164.16 Y-41.55 F149.81
G1 X163.98 Y-42.79 F167.44
G1 X163.81 Y-44.03 F158.63
G1 X163.57 Y-45.21 F149.81
G1 X163.34 Y-46.39 F141.00
G1 X163.04 Y-47.51 F132.19
G1 X162.74 Y-48.63 F123.37
G1 X162.41 Y-49.61
G1 X162.07 Y-50.60
G1 X161.68 Y-51.56
G1 X161.28 Y-52.53
G1 X160.81 Y-53.47
G1 X160.34 Y-54.42
G1 X159.83 Y-55.28
G1 X159.32 Y-56.15
G1 X158.79 Y-56.95
G1 X158.25 Y-57.76
G1 X157.62 Y-58.60
G1 X156.98 Y-59.45
G1 X156.34 Y-60.24
G1 X155.70 Y-61.03
G1 X153.95 Y-63.10 F141.00
G1 X152.20 Y-65.17 F158.63
G1 X151.70 Y-65.80 F149.81
G1 X151.20 Y-66.42 F141.00
G1 X150.77 Y-67.01 F132.19
G1 X150.33 Y-67.60 F123.37
G1 X149.87 Y-68.29
G1 X149.41 Y-68.98
G1 X148.98 Y-69.70
G1 X148.55 Y-70.42 F114.56
G1 X148.10 Y-71.34 F79.31
G1 X147.65 Y-72.26
G1 X145.74 Y-67.64 F114.56
G1 X143.83 Y-63.02 F149.81
G1 X142.78 Y-60.50 F176.25
G1 X140.87 Y-55.88 F149.81
G1 X138.96 Y-51.26 F114.56
G1 X137.91 Y-48.74 F79.31
G1 X137.52 Y-48.82
G1 X137.12 Y-48.91
G1 X137.34 Y-53.91 F114.56
G1 X137.56 Y-58.90 F149.81
G1 X137.65 Y-60.90
G1 X137.87 Y-65.89 F114.56
G1 X138.08 Y-70.89 F79.31
G1 X138.17 Y-72.88
G1 X137.55 Y-70.83 F114.56
G1 X136.92 Y-68.78 F149.81
G1 X136.56 Y-67.68 F167.44
G1 X136.19 Y-66.58 F158.63
G1 X135.76 Y-65.46 F149.81
G1 X135.33 Y-64.34 F141.00
G1 X134.80 Y-63.20 F132.19
G1 X134.27 Y-62.06 F123.37
G1 X133.95 Y-61.47
G1 X133.63 Y-60.87
G1 X133.27 Y-60.28
G1 X132.92 Y-59.69
G1 X132.52 Y-59.08
G1 X132.12 Y-58.47
G1 X131.67 Y-57.84
G1 X131.21 Y-57.22
G1 X130.35 Y-56.16 F141.00
G1 X129.49 Y-55.09 F158.63
G1 X128.46 Y-53.99 F176.25
G1 X127.44 Y-52.89
G1 X126.74 Y-52.20 F167.44
G1 X126.03 Y-51.52 F158.63
G1 X125.27 Y-50.82 F149.81
G1 X124.50 Y-50.12 F141.00
G1 X123.04 Y-48.89 F158.63
G1 X121.58 Y-47.67 F176.25
G1 X119.90 Y-46.39
G1 X118.22 Y-45.11
G1 X116.30 Y-43.76
G1 X114.37 Y-42.40
G1 X112.18 Y-40.98
G1 X109.98 Y-39.55
G1 X107.50 Y-38.04
G1 X105.02 Y-36.52
G1 X102.23 Y-34.92 F149.81
G1 X99.45 Y-33.32 F114.56
G1 X97.33 Y-32.16 F79.31
G1 X95.20 Y-31.00 F114.56
G1 X97.19 Y-29.67 F88.13
G1 X99.17 Y-28.33
G1 X99.17 Y-28.33
G4 S1.
M9
G4 S1.
M5
G4 S1.
G0 X270.13 Y-191.04
M3
M8
G4 S3.33
G1 X269.58 Y-190.57
G1 X269.02 Y-190.10 F158.63
G1 X268.62 Y-189.70 F149.81
G1 X268.21 Y-189.30 F141.00
G1 X267.78 Y-188.81 F132.19
G1 X267.34 Y-188.33 F123.37
G1 X266.97 Y-187.83
G1 X266.59 Y-187.34
G1 X266.26 Y-186.84
G1 X265.94 Y-186.34
G1 X265.66 Y-185.83
G1 X265.37 Y-185.32
G1 X265.09 Y-184.72
G1 X264.82 Y-184.11
G1 X264.65 Y-183.68
G1 X264.48 Y-183.24
G1 X264.30 Y-182.71
G1 X264.13 Y-182.18
G1 X263.85 Y-181.08
G1 X263.57 Y-179.98
G1 X263.37 Y-178.85
G1 X263.16 Y-177.72
G1 X262.74 Y-174.99 F141.00
G1 X262.32 Y-172.26 F158.63
G1 X262.18 Y-171.48 F149.81
G1 X262.03 Y-170.71 F141.00
G1 X261.87 Y-170.04 F132.19
G1 X261.72 Y-169.37 F123.37
G1 X261.50 Y-168.59
G1 X261.27 Y-167.80
G1 X261.04 Y-167.12
G1 X260.80 Y-166.44
G1 X260.52 Y-165.76
G1 X260.24 Y-165.08
G1 X259.90 Y-164.42
G1 X259.57 Y-163.75
G1 X259.10 Y-162.96
G1 X258.63 Y-162.16
G1 X258.06 Y-161.39
G1 X257.50 Y-160.61
G1 X256.84 Y-159.84
G1 X256.18 Y-159.08
G1 X255.41 Y-158.33
G1 X254.65 Y-157.58
G1 X253.76 Y-156.84
G1 X252.86 Y-156.09
G1 X252.00 Y-155.47
G1 X251.13 Y-154.84
G1 X250.16 Y-154.22
G1 X249.19 Y-153.61
G1 X248.19 Y-153.04
G1 X247.18 Y-152.48
G1 X245.07 Y-147.95 F141.00
G1 X242.95 Y-143.42 F158.63
G1 X240.84 Y-138.89 F176.25
G1 X239.25 Y-135.48
G1 X237.14 Y-130.95
G1 X235.02 Y-126.41 F149.81
G1 X232.91 Y-121.88 F114.56
G1 X231.32 Y-118.47 F79.31
G1 X232.94 Y-117.18 F114.56
G1 X234.56 Y-115.88 F149.81
G1 X235.50 Y-115.17 F167.44
G1 X236.44 Y-114.46 F158.63
G1 X238.34 Y-113.10 F176.25
G1 X240.24 Y-111.73
G1 X241.20 Y-111.08 F167.44
G1 X242.16 Y-110.44 F158.63
G1 X244.10 Y-109.20 F176.25
G1 X246.04 Y-107.97
G1 X248.01 Y-106.82
G1 X249.98 Y-105.67
G1 X251.97 Y-104.61
G1 X253.96 Y-103.55
G1 X255.97 Y-102.59
G1 X257.97 Y-101.62
G1 X258.98 Y-101.17 F167.44
G1 X259.99 Y-100.72 F158.63
G1 X262.02 Y-99.89 F176.25
G1 X264.05 Y-99.06
G1 X266.09 Y-98.32
G1 X268.13 Y-97.59
G1 X270.18 Y-96.95
G1 X272.23 Y-96.31
G1 X274.28 Y-95.76
G1 X276.33 Y-95.22
G1 X278.39 Y-94.77
G1 X280.44 Y-94.32
G1 X282.50 Y-93.97
G1 X284.55 Y-93.62
G1 X285.57 Y-93.48 F167.44
G1 X286.60 Y-93.34 F158.63
G1 X288.64 Y-93.14 F176.25
G1 X290.69 Y-92.93
G1 X291.71 Y-92.87 F167.44
G1 X292.72 Y-92.80 F158.63
G1 X294.75 Y-92.75 F176.25
G1 X296.78 Y-92.69
G1 X298.80 Y-92.73
G1 X300.82 Y-92.78
G1 X302.81 Y-92.92
G1 X304.81 Y-93.06
G1 X306.79 Y-93.30
G1 X308.77 Y-93.54
G1 X309.75 Y-93.69 F167.44
G1 X310.73 Y-93.85 F158.63
G1 X312.67 Y-94.23 F176.25
G1 X314.62 Y-94.62
G1 X315.58 Y-94.85 F167.44
G1 X316.53 Y-95.08 F158.63
G1 X318.44 Y-95.61 F149.81
G1 X320.34 Y-96.14 F114.56
G1 X321.98 Y-96.69 F79.31
G1 X323.62 Y-97.24
G1 X321.91 Y-101.94 F114.56
G1 X320.20 Y-106.64 F149.81
G1 X318.49 Y-111.33 F176.25
G1 X318.35 Y-111.71 F167.44
G1 X316.64 Y-116.41 F149.81
G1 X314.93 Y-121.11 F114.56
G1 X313.22 Y-125.80 F79.31
G1 X313.09 Y-126.18
G1 X312.95 Y-126.13 F123.37
G1 X312.82 Y-126.09
G1 X312.63 Y-126.22
G1 X312.44 Y-126.34
G1 X312.18 Y-129.02 F149.81
G1 X311.92 Y-131.70 F176.25
G1 X311.63 Y-134.03
G1 X311.34 Y-136.36
G1 X310.99 Y-138.46
G1 X310.65 Y-140.57
G1 X310.26 Y-142.48
G1 X309.88 Y-144.38
G1 X309.41 Y-146.24
G1 X308.94 Y-148.10
G1 X308.42 Y-149.76
G1 X307.90 Y-151.42
G1 X307.60 Y-152.24 F167.44
G1 X307.31 Y-153.06 F158.63
G1 X307.00 Y-153.84 F149.81
G1 X306.68 Y-154.62 F141.00
G1 X306.36 Y-155.35 F132.19
G1 X306.04 Y-156.08 F123.37
G1 X305.71 Y-156.75
G1 X305.39 Y-157.42
G1 X304.87 Y-158.39
G1 X304.34 Y-159.37
G1 X303.79 Y-160.27
G1 X303.24 Y-161.18
G1 X302.56 Y-162.17
G1 X301.88 Y-163.15
G1 X301.17 Y-164.08
G1 X300.46 Y-165.01
G1 X299.82 Y-165.77
G1 X299.19 Y-166.54
G1 X298.53 Y-167.28
G1 X297.87 Y-168.03
G1 X294.62 Y-171.47 F141.00
G1 X291.38 Y-174.91 F158.63
G1 X289.81 Y-176.67 F176.25
G1 X288.25 Y-178.42
G1 X287.44 Y-179.40 F167.44
G1 X286.63 Y-180.37 F158.63
G1 X285.82 Y-181.42 F149.81
G1 X285.01 Y-182.46 F114.56
G1 X283.93 Y-183.96 F79.31
G1 X282.86 Y-185.46
G1 X281.78 Y-180.57 F114.56
G1 X280.70 Y-175.69 F149.81
G1 X279.62 Y-170.81 F176.25
G1 X279.48 Y-170.20 F167.44
G1 X278.40 Y-165.31 F149.81
G1 X277.31 Y-160.43 F114.56
G1 X276.23 Y-155.55 F79.31
G1 X276.10 Y-154.94
G1 X275.69 Y-154.95
G1 X275.29 Y-154.97
G1 X274.64 Y-159.93 F114.56
G1 X273.99 Y-164.89 F149.81
G1 X273.33 Y-169.84 F176.25
G1 X272.90 Y-173.15
G1 X272.25 Y-178.11
G1 X271.59 Y-183.06 F149.81
G1 X270.94 Y-188.02 F114.56
G1 X270.50 Y-191.33 F132.19
G1 X270.32 Y-191.19 F88.13
G1 X270.13 Y-191.04
G1 X270.13 Y-191.04
G4 S1.
M9
G4 S1.
M5
G4 S1.
G0 X40.96 Y-92.47
M3
M8
G4 S3.33
G1 X41.33 Y-91.85
G1 X41.70 Y-91.22 F158.63
G1 X42.03 Y-90.75 F149.81
G1 X42.35 Y-90.28 F141.00
G1 X42.75 Y-89.77 F132.19
G1 X43.16 Y-89.26 F123.37
G1 X43.57 Y-88.80
G1 X43.99 Y-88.35
G1 X44.43 Y-87.94
G1 X44.87 Y-87.53
G1 X45.32 Y-87.16
G1 X45.77 Y-86.80
G1 X46.32 Y-86.42
G1 X46.86 Y-86.04
G1 X47.26 Y-85.80
G1 X47.66 Y-85.56
G1 X48.16 Y-85.29
G1 X48.65 Y-85.03
G1 X49.68 Y-84.56
G1 X50.72 Y-84.10
G1 X51.79 Y-83.70
G1 X52.87 Y-83.30
G1 X55.49 Y-82.41 F141.00
G1 X58.11 Y-81.53 F158.63
G1 X58.84 Y-81.25 F149.81
G1 X59.58 Y-80.97 F141.00
G1 X60.21 Y-80.70 F132.19
G1 X60.84 Y-80.43 F123.37
G1 X61.58 Y-80.07
G1 X62.31 Y-79.72
G1 X62.94 Y-79.37
G1 X63.58 Y-79.01
G1 X64.19 Y-78.62
G1 X64.81 Y-78.22
G1 X65.41 Y-77.78
G1 X66.01 Y-77.34
G1 X66.71 Y-76.73
G1 X67.40 Y-76.13
G1 X68.07 Y-75.44
G1 X68.74 Y-74.76
G1 X69.38 Y-73.97
G1 X70.02 Y-73.19
G1 X70.63 Y-72.30
G1 X71.23 Y-71.42
G1 X71.81 Y-70.41
G1 X72.38 Y-69.40
G1 X72.85 Y-68.44
G1 X73.32 Y-67.48
G1 X73.75 Y-66.41
G1 X74.19 Y-65.35
G1 X74.57 Y-64.27
G1 X74.95 Y-63.18
G1 X79.05 Y-60.31 F141.00
G1 X83.15 Y-57.44 F158.63
G1 X87.24 Y-54.57 F176.25
G1 X90.32 Y-52.42
G1 X94.42 Y-49.55
G1 X98.51 Y-46.68 F149.81
G1 X102.61 Y-43.81 F114.56
G1 X105.69 Y-41.66 F79.31
G1 X107.25 Y-43.03 F114.56
G1 X108.81 Y-44.40 F149.81
G1 X109.67 Y-45.20 F167.44
G1 X110.53 Y-45.99 F158.63
G1 X112.21 Y-47.63 F176.25
G1 X113.88 Y-49.27
G1 X114.68 Y-50.10 F167.44
G1 X115.49 Y-50.93 F158.63
G1 X117.04 Y-52.63 F176.25
G1 X118.60 Y-54.33
G1 X120.07 Y-56.07
G1 X121.54 Y-57.81
G1 X122.93 Y-59.58
G1 X124.31 Y-61.36
G1 X125.62 Y-63.17
G1 X126.92 Y-64.98
G1 X127.54 Y-65.89 F167.44
G1 X128.15 Y-66.80 F158.63
G1 X129.32 Y-68.66 F176.25
G1 X130.49 Y-70.52
G1 X131.57 Y-72.40
G1 X132.65 Y-74.28
G1 X133.64 Y-76.19
G1 X134.62 Y-78.09
G1 X135.52 Y-80.02
G1 X136.41 Y-81.95
G1 X137.21 Y-83.89
G1 X138.01 Y-85.84
G1 X138.71 Y-87.80
G1 X139.41 Y-89.76
G1 X139.72 Y-90.74 F167.44
G1 X140.04 Y-91.73 F158.63
G1 X140.59 Y-93.71 F176.25
G1 X141.15 Y-95.69
G1 X141.39 Y-96.68 F167.44
G1 X141.63 Y-97.67 F158.63
G1 X142.04 Y-99.66 F176.25
G1 X142.45 Y-101.65
G1 X142.76 Y-103.64
G1 X143.06 Y-105.63
G1 X143.27 Y-107.62
G1 X143.48 Y-109.62
G1 X143.59 Y-111.61
G1 X143.70 Y-113.60
G1 X143.71 Y-114.59 F167.44
G1 X143.73 Y-115.58 F158.63
G1 X143.69 Y-117.56 F176.25
G1 X143.65 Y-119.54
G1 X143.59 Y-120.53 F167.44
G1 X143.53 Y-121.51 F158.63
G1 X143.34 Y-123.48 F149.81
G1 X143.14 Y-125.44 F114.56
G1 X142.89 Y-127.15 F79.31
G1 X142.63 Y-128.87
G1 X137.71 Y-128.00 F114.56
G1 X132.78 Y-127.13 F149.81
G1 X127.86 Y-126.26 F176.25
G1 X127.47 Y-126.19 F167.44
G1 X122.54 Y-125.32 F149.81
G1 X117.62 Y-124.45 F114.56
G1 X112.69 Y-123.59 F79.31
G1 X112.30 Y-123.52
G1 X112.32 Y-123.38 F123.37
G1 X112.34 Y-123.24
G1 X112.18 Y-123.07
G1 X112.02 Y-122.90
G1 X109.34 Y-123.12 F149.81
G1 X106.66 Y-123.33 F176.25
G1 X104.32 Y-123.45
G1 X101.97 Y-123.56
G1 X99.84 Y-123.59
G1 X97.70 Y-123.62
G1 X95.76 Y-123.57
G1 X93.82 Y-123.52
G1 X91.91 Y-123.38
G1 X90.00 Y-123.24
G1 X88.27 Y-123.01
G1 X86.54 Y-122.79
G1 X85.68 Y-122.64 F167.44
G1 X84.82 Y-122.49 F158.63
G1 X84.00 Y-122.32 F149.81
G1 X83.18 Y-122.15 F141.00
G1 X82.41 Y-121.96 F132.19
G1 X81.63 Y-121.77 F123.37
G1 X80.91 Y-121.56
G1 X80.20 Y-121.36
G1 X79.15 Y-121.01
G1 X78.10 Y-120.67
G1 X77.11 Y-120.28
G1 X76.12 Y-119.89
G1 X75.03 Y-119.40
G1 X73.94 Y-118.90
G1 X72.90 Y-118.36
G1 X71.87 Y-117.83
G1 X71.00 Y-117.33
G1 X70.14 Y-116.84
G1 X69.29 Y-116.32
G1 X68.45 Y-115.80
G1 X64.49 Y-113.20 F141.00
G1 X60.54 Y-110.60 F158.63
G1 X58.54 Y-109.36 F176.25
G1 X56.54 Y-108.13
G1 X55.44 Y-107.50 F167.44
G1 X54.34 Y-106.88 F158.63
G1 X53.17 Y-106.26 F149.81
G1 X51.99 Y-105.64 F114.56
G1 X50.34 Y-104.84 F79.31
G1 X48.68 Y-104.04
G1 X53.30 Y-102.13 F114.56
G1 X57.91 Y-100.22 F149.81
G1 X62.53 Y-98.30 F176.25
G1 X63.12 Y-98.06 F167.44
G1 X67.74 Y-96.15 F149.81
G1 X72.36 Y-94.24 F114.56
G1 X76.97 Y-92.32 F79.31
G1 X77.56 Y-92.08
G1 X77.47 Y-91.69
G1 X77.38 Y-91.30
G1 X72.39 Y-91.51 F114.56
G1 X67.39 Y-91.73 F149.81
G1 X62.40 Y-91.95 F176.25
G1 X59.06 Y-92.09
G1 X54.07 Y-92.31
G1 X49.07 Y-92.53 F149.81
G1 X44.08 Y-92.75 F114.56
G1 X40.75 Y-92.89 F132.19
G1 X40.85 Y-92.68 F88.13
G1 X40.96 Y-92.47
G1 X40.96 Y-92.47
G4 S1.
M9
G4 S1.
M5
G4 S1.
M1413 00:19:50
M1404
