;-------------------------------Cut file parameters------------------------
; Input file name : Part Studio 1 - background_2_x2.dxf
; File rotation : 240 File scale : 1
; Machine : Desktop
; Material name : Glass - Soda Lime
; Material thickness : 0.125 in
; Cut path  : Outside
; Cut quality : mediumRate
; Raw Material width : 322.7mm
; Raw Material height : 209.5mm
;-------------------------------Do Not modify the Gcode file---------------
G90
G21
M1403
M1405 X2.28 Y-1.31
M1406 X324.95 Y-210.82
M1407 S3.33
M1410 2.2.0; Generated on Wam
M1411 Glass - Soda Lime
M1412 0.125 in
G0 X11.67 Y-97.50
M3
M8
G4 S3.33
G1 X11.23 Y-96.60 F176.25
G1 X10.79 Y-95.70 F158.63
G1 X9.98 Y-93.89 F176.25
G1 X9.18 Y-92.07
G1 X8.81 Y-91.14 F167.44
G1 X8.43 Y-90.21 F158.63
G1 X7.76 Y-88.32 F176.25
G1 X7.09 Y-86.43
G1 X6.51 Y-84.51
G1 X5.94 Y-82.59
G1 X5.45 Y-80.62
G1 X4.97 Y-78.66
G1 X4.58 Y-76.66
G1 X4.19 Y-74.66
G1 X3.89 Y-72.64
G1 X3.60 Y-70.62
G1 X3.49 Y-69.59 F167.44
G1 X3.38 Y-68.56 F158.63
G1 X3.23 Y-66.50 F176.25
G1 X3.08 Y-64.43
G1 X3.03 Y-62.34
G1 X2.97 Y-60.25
G1 X2.98 Y-59.20 F167.44
G1 X2.99 Y-58.14 F158.63
G1 X3.08 Y-56.02 F176.25
G1 X3.17 Y-53.91
G1 X3.36 Y-51.78
G1 X3.55 Y-49.65
G1 X3.68 Y-48.57 F167.44
G1 X3.81 Y-47.50 F158.63
G1 X4.14 Y-45.35 F176.25
G1 X4.47 Y-43.21
G1 X4.67 Y-42.13 F167.44
G1 X4.87 Y-41.05 F158.63
G1 X5.34 Y-38.89 F176.25
G1 X5.82 Y-36.73
G1 X6.38 Y-34.57
G1 X6.95 Y-32.41
G1 X7.61 Y-30.26
G1 X8.27 Y-28.10
G1 X9.03 Y-25.95
G1 X9.78 Y-23.80
G1 X10.19 Y-22.72 F167.44
G1 X10.60 Y-21.65 F158.63
G1 X11.49 Y-19.51 F176.25
G1 X12.38 Y-17.37
G1 X13.36 Y-15.24
G1 X14.34 Y-13.12
G1 X15.40 Y-11.01
G1 X16.46 Y-8.90 F149.81
G1 X17.64 Y-6.78 F123.37
G1 X18.81 Y-4.65
G1 X18.88 Y-4.62
G1 X18.95 Y-4.59
G1 X23.78 Y-5.88 F149.81
G1 X28.61 Y-7.18 F176.25
G1 X33.44 Y-8.47
G1 X37.11 Y-9.46
G1 X41.94 Y-10.75
G1 X46.77 Y-12.04 F149.81
G1 X51.59 Y-13.34 F114.56
G1 X55.26 Y-14.32 F79.31
G1 X55.28 Y-14.48
G1 X55.29 Y-14.64
G1 X55.10 Y-14.73
G1 X54.90 Y-14.83
G1 X55.83 Y-14.98 F114.56
G1 X56.77 Y-15.14 F123.37
G1 X57.74 Y-15.34
G1 X58.71 Y-15.53
G1 X59.73 Y-15.78
G1 X60.74 Y-16.03
G1 X61.68 Y-16.31
G1 X62.61 Y-16.59
G1 X63.52 Y-16.92
G1 X64.43 Y-17.24
G1 X65.28 Y-17.59
G1 X66.12 Y-17.94
G1 X66.97 Y-18.36
G1 X67.83 Y-18.77
G1 X68.62 Y-19.21
G1 X69.41 Y-19.66
G1 X70.02 Y-20.05
G1 X70.64 Y-20.44
G1 X71.27 Y-20.88
G1 X71.90 Y-21.33
G1 X72.49 Y-21.78
G1 X73.08 Y-22.24
G1 X73.69 Y-22.75
G1 X74.29 Y-23.26
G1 X75.33 Y-24.23 F141.00
G1 X76.36 Y-25.19 F158.63
G1 X78.67 Y-27.51 F176.25
G1 X80.98 Y-29.83
G1 X81.56 Y-30.37 F167.44
G1 X82.14 Y-30.91 F158.63
G1 X82.69 Y-31.38 F149.81
G1 X83.23 Y-31.85 F141.00
G1 X83.81 Y-32.30 F132.19
G1 X84.38 Y-32.75 F123.37
G1 X84.99 Y-33.17
G1 X85.60 Y-33.60
G1 X86.25 Y-34.00
G1 X86.90 Y-34.40 F114.56
G1 X87.59 Y-34.77 F79.31
G1 X88.28 Y-35.14
G1 X88.26 Y-35.29
G1 X88.25 Y-35.44
G1 X83.48 Y-36.95 F114.56
G1 X78.71 Y-38.45 F149.81
G1 X76.31 Y-39.21
G1 X71.54 Y-40.71 F114.56
G1 X66.77 Y-42.21 F79.31
G1 X64.37 Y-42.97
G1 X69.37 Y-43.19 F114.56
G1 X74.36 Y-43.41 F149.81
G1 X77.28 Y-43.53 F176.25
G1 X82.27 Y-43.75 F149.81
G1 X87.27 Y-43.97 F114.56
G1 X90.18 Y-44.10 F79.31
G1 X90.20 Y-44.30
G1 X90.22 Y-44.49
G1 X88.79 Y-44.85 F114.56
G1 X87.37 Y-45.22 F149.81
G1 X84.96 Y-45.73 F176.25
G1 X82.55 Y-46.24
G1 X81.63 Y-46.45 F167.44
G1 X80.70 Y-46.66 F158.63
G1 X79.76 Y-46.92 F149.81
G1 X78.82 Y-47.18 F141.00
G1 X77.86 Y-47.49 F132.19
G1 X76.90 Y-47.81 F123.37
G1 X76.32 Y-48.03
G1 X75.73 Y-48.26
G1 X75.13 Y-48.52
G1 X74.53 Y-48.78
G1 X73.50 Y-49.30
G1 X72.47 Y-49.82
G1 X71.40 Y-50.46
G1 X70.32 Y-51.11
G1 X69.42 Y-51.72
G1 X68.53 Y-52.34
G1 X67.83 Y-52.87
G1 X67.14 Y-53.39
G1 X66.42 Y-53.98
G1 X65.70 Y-54.57
G1 X64.95 Y-55.23
G1 X64.21 Y-55.89
G1 X63.44 Y-56.61
G1 X62.67 Y-57.34
G1 X61.87 Y-58.14
G1 X61.07 Y-58.94
G1 X60.24 Y-59.81
G1 X59.41 Y-60.69
G1 X58.55 Y-61.65 F141.00
G1 X57.69 Y-62.61 F158.63
G1 X56.80 Y-63.66 F176.25
G1 X55.91 Y-64.71
G1 X54.98 Y-65.85
G1 X54.05 Y-66.99
G1 X53.08 Y-68.22
G1 X52.12 Y-69.46
G1 X50.42 Y-71.74
G1 X48.72 Y-74.02
G1 X46.91 Y-76.60
G1 X45.09 Y-79.18
G1 X43.13 Y-82.10 F149.81
G1 X41.16 Y-85.03 F123.37
G1 X36.83 Y-87.53 F149.81
G1 X32.50 Y-90.03 F176.25
G1 X28.17 Y-92.53
G1 X27.41 Y-92.96 F167.44
G1 X23.08 Y-95.46 F176.25
G1 X18.75 Y-97.96 F149.81
G1 X14.42 Y-100.46 F123.37
G1 X13.66 Y-100.90
G1 X13.57 Y-100.88
G1 X13.48 Y-100.85
G1 X12.57 Y-99.17 F88.13
G1 X11.67 Y-97.50
G1 X11.67 Y-97.50
G4 S1.
M9
G4 S1.
M5
G4 S1.
G0 X203.58 Y-100.21
M3
M8
G4 S3.33
G1 X204.41 Y-100.77
G1 X205.24 Y-101.32 F158.63
G1 X206.85 Y-102.50 F176.25
G1 X208.46 Y-103.67
G1 X209.25 Y-104.29 F167.44
G1 X210.03 Y-104.91 F158.63
G1 X211.56 Y-106.20 F176.25
G1 X213.08 Y-107.50
G1 X214.55 Y-108.88
G1 X216.01 Y-110.26
G1 X217.41 Y-111.72
G1 X218.81 Y-113.18
G1 X220.15 Y-114.71
G1 X221.48 Y-116.24
G1 X222.75 Y-117.85
G1 X224.02 Y-119.46
G1 X224.63 Y-120.29 F167.44
G1 X225.24 Y-121.12 F158.63
G1 X226.40 Y-122.84 F176.25
G1 X227.56 Y-124.55
G1 X228.65 Y-126.33
G1 X229.74 Y-128.12
G1 X230.26 Y-129.04 F167.44
G1 X230.78 Y-129.95 F158.63
G1 X231.76 Y-131.83 F176.25
G1 X232.74 Y-133.71
G1 X233.64 Y-135.65
G1 X234.55 Y-137.59
G1 X234.97 Y-138.58 F167.44
G1 X235.39 Y-139.58 F158.63
G1 X236.18 Y-141.60 F176.25
G1 X236.97 Y-143.63
G1 X237.33 Y-144.66 F167.44
G1 X237.70 Y-145.69 F158.63
G1 X238.37 Y-147.80 F176.25
G1 X239.04 Y-149.91
G1 X239.63 Y-152.06
G1 X240.21 Y-154.21
G1 X240.72 Y-156.41
G1 X241.23 Y-158.61
G1 X241.65 Y-160.85
G1 X242.07 Y-163.09
G1 X242.26 Y-164.23 F167.44
G1 X242.44 Y-165.36 F158.63
G1 X242.74 Y-167.66 F176.25
G1 X243.04 Y-169.96
G1 X243.25 Y-172.29
G1 X243.47 Y-174.62
G1 X243.60 Y-176.98
G1 X243.73 Y-179.33 F149.81
G1 X243.78 Y-181.76 F123.37
G1 X243.83 Y-184.18
G1 X243.78 Y-184.25
G1 X243.73 Y-184.31
G1 X238.90 Y-185.60 F149.81
G1 X234.07 Y-186.90 F176.25
G1 X229.24 Y-188.19
G1 X225.58 Y-189.18
G1 X220.75 Y-190.47
G1 X215.92 Y-191.76 F149.81
G1 X211.09 Y-193.06 F114.56
G1 X207.42 Y-194.04 F79.31
G1 X207.33 Y-193.91
G1 X207.24 Y-193.78
G1 X207.36 Y-193.60
G1 X207.48 Y-193.42
G1 X206.60 Y-193.75 F114.56
G1 X205.71 Y-194.08 F123.37
G1 X204.77 Y-194.40
G1 X203.83 Y-194.72
G1 X202.83 Y-195.00
G1 X201.82 Y-195.29
G1 X200.87 Y-195.52
G1 X199.92 Y-195.75
G1 X198.97 Y-195.92
G1 X198.02 Y-196.10
G1 X197.12 Y-196.21
G1 X196.21 Y-196.33
G1 X195.26 Y-196.40
G1 X194.32 Y-196.47
G1 X193.41 Y-196.48
G1 X192.51 Y-196.49
G1 X191.77 Y-196.46
G1 X191.04 Y-196.43
G1 X190.28 Y-196.36
G1 X189.51 Y-196.29
G1 X188.77 Y-196.19
G1 X188.03 Y-196.09
G1 X187.25 Y-195.95
G1 X186.47 Y-195.81
G1 X185.09 Y-195.49 F141.00
G1 X183.72 Y-195.17 F158.63
G1 X180.56 Y-194.32 F176.25
G1 X177.40 Y-193.47
G1 X176.62 Y-193.29 F167.44
G1 X175.85 Y-193.12 F158.63
G1 X175.14 Y-192.98 F149.81
G1 X174.44 Y-192.85 F141.00
G1 X173.71 Y-192.74 F132.19
G1 X172.99 Y-192.64 F123.37
G1 X172.25 Y-192.58
G1 X171.51 Y-192.51
G1 X170.75 Y-192.49
G1 X169.98 Y-192.47 F114.56
G1 X169.20 Y-192.49 F79.31
G1 X168.42 Y-192.52
G1 X168.36 Y-192.38
G1 X168.29 Y-192.24
G1 X171.67 Y-188.56 F114.56
G1 X175.05 Y-184.87 F149.81
G1 X176.75 Y-183.01
G1 X180.13 Y-179.33 F114.56
G1 X183.51 Y-175.64 F79.31
G1 X185.21 Y-173.78
G1 X180.77 Y-176.09 F114.56
G1 X176.34 Y-178.40 F149.81
G1 X173.75 Y-179.75 F176.25
G1 X169.32 Y-182.06 F149.81
G1 X164.88 Y-184.36 F114.56
G1 X162.29 Y-185.71 F79.31
G1 X162.18 Y-185.55
G1 X162.06 Y-185.39
G1 X163.12 Y-184.36 F114.56
G1 X164.17 Y-183.33 F149.81
G1 X166.00 Y-181.69 F176.25
G1 X167.83 Y-180.05
G1 X168.53 Y-179.40 F167.44
G1 X169.22 Y-178.75 F158.63
G1 X169.91 Y-178.06 F149.81
G1 X170.59 Y-177.37 F141.00
G1 X171.26 Y-176.61 F132.19
G1 X171.94 Y-175.86 F123.37
G1 X172.33 Y-175.37
G1 X172.73 Y-174.88
G1 X173.12 Y-174.35
G1 X173.51 Y-173.83
G1 X174.14 Y-172.87
G1 X174.77 Y-171.90
G1 X175.38 Y-170.81
G1 X175.99 Y-169.71
G1 X176.46 Y-168.73
G1 X176.93 Y-167.75
G1 X177.26 Y-166.94
G1 X177.60 Y-166.14
G1 X177.93 Y-165.27
G1 X178.26 Y-164.40
G1 X178.58 Y-163.46
G1 X178.89 Y-162.52
G1 X179.20 Y-161.50
G1 X179.50 Y-160.49
G1 X179.79 Y-159.40
G1 X180.08 Y-158.31
G1 X180.36 Y-157.13
G1 X180.64 Y-155.96
G1 X180.91 Y-154.69 F141.00
G1 X181.17 Y-153.43 F158.63
G1 X181.42 Y-152.08 F176.25
G1 X181.67 Y-150.72
G1 X181.90 Y-149.27
G1 X182.14 Y-147.82
G1 X182.36 Y-146.27
G1 X182.58 Y-144.72
G1 X182.91 Y-141.89
G1 X183.24 Y-139.07
G1 X183.52 Y-135.93
G1 X183.80 Y-132.79
G1 X184.04 Y-129.27 F149.81
G1 X184.28 Y-125.76 F123.37
G1 X186.78 Y-121.43 F149.81
G1 X189.28 Y-117.10 F176.25
G1 X191.78 Y-112.77
G1 X192.22 Y-112.01 F167.44
G1 X194.72 Y-107.68 F176.25
G1 X197.22 Y-103.35 F149.81
G1 X199.72 Y-99.02 F123.37
G1 X200.16 Y-98.26
G1 X200.25 Y-98.23
G1 X200.35 Y-98.21
G1 X201.96 Y-99.21 F88.13
G1 X203.58 Y-100.21
G1 X203.58 Y-100.21
G4 S1.
M9
G4 S1.
M5
G4 S1.
G0 X91.96 Y-125.77
M3
M8
G4 S3.33
G1 X93.11 Y-127.87
G1 X94.27 Y-129.96 F176.25
G1 X94.83 Y-131.04 F167.44
G1 X95.40 Y-132.12 F158.63
G1 X96.47 Y-134.31 F176.25
G1 X97.54 Y-136.50
G1 X98.54 Y-138.75
G1 X99.55 Y-141.00
G1 X100.49 Y-143.30
G1 X101.42 Y-145.59
G1 X102.29 Y-147.94
G1 X103.16 Y-150.29
G1 X103.96 Y-152.67
G1 X104.76 Y-155.06
G1 X105.49 Y-157.48
G1 X106.21 Y-159.91
G1 X106.87 Y-162.37
G1 X107.52 Y-164.83
G1 X108.10 Y-167.32
G1 X108.68 Y-169.82
G1 X109.19 Y-172.34
G1 X109.70 Y-174.86
G1 X110.13 Y-177.40
G1 X110.56 Y-179.94
G1 X110.91 Y-182.51
G1 X111.27 Y-185.07
G1 X111.54 Y-187.65
G1 X111.82 Y-190.23
G1 X112.02 Y-192.83
G1 X112.22 Y-195.42
G1 X112.35 Y-198.02
G1 X112.47 Y-200.62
G1 X112.52 Y-203.26 F149.81
G1 X112.57 Y-205.91 F123.37
G1 X112.52 Y-205.97
G1 X112.47 Y-206.03
G1 X109.93 Y-206.69 F149.81
G1 X107.39 Y-207.35 F176.25
G1 X105.09 Y-207.87
G1 X102.79 Y-208.40
G1 X100.68 Y-208.80
G1 X98.57 Y-209.20
G1 X96.63 Y-209.49
G1 X94.69 Y-209.78
G1 X92.77 Y-209.98
G1 X90.84 Y-210.17
G1 X89.08 Y-210.26
G1 X87.32 Y-210.34
G1 X86.43 Y-210.34 F167.44
G1 X85.55 Y-210.34 F158.63
G1 X84.70 Y-210.31 F149.81
G1 X83.85 Y-210.29 F141.00
G1 X83.04 Y-210.23 F132.19
G1 X82.23 Y-210.18 F123.37
G1 X81.48 Y-210.10
G1 X80.72 Y-210.03
G1 X79.61 Y-209.86
G1 X78.50 Y-209.70
G1 X77.44 Y-209.49
G1 X76.37 Y-209.27
G1 X75.20 Y-208.97
G1 X74.03 Y-208.67
G1 X72.89 Y-208.31
G1 X71.76 Y-207.96
G1 X70.82 Y-207.62
G1 X69.87 Y-207.28
G1 X68.93 Y-206.91
G1 X68.00 Y-206.54
G1 X63.65 Y-204.66 F141.00
G1 X59.30 Y-202.79 F158.63
G1 X57.13 Y-201.92 F176.25
G1 X54.95 Y-201.06
G1 X53.78 Y-200.64 F167.44
G1 X52.60 Y-200.22 F158.63
G1 X51.34 Y-199.81 F176.25
G1 X50.09 Y-199.41
G1 X48.98 Y-199.09 F149.81
G1 X47.87 Y-198.76 F114.56
G1 X46.62 Y-198.44 F79.31
G1 X45.37 Y-198.11
G1 X45.34 Y-197.96
G1 X45.32 Y-197.81
G1 X49.54 Y-195.13 F114.56
G1 X53.75 Y-192.44 F149.81
G1 X57.97 Y-189.75 F176.25
G1 X58.31 Y-189.54 F167.44
G1 X62.53 Y-186.85 F149.81
G1 X66.74 Y-184.16 F114.56
G1 X70.96 Y-181.48 F79.31
G1 X71.30 Y-181.26
G1 X66.42 Y-182.34 F114.56
G1 X61.54 Y-183.43 F149.81
G1 X56.66 Y-184.51 F176.25
G1 X53.76 Y-185.15
G1 X48.88 Y-186.23
G1 X44.00 Y-187.31
G1 X39.12 Y-188.40 F149.81
G1 X36.23 Y-189.04 F123.37
G1 X36.14 Y-188.94
G1 X36.05 Y-188.84
G1 X36.26 Y-188.15 F149.81
G1 X36.48 Y-187.46 F141.00
G1 X36.70 Y-186.87 F132.19
G1 X36.91 Y-186.28 F123.37
G1 X37.16 Y-185.73
G1 X37.40 Y-185.18
G1 X37.66 Y-184.67
G1 X37.92 Y-184.17
G1 X38.20 Y-183.69
G1 X38.48 Y-183.22
G1 X38.84 Y-182.70
G1 X39.21 Y-182.18
G1 X39.53 Y-181.78
G1 X39.85 Y-181.37
G1 X40.25 Y-180.93
G1 X40.65 Y-180.49
G1 X41.01 Y-180.15
G1 X41.36 Y-179.80
G1 X41.80 Y-179.42
G1 X42.24 Y-179.04
G1 X42.70 Y-178.68
G1 X43.16 Y-178.33
G1 X43.72 Y-177.94
G1 X44.28 Y-177.56
G1 X45.35 Y-176.90
G1 X46.42 Y-176.25
G1 X49.20 Y-174.73 F141.00
G1 X51.97 Y-173.20 F158.63
G1 X52.73 Y-172.74 F149.81
G1 X53.49 Y-172.28 F141.00
G1 X54.15 Y-171.83 F132.19
G1 X54.80 Y-171.39 F123.37
G1 X55.44 Y-170.91
G1 X56.08 Y-170.42
G1 X56.70 Y-169.88
G1 X57.31 Y-169.34
G1 X57.82 Y-168.83
G1 X58.33 Y-168.32
G1 X58.82 Y-167.75
G1 X59.31 Y-167.19
G1 X59.77 Y-166.57
G1 X60.23 Y-165.95
G1 X60.67 Y-165.26
G1 X61.10 Y-164.58
G1 X61.44 Y-163.96
G1 X61.78 Y-163.33
G1 X62.15 Y-162.52
G1 X62.53 Y-161.70
G1 X62.81 Y-160.96
G1 X63.10 Y-160.23
G1 X63.40 Y-159.26
G1 X63.71 Y-158.30
G1 X63.93 Y-157.43
G1 X64.16 Y-156.56
G1 X64.35 Y-155.62
G1 X64.54 Y-154.68
G1 X64.72 Y-153.62
G1 X64.90 Y-152.56
G1 X68.44 Y-149.03 F141.00
G1 X71.97 Y-145.49 F158.63
G1 X75.51 Y-141.96 F176.25
G1 X78.31 Y-139.15
G1 X81.85 Y-135.62
G1 X85.39 Y-132.08
G1 X88.92 Y-128.54 F149.81
G1 X91.73 Y-125.74 F123.37
G1 X91.84 Y-125.75 F88.13
G1 X91.96 Y-125.77
G1 X91.96 Y-125.77
G4 S1.
M9
G4 S1.
M5
G4 S1.
G0 X23.37 Y-192.27
M3
M8
G4 S3.33
G1 X22.21 Y-190.17
G1 X21.05 Y-188.08 F176.25
G1 X20.49 Y-187.00 F167.44
G1 X19.93 Y-185.92 F158.63
G1 X18.86 Y-183.73 F176.25
G1 X17.78 Y-181.53
G1 X16.78 Y-179.28
G1 X15.77 Y-177.03
G1 X14.83 Y-174.74
G1 X13.90 Y-172.44
G1 X13.03 Y-170.10
G1 X12.16 Y-167.75
G1 X11.36 Y-165.36
G1 X10.56 Y-162.98
G1 X9.83 Y-160.55
G1 X9.11 Y-158.13
G1 X8.45 Y-155.67
G1 X7.80 Y-153.21
G1 X7.22 Y-150.72
G1 X6.64 Y-148.22
G1 X6.13 Y-145.70
G1 X5.63 Y-143.18
G1 X5.20 Y-140.64
G1 X4.77 Y-138.09
G1 X4.41 Y-135.53
G1 X4.06 Y-132.96
G1 X3.78 Y-130.38
G1 X3.50 Y-127.80
G1 X3.30 Y-125.21
G1 X3.10 Y-122.62
G1 X2.97 Y-120.02
G1 X2.85 Y-117.42
G1 X2.80 Y-114.77 F149.81
G1 X2.76 Y-112.13 F123.37
G1 X2.80 Y-112.07
G1 X2.85 Y-112.00
G1 X5.39 Y-111.35 F149.81
G1 X7.93 Y-110.69 F176.25
G1 X10.23 Y-110.16
G1 X12.53 Y-109.64
G1 X14.64 Y-109.24
G1 X16.75 Y-108.84
G1 X18.69 Y-108.55
G1 X20.63 Y-108.26
G1 X22.56 Y-108.06
G1 X24.48 Y-107.86
G1 X26.24 Y-107.78
G1 X28.01 Y-107.70
G1 X28.89 Y-107.70 F167.44
G1 X29.78 Y-107.70 F158.63
G1 X30.62 Y-107.72 F149.81
G1 X31.47 Y-107.75 F141.00
G1 X32.28 Y-107.80 F132.19
G1 X33.09 Y-107.86 F123.37
G1 X33.85 Y-107.94
G1 X34.60 Y-108.01
G1 X35.71 Y-108.17
G1 X36.83 Y-108.34
G1 X37.89 Y-108.55
G1 X38.95 Y-108.76
G1 X40.12 Y-109.07
G1 X41.30 Y-109.37
G1 X42.43 Y-109.72
G1 X43.56 Y-110.08
G1 X44.51 Y-110.42
G1 X45.45 Y-110.76
G1 X46.39 Y-111.13
G1 X47.33 Y-111.50
G1 X51.67 Y-113.37 F141.00
G1 X56.02 Y-115.25 F158.63
G1 X58.19 Y-116.11 F176.25
G1 X60.37 Y-116.98
G1 X61.55 Y-117.40 F167.44
G1 X62.72 Y-117.82 F158.63
G1 X63.98 Y-118.22 F176.25
G1 X65.23 Y-118.63
G1 X66.34 Y-118.95 F149.81
G1 X67.46 Y-119.27 F114.56
G1 X68.71 Y-119.60 F79.31
G1 X69.96 Y-119.93
G1 X69.98 Y-120.07
G1 X70.00 Y-120.22
G1 X65.79 Y-122.91 F114.56
G1 X61.57 Y-125.60 F149.81
G1 X57.35 Y-128.28 F176.25
G1 X57.01 Y-128.50 F167.44
G1 X52.80 Y-131.19 F149.81
G1 X48.58 Y-133.87 F114.56
G1 X44.36 Y-136.56 F79.31
G1 X44.02 Y-136.78
G1 X48.90 Y-135.69 F114.56
G1 X53.79 Y-134.61 F149.81
G1 X58.67 Y-133.53 F176.25
G1 X61.56 Y-132.89
G1 X66.44 Y-131.81
G1 X71.32 Y-130.72
G1 X76.20 Y-129.64 F149.81
G1 X79.09 Y-129.00 F123.37
G1 X79.18 Y-129.10
G1 X79.27 Y-129.19
G1 X79.06 Y-129.89 F149.81
G1 X78.85 Y-130.58 F141.00
G1 X78.63 Y-131.17 F132.19
G1 X78.41 Y-131.76 F123.37
G1 X78.17 Y-132.31
G1 X77.92 Y-132.86
G1 X77.66 Y-133.36
G1 X77.41 Y-133.87
G1 X77.12 Y-134.34
G1 X76.84 Y-134.82
G1 X76.48 Y-135.34
G1 X76.12 Y-135.86
G1 X75.80 Y-136.26
G1 X75.48 Y-136.66
G1 X75.07 Y-137.10
G1 X74.67 Y-137.55
G1 X74.32 Y-137.89
G1 X73.96 Y-138.24
G1 X73.52 Y-138.62
G1 X73.08 Y-139.00
G1 X72.62 Y-139.35
G1 X72.16 Y-139.71
G1 X71.60 Y-140.09
G1 X71.04 Y-140.48
G1 X69.97 Y-141.13
G1 X68.90 Y-141.78
G1 X66.13 Y-143.31 F141.00
G1 X63.35 Y-144.84 F158.63
G1 X62.59 Y-145.30 F149.81
G1 X61.83 Y-145.76 F141.00
G1 X61.18 Y-146.20 F132.19
G1 X60.52 Y-146.65 F123.37
G1 X59.88 Y-147.13
G1 X59.25 Y-147.62
G1 X58.63 Y-148.16
G1 X58.01 Y-148.70
G1 X57.50 Y-149.21
G1 X56.99 Y-149.72
G1 X56.50 Y-150.28
G1 X56.01 Y-150.85
G1 X55.55 Y-151.47
G1 X55.09 Y-152.09
G1 X54.65 Y-152.78
G1 X54.22 Y-153.46
G1 X53.88 Y-154.08
G1 X53.54 Y-154.70
G1 X53.17 Y-155.52
G1 X52.79 Y-156.33
G1 X52.51 Y-157.07
G1 X52.22 Y-157.81
G1 X51.92 Y-158.78
G1 X51.61 Y-159.74
G1 X51.39 Y-160.61
G1 X51.17 Y-161.48
G1 X50.97 Y-162.42
G1 X50.78 Y-163.36
G1 X50.60 Y-164.41
G1 X50.42 Y-165.47
G1 X46.89 Y-169.01 F141.00
G1 X43.35 Y-172.54 F158.63
G1 X39.81 Y-176.08 F176.25
G1 X37.01 Y-178.89
G1 X33.47 Y-182.42
G1 X29.94 Y-185.96
G1 X26.40 Y-189.49 F149.81
G1 X23.59 Y-192.30 F123.37
G1 X23.48 Y-192.28 F88.13
G1 X23.37 Y-192.27
G1 X23.37 Y-192.27
G4 S1.
M9
G4 S1.
M5
G4 S1.
G0 X179.30 Y-149.15
M3
M8
G4 S3.33
G1 X177.83 Y-151.59
G1 X176.35 Y-154.03 F176.25
G1 X174.94 Y-156.22
G1 X173.53 Y-158.41
G1 X172.05 Y-160.55
G1 X170.58 Y-162.69
G1 X169.04 Y-164.78
G1 X167.50 Y-166.87
G1 X165.91 Y-168.91
G1 X164.32 Y-170.95
G1 X162.67 Y-172.93
G1 X161.02 Y-174.92
G1 X159.32 Y-176.84
G1 X157.61 Y-178.77
G1 X155.86 Y-180.63
G1 X154.11 Y-182.50
G1 X152.31 Y-184.29
G1 X150.51 Y-186.09
G1 X149.59 Y-186.97 F167.44
G1 X148.67 Y-187.84 F158.63
G1 X146.81 Y-189.54 F176.25
G1 X144.94 Y-191.23
G1 X143.03 Y-192.86
G1 X141.12 Y-194.49
G1 X139.18 Y-196.04
G1 X137.23 Y-197.59
G1 X135.25 Y-199.07
G1 X133.27 Y-200.54
G1 X131.25 Y-201.94
G1 X129.24 Y-203.34
G1 X127.20 Y-204.66
G1 X125.16 Y-205.98 F149.81
G1 X123.04 Y-207.24 F123.37
G1 X120.93 Y-208.51
G1 X120.82 Y-208.46
G1 X120.72 Y-208.42
G1 X119.42 Y-203.59 F149.81
G1 X118.13 Y-198.76 F176.25
G1 X116.83 Y-193.93
G1 X115.75 Y-189.89
G1 X114.46 Y-185.06
G1 X113.16 Y-180.23 F149.81
G1 X111.87 Y-175.40 F114.56
G1 X110.79 Y-171.36 F79.31
G1 X110.92 Y-171.27
G1 X111.05 Y-171.18
G1 X111.18 Y-171.27
G1 X111.31 Y-171.36
G1 X110.95 Y-170.36 F114.56
G1 X110.59 Y-169.36 F123.37
G1 X110.22 Y-168.16
G1 X109.85 Y-166.95
G1 X109.56 Y-165.76
G1 X109.27 Y-164.56
G1 X109.06 Y-163.40
G1 X108.86 Y-162.23
G1 X108.74 Y-161.18
G1 X108.62 Y-160.12
G1 X108.57 Y-159.05
G1 X108.53 Y-157.98
G1 X108.55 Y-156.91
G1 X108.58 Y-155.83
G1 X108.68 Y-154.81
G1 X108.77 Y-153.78
G1 X108.92 Y-152.81
G1 X109.07 Y-151.83
G1 X109.29 Y-150.78
G1 X109.51 Y-149.73
G1 X109.76 Y-148.74
G1 X110.01 Y-147.74
G1 X110.72 Y-145.13 F141.00
G1 X111.43 Y-142.51 F158.63
G1 X111.62 Y-141.74 F149.81
G1 X111.80 Y-140.97 F141.00
G1 X111.94 Y-140.27 F132.19
G1 X112.09 Y-139.56 F123.37
G1 X112.21 Y-138.77
G1 X112.34 Y-137.97
G1 X112.42 Y-137.15
G1 X112.50 Y-136.33
G1 X112.52 Y-135.57
G1 X112.55 Y-134.81 F114.56
G1 X112.52 Y-133.94 F79.31
G1 X112.50 Y-133.07
G1 X112.64 Y-133.01
G1 X112.78 Y-132.95
G1 X116.46 Y-136.33 F114.56
G1 X120.15 Y-139.70 F149.81
G1 X122.01 Y-141.40
G1 X125.69 Y-144.78 F114.56
G1 X129.38 Y-148.16 F79.31
G1 X131.24 Y-149.86
G1 X128.93 Y-145.43 F114.56
G1 X126.62 Y-140.99 F149.81
G1 X125.27 Y-138.40 F176.25
G1 X122.96 Y-133.97 F149.81
G1 X120.65 Y-129.53 F114.56
G1 X119.31 Y-126.95 F79.31
G1 X119.47 Y-126.83
G1 X119.63 Y-126.71
G1 X120.65 Y-127.77 F114.56
G1 X121.68 Y-128.82 F149.81
G1 X123.32 Y-130.65 F176.25
G1 X124.97 Y-132.48
G1 X125.75 Y-133.31 F167.44
G1 X126.53 Y-134.14 F158.63
G1 X127.38 Y-134.96 F149.81
G1 X128.23 Y-135.78 F141.00
G1 X129.18 Y-136.58 F132.19
G1 X130.13 Y-137.37 F123.37
G1 X130.65 Y-137.76
G1 X131.18 Y-138.15
G1 X131.74 Y-138.53
G1 X132.30 Y-138.91
G1 X132.91 Y-139.29
G1 X133.51 Y-139.66
G1 X134.17 Y-140.03
G1 X134.82 Y-140.39
G1 X136.03 Y-140.98 F141.00
G1 X137.24 Y-141.57 F158.63
G1 X138.62 Y-142.13 F176.25
G1 X140.00 Y-142.68
G1 X140.91 Y-143.00 F167.44
G1 X141.82 Y-143.32 F158.63
G1 X142.81 Y-143.63 F149.81
G1 X143.79 Y-143.94 F141.00
G1 X145.61 Y-144.43 F158.63
G1 X147.43 Y-144.91 F176.25
G1 X149.48 Y-145.36
G1 X151.52 Y-145.81
G1 X153.83 Y-146.22
G1 X156.13 Y-146.63
G1 X158.71 Y-146.99
G1 X161.29 Y-147.36
G1 X164.17 Y-147.68
G1 X167.05 Y-148.00
G1 X170.25 Y-148.27
G1 X173.45 Y-148.55
G1 X176.31 Y-148.73 F149.81
G1 X179.18 Y-148.92 F123.37
G1 X179.24 Y-149.03 F88.13
G1 X179.30 Y-149.15
G1 X179.30 Y-149.15
G4 S1.
M9
G4 S1.
M5
G4 S1.
G0 X94.05 Y-30.92
M3
M8
G4 S3.33
G1 X96.41 Y-29.33
G1 X98.78 Y-27.74 F176.25
G1 X100.99 Y-26.36
G1 X103.19 Y-24.97
G1 X105.43 Y-23.65
G1 X107.67 Y-22.34
G1 X109.95 Y-21.09
G1 X112.23 Y-19.84
G1 X114.53 Y-18.67
G1 X116.84 Y-17.49
G1 X119.17 Y-16.39
G1 X121.50 Y-15.29
G1 X123.86 Y-14.27
G1 X126.22 Y-13.24
G1 X128.59 Y-12.29
G1 X130.97 Y-11.35
G1 X133.36 Y-10.48
G1 X135.75 Y-9.61
G1 X136.95 Y-9.20 F167.44
G1 X138.16 Y-8.80 F158.63
G1 X140.56 Y-8.05 F176.25
G1 X142.97 Y-7.30
G1 X145.39 Y-6.63
G1 X147.81 Y-5.97
G1 X150.23 Y-5.38
G1 X152.65 Y-4.80
G1 X155.06 Y-4.29
G1 X157.48 Y-3.79
G1 X159.90 Y-3.38
G1 X162.32 Y-2.96
G1 X164.73 Y-2.63
G1 X167.13 Y-2.30 F149.81
G1 X169.58 Y-2.04 F123.37
G1 X172.03 Y-1.79
G1 X172.11 Y-1.88
G1 X172.19 Y-1.96
G1 X171.32 Y-6.88 F149.81
G1 X170.45 Y-11.81 F176.25
G1 X169.59 Y-16.73
G1 X168.86 Y-20.85
G1 X167.99 Y-25.78
G1 X167.12 Y-30.70 F149.81
G1 X166.25 Y-35.62 F114.56
G1 X165.53 Y-39.74 F79.31
G1 X165.37 Y-39.77
G1 X165.21 Y-39.80
G1 X165.13 Y-39.66
G1 X165.05 Y-39.52
G1 X164.96 Y-40.58 F114.56
G1 X164.86 Y-41.64 F123.37
G1 X164.69 Y-42.89
G1 X164.51 Y-44.14
G1 X164.27 Y-45.34
G1 X164.03 Y-46.54
G1 X163.72 Y-47.69
G1 X163.42 Y-48.83
G1 X163.08 Y-49.84
G1 X162.74 Y-50.84
G1 X162.33 Y-51.84
G1 X161.92 Y-52.83
G1 X161.44 Y-53.79
G1 X160.96 Y-54.75
G1 X160.44 Y-55.64
G1 X159.92 Y-56.53
G1 X159.38 Y-57.35
G1 X158.83 Y-58.17
G1 X158.19 Y-59.03
G1 X157.54 Y-59.89
G1 X156.90 Y-60.68
G1 X156.25 Y-61.48
G1 X154.50 Y-63.55 F141.00
G1 X152.75 Y-65.62 F158.63
G1 X152.26 Y-66.24 F149.81
G1 X151.76 Y-66.86 F141.00
G1 X151.34 Y-67.44 F132.19
G1 X150.91 Y-68.01 F123.37
G1 X150.46 Y-68.68
G1 X150.01 Y-69.35
G1 X149.59 Y-70.06
G1 X149.17 Y-70.77
G1 X148.83 Y-71.45
G1 X148.48 Y-72.13 F114.56
G1 X148.14 Y-72.92 F79.31
G1 X147.79 Y-73.72
G1 X147.64 Y-73.72
G1 X147.49 Y-73.72
G1 X145.58 Y-69.10 F114.56
G1 X143.66 Y-64.48 F149.81
G1 X142.70 Y-62.15
G1 X140.79 Y-57.53 F114.56
G1 X138.87 Y-52.91 F79.31
G1 X137.91 Y-50.59
G1 X138.13 Y-55.58 F114.56
G1 X138.34 Y-60.58 F149.81
G1 X138.47 Y-63.49 F176.25
G1 X138.69 Y-68.49 F149.81
G1 X138.91 Y-73.48 F114.56
G1 X139.04 Y-76.40 F79.31
G1 X138.84 Y-76.44
G1 X138.65 Y-76.47
G1 X138.16 Y-75.08 F114.56
G1 X137.68 Y-73.69 F149.81
G1 X136.96 Y-71.34 F176.25
G1 X136.24 Y-68.99
G1 X135.89 Y-67.91 F167.44
G1 X135.53 Y-66.82 F158.63
G1 X135.11 Y-65.72 F149.81
G1 X134.68 Y-64.62 F141.00
G1 X134.16 Y-63.50 F132.19
G1 X133.63 Y-62.37 F123.37
G1 X133.32 Y-61.80
G1 X133.01 Y-61.23
G1 X132.66 Y-60.64
G1 X132.32 Y-60.06
G1 X131.92 Y-59.46
G1 X131.53 Y-58.87
G1 X131.09 Y-58.26
G1 X130.65 Y-57.65
G1 X129.81 Y-56.61 F141.00
G1 X128.96 Y-55.57 F158.63
G1 X127.95 Y-54.48 F176.25
G1 X126.94 Y-53.39
G1 X126.24 Y-52.71 F167.44
G1 X125.55 Y-52.04 F158.63
G1 X124.79 Y-51.34 F149.81
G1 X124.02 Y-50.65 F141.00
G1 X122.58 Y-49.44 F158.63
G1 X121.14 Y-48.23 F176.25
G1 X119.48 Y-46.96
G1 X117.81 Y-45.68
G1 X115.89 Y-44.34
G1 X113.98 Y-43.00
G1 X111.79 Y-41.57
G1 X109.61 Y-40.15
G1 X107.13 Y-38.64
G1 X104.66 Y-37.14
G1 X101.88 Y-35.54
G1 X99.10 Y-33.94
G1 X96.58 Y-32.56 F149.81
G1 X94.06 Y-31.18 F123.37
G1 X94.05 Y-31.05 F88.13
G1 X94.05 Y-30.92
G1 X94.05 Y-30.92
G4 S1.
M9
G4 S1.
M5
G4 S1.
G0 X269.68 Y-191.60
M3
M8
G4 S3.33
G1 X269.11 Y-191.11
G1 X268.54 Y-190.62 F158.63
G1 X268.12 Y-190.20 F149.81
G1 X267.70 Y-189.79 F141.00
G1 X267.24 Y-189.28 F132.19
G1 X266.79 Y-188.77 F123.37
G1 X266.40 Y-188.26
G1 X266.01 Y-187.75
G1 X265.67 Y-187.23
G1 X265.33 Y-186.70
G1 X265.03 Y-186.17
G1 X264.74 Y-185.64
G1 X264.45 Y-185.02
G1 X264.16 Y-184.39
G1 X263.98 Y-183.93
G1 X263.81 Y-183.48
G1 X263.63 Y-182.93
G1 X263.45 Y-182.38
G1 X263.16 Y-181.25
G1 X262.88 Y-180.13
G1 X262.67 Y-178.98
G1 X262.46 Y-177.84
G1 X262.04 Y-175.11 F141.00
G1 X261.63 Y-172.38 F158.63
G1 X261.48 Y-171.62 F149.81
G1 X261.33 Y-170.85 F141.00
G1 X261.18 Y-170.20 F132.19
G1 X261.03 Y-169.54 F123.37
G1 X260.81 Y-168.78
G1 X260.59 Y-168.01
G1 X260.37 Y-167.35
G1 X260.14 Y-166.70
G1 X259.87 Y-166.04
G1 X259.59 Y-165.39
G1 X259.27 Y-164.73
G1 X258.94 Y-164.08
G1 X258.49 Y-163.32
G1 X258.04 Y-162.56
G1 X257.50 Y-161.81
G1 X256.95 Y-161.06
G1 X256.31 Y-160.32
G1 X255.67 Y-159.57
G1 X254.92 Y-158.83
G1 X254.16 Y-158.10
G1 X253.29 Y-157.37
G1 X252.42 Y-156.65
G1 X251.57 Y-156.04
G1 X250.72 Y-155.42
G1 X249.77 Y-154.82
G1 X248.82 Y-154.22
G1 X247.72 Y-153.58
G1 X246.62 Y-152.95
G1 X244.50 Y-148.42 F141.00
G1 X242.39 Y-143.89 F158.63
G1 X240.28 Y-139.36 F176.25
G1 X238.55 Y-135.66
G1 X236.44 Y-131.13
G1 X234.33 Y-126.59
G1 X232.21 Y-122.06 F149.81
G1 X230.49 Y-118.36 F123.37
G1 X230.50 Y-118.28
G1 X230.52 Y-118.21
G1 X232.32 Y-116.76 F149.81
G1 X234.13 Y-115.32 F176.25
G1 X235.07 Y-114.60 F167.44
G1 X236.01 Y-113.89 F158.63
G1 X237.92 Y-112.52 F176.25
G1 X239.83 Y-111.15
G1 X240.80 Y-110.50 F167.44
G1 X241.77 Y-109.84 F158.63
G1 X243.72 Y-108.60 F176.25
G1 X245.68 Y-107.36
G1 X247.65 Y-106.20
G1 X249.63 Y-105.05
G1 X251.63 Y-103.99
G1 X253.63 Y-102.92
G1 X255.65 Y-101.95
G1 X257.67 Y-100.97
G1 X258.69 Y-100.52 F167.44
G1 X259.71 Y-100.07 F158.63
G1 X261.75 Y-99.23 F176.25
G1 X263.80 Y-98.40
G1 X265.85 Y-97.66
G1 X267.90 Y-96.92
G1 X269.97 Y-96.27
G1 X272.03 Y-95.63
G1 X274.10 Y-95.08
G1 X276.17 Y-94.53
G1 X278.24 Y-94.08
G1 X280.31 Y-93.62
G1 X282.37 Y-93.27
G1 X284.44 Y-92.92
G1 X285.48 Y-92.78 F167.44
G1 X286.52 Y-92.64 F158.63
G1 X288.57 Y-92.43 F176.25
G1 X290.63 Y-92.23
G1 X291.66 Y-92.16 F167.44
G1 X292.69 Y-92.10 F158.63
G1 X294.74 Y-92.04 F176.25
G1 X296.78 Y-91.98
G1 X298.81 Y-92.02
G1 X300.85 Y-92.07
G1 X302.86 Y-92.21
G1 X304.88 Y-92.35
G1 X306.87 Y-92.59
G1 X308.87 Y-92.83
G1 X309.86 Y-92.99 F167.44
G1 X310.85 Y-93.15 F158.63
G1 X312.81 Y-93.54 F176.25
G1 X314.77 Y-93.93
G1 X315.74 Y-94.16 F167.44
G1 X316.71 Y-94.39 F158.63
G1 X318.63 Y-94.92 F176.25
G1 X320.54 Y-95.46 F149.81
G1 X322.47 Y-96.11 F123.37
G1 X324.41 Y-96.75
G1 X324.45 Y-96.84
G1 X324.49 Y-96.93
G1 X322.78 Y-101.63 F149.81
G1 X321.07 Y-106.32 F176.25
G1 X319.36 Y-111.02
G1 X319.03 Y-111.93 F167.44
G1 X317.32 Y-116.63 F176.25
G1 X315.61 Y-121.33 F149.81
G1 X313.90 Y-126.03 F123.37
G1 X313.57 Y-126.94
G1 X313.48 Y-126.98
G1 X313.40 Y-127.02 F114.56
G1 X313.25 Y-126.97 F79.31
G1 X313.09 Y-126.93
G1 X312.86 Y-129.35 F114.56
G1 X312.63 Y-131.78 F149.81
G1 X312.33 Y-134.12 F176.25
G1 X312.04 Y-136.46
G1 X311.69 Y-138.58
G1 X311.35 Y-140.70
G1 X310.96 Y-142.62
G1 X310.57 Y-144.54
G1 X310.09 Y-146.42
G1 X309.62 Y-148.29
G1 X309.10 Y-149.97
G1 X308.57 Y-151.65
G1 X308.27 Y-152.48 F167.44
G1 X307.97 Y-153.32 F158.63
G1 X307.65 Y-154.10 F149.81
G1 X307.34 Y-154.89 F141.00
G1 X307.01 Y-155.64 F132.19
G1 X306.68 Y-156.38 F123.37
G1 X306.35 Y-157.06
G1 X306.02 Y-157.74
G1 X305.49 Y-158.73
G1 X304.95 Y-159.72
G1 X304.39 Y-160.65
G1 X303.83 Y-161.57
G1 X303.15 Y-162.57
G1 X302.46 Y-163.57
G1 X301.74 Y-164.51
G1 X301.01 Y-165.46
G1 X300.37 Y-166.23
G1 X299.73 Y-167.00
G1 X299.06 Y-167.75
G1 X298.39 Y-168.50
G1 X295.15 Y-171.95 F141.00
G1 X291.90 Y-175.39 F158.63
G1 X290.34 Y-177.14 F176.25
G1 X288.79 Y-178.89
G1 X287.99 Y-179.85 F167.44
G1 X287.19 Y-180.81 F158.63
G1 X286.38 Y-181.85 F176.25
G1 X285.57 Y-182.90
G1 X284.89 Y-183.83 F149.81
G1 X284.20 Y-184.76 F114.56
G1 X283.47 Y-185.83 F79.31
G1 X282.74 Y-186.89
G1 X282.59 Y-186.86
G1 X282.44 Y-186.83
G1 X281.36 Y-181.95 F114.56
G1 X280.28 Y-177.07 F149.81
G1 X279.19 Y-172.19 F176.25
G1 X279.11 Y-171.79 F167.44
G1 X278.02 Y-166.91 F149.81
G1 X276.94 Y-162.03 F114.56
G1 X275.86 Y-157.15 F79.31
G1 X275.77 Y-156.76
G1 X275.12 Y-161.71 F114.56
G1 X274.47 Y-166.67 F149.81
G1 X273.81 Y-171.63 F176.25
G1 X273.43 Y-174.56
G1 X272.78 Y-179.52
G1 X272.12 Y-184.48
G1 X271.47 Y-189.43 F149.81
G1 X271.08 Y-192.37 F123.37
G1 X270.96 Y-192.42
G1 X270.84 Y-192.47
G1 X270.26 Y-192.04 F88.13
G1 X269.68 Y-191.60
G1 X269.68 Y-191.60
G4 S1.
M9
G4 S1.
M5
G4 S1.
G0 X40.34 Y-92.13
M3
M8
G4 S3.33
G1 X40.72 Y-91.49
G1 X41.11 Y-90.84 F158.63
G1 X41.44 Y-90.35 F149.81
G1 X41.78 Y-89.86 F141.00
G1 X42.20 Y-89.33 F132.19
G1 X42.62 Y-88.80 F123.37
G1 X43.05 Y-88.32
G1 X43.49 Y-87.85
G1 X43.94 Y-87.42
G1 X44.40 Y-86.99
G1 X44.87 Y-86.61
G1 X45.35 Y-86.23
G1 X45.91 Y-85.83
G1 X46.48 Y-85.44
G1 X46.90 Y-85.19
G1 X47.31 Y-84.94
G1 X47.82 Y-84.66
G1 X48.33 Y-84.39
G1 X49.39 Y-83.92
G1 X50.45 Y-83.44
G1 X51.54 Y-83.04
G1 X52.63 Y-82.63
G1 X55.25 Y-81.75 F141.00
G1 X57.86 Y-80.86 F158.63
G1 X58.59 Y-80.58 F149.81
G1 X59.32 Y-80.31 F141.00
G1 X59.94 Y-80.04 F132.19
G1 X60.56 Y-79.78 F123.37
G1 X61.27 Y-79.43
G1 X61.99 Y-79.09
G1 X62.60 Y-78.75
G1 X63.20 Y-78.41
G1 X63.80 Y-78.03
G1 X64.40 Y-77.64
G1 X64.99 Y-77.21
G1 X65.57 Y-76.78
G1 X66.24 Y-76.20
G1 X66.91 Y-75.62
G1 X67.56 Y-74.96
G1 X68.20 Y-74.29
G1 X68.82 Y-73.53
G1 X69.45 Y-72.77
G1 X70.04 Y-71.90
G1 X70.63 Y-71.03
G1 X71.20 Y-70.05
G1 X71.76 Y-69.06
G1 X72.22 Y-68.12
G1 X72.67 Y-67.18
G1 X73.10 Y-66.14
G1 X73.53 Y-65.10
G1 X73.96 Y-63.90
G1 X74.39 Y-62.71
G1 X78.49 Y-59.84 F141.00
G1 X82.58 Y-56.97 F158.63
G1 X86.68 Y-54.10 F176.25
G1 X90.02 Y-51.76
G1 X94.12 Y-48.89
G1 X98.22 Y-46.02
G1 X102.31 Y-43.16 F149.81
G1 X105.66 Y-40.81 F123.37
G1 X105.74 Y-40.82
G1 X105.82 Y-40.82
G1 X107.55 Y-42.35 F149.81
G1 X109.28 Y-43.87 F176.25
G1 X110.15 Y-44.67 F167.44
G1 X111.02 Y-45.48 F158.63
G1 X112.70 Y-47.12 F176.25
G1 X114.38 Y-48.77
G1 X115.19 Y-49.60 F167.44
G1 X116.00 Y-50.44 F158.63
G1 X117.57 Y-52.15 F176.25
G1 X119.13 Y-53.86
G1 X120.61 Y-55.61
G1 X122.09 Y-57.36
G1 X123.48 Y-59.14
G1 X124.88 Y-60.93
G1 X126.19 Y-62.75
G1 X127.50 Y-64.57
G1 X128.12 Y-65.49 F167.44
G1 X128.75 Y-66.42 F158.63
G1 X129.92 Y-68.28 F176.25
G1 X131.10 Y-70.15
G1 X132.19 Y-72.05
G1 X133.27 Y-73.94
G1 X134.27 Y-75.86
G1 X135.26 Y-77.78
G1 X136.16 Y-79.72
G1 X137.06 Y-81.66
G1 X137.87 Y-83.62
G1 X138.67 Y-85.58
G1 X139.38 Y-87.56
G1 X140.08 Y-89.53
G1 X140.40 Y-90.53 F167.44
G1 X140.72 Y-91.52 F158.63
G1 X141.28 Y-93.52 F176.25
G1 X141.84 Y-95.51
G1 X142.08 Y-96.51 F167.44
G1 X142.33 Y-97.51 F158.63
G1 X142.74 Y-99.52 F176.25
G1 X143.15 Y-101.52
G1 X143.46 Y-103.53
G1 X143.77 Y-105.54
G1 X143.98 Y-107.55
G1 X144.19 Y-109.56
G1 X144.30 Y-111.56
G1 X144.41 Y-113.57
G1 X144.42 Y-114.58 F167.44
G1 X144.44 Y-115.58 F158.63
G1 X144.40 Y-117.58 F176.25
G1 X144.36 Y-119.57
G1 X144.30 Y-120.57 F167.44
G1 X144.24 Y-121.57 F158.63
G1 X144.04 Y-123.55 F176.25
G1 X143.85 Y-125.53 F149.81
G1 X143.55 Y-127.54 F123.37
G1 X143.24 Y-129.55
G1 X143.17 Y-129.61
G1 X143.09 Y-129.67
G1 X138.16 Y-128.80 F149.81
G1 X133.24 Y-127.93 F176.25
G1 X128.32 Y-127.06
G1 X127.36 Y-126.89 F167.44
G1 X122.44 Y-126.03 F176.25
G1 X117.51 Y-125.16 F149.81
G1 X112.59 Y-124.29 F123.37
G1 X111.63 Y-124.12
G1 X111.58 Y-124.05
G1 X111.52 Y-123.97 F114.56
G1 X111.55 Y-123.81 F79.31
G1 X111.57 Y-123.65
G1 X109.14 Y-123.85 F114.56
G1 X106.71 Y-124.04 F149.81
G1 X104.35 Y-124.15 F176.25
G1 X102.00 Y-124.27
G1 X99.85 Y-124.30
G1 X97.70 Y-124.33
G1 X95.74 Y-124.28
G1 X93.78 Y-124.22
G1 X91.85 Y-124.08
G1 X89.92 Y-123.94
G1 X88.18 Y-123.72
G1 X86.43 Y-123.50
G1 X85.56 Y-123.34 F167.44
G1 X84.69 Y-123.19 F158.63
G1 X83.86 Y-123.02 F149.81
G1 X83.03 Y-122.84 F141.00
G1 X82.24 Y-122.65 F132.19
G1 X81.45 Y-122.45 F123.37
G1 X80.72 Y-122.25
G1 X79.99 Y-122.04
G1 X78.92 Y-121.69
G1 X77.85 Y-121.33
G1 X76.85 Y-120.94
G1 X75.84 Y-120.55
G1 X74.74 Y-120.05
G1 X73.63 Y-119.54
G1 X72.58 Y-119.00
G1 X71.52 Y-118.45
G1 X70.65 Y-117.95
G1 X69.78 Y-117.45
G1 X68.92 Y-116.92
G1 X68.07 Y-116.40
G1 X64.11 Y-113.80 F141.00
G1 X60.15 Y-111.20 F158.63
G1 X58.16 Y-109.97 F176.25
G1 X56.17 Y-108.74
G1 X55.09 Y-108.12 F167.44
G1 X54.00 Y-107.50 F158.63
G1 X52.83 Y-106.88 F176.25
G1 X51.67 Y-106.27
G1 X50.63 Y-105.76 F149.81
G1 X49.59 Y-105.24 F114.56
G1 X48.42 Y-104.71 F79.31
G1 X47.24 Y-104.17
G1 X47.24 Y-104.02
G1 X47.25 Y-103.87
G1 X51.87 Y-101.95 F114.56
G1 X56.49 Y-100.04 F149.81
G1 X61.11 Y-98.13 F176.25
G1 X61.48 Y-97.97 F167.44
G1 X66.10 Y-96.06 F149.81
G1 X70.72 Y-94.15 F114.56
G1 X75.34 Y-92.23 F79.31
G1 X75.71 Y-92.08
G1 X70.71 Y-92.30 F114.56
G1 X65.72 Y-92.52 F149.81
G1 X60.72 Y-92.73 F176.25
G1 X57.76 Y-92.86
G1 X52.77 Y-93.08
G1 X47.77 Y-93.30
G1 X42.78 Y-93.52 F149.81
G1 X39.82 Y-93.65 F123.37
G1 X39.75 Y-93.53
G1 X39.68 Y-93.42
G1 X40.01 Y-92.78 F88.13
G1 X40.34 Y-92.13
G1 X40.34 Y-92.13
G4 S1.
M9
G4 S1.
M5
G4 S1.
M1413 00:19:25
M1404
