;-------------------------------Cut file parameters------------------------
; Input file name : Part Studio 1 - moon.dxf
; File rotation : 0 File scale : 1
; Machine : Desktop
; Material name : Glass - Soda Lime
; Material thickness : 0.125 in
; Cut path  : Centerline
; Cut quality : mediumRate
; Raw Material width : 44.1mm
; Raw Material height : 51.8mm
;-------------------------------Do Not modify the Gcode file---------------
G90
G21
M1403
M1405 X3.42 Y-2.83
M1406 X47.56 Y-54.59
M1407 S3.33
M1410 2.2.0; Generated on Wam
M1411 Glass - Soda Lime
M1412 0.125 in
G0 X24.49 Y-3.48
M3
M8
G4 S3.33
G1 X25.35 Y-3.60 F176.25
G1 X26.47 Y-3.77 F158.63
G1 X27.03 Y-3.89 F149.81
G1 X27.58 Y-4.00 F141.00
G1 X28.13 Y-4.15 F132.19
G1 X28.68 Y-4.29 F123.37
G1 X29.76 Y-4.65
G1 X30.83 Y-5.02
G1 X31.87 Y-5.47
G1 X32.91 Y-5.93
G1 X33.42 Y-6.19
G1 X33.92 Y-6.45
G1 X34.89 Y-7.04
G1 X35.86 Y-7.64
G1 X36.32 Y-7.96
G1 X36.79 Y-8.29
G1 X37.24 Y-8.64
G1 X37.69 Y-8.99
G1 X38.53 Y-9.74
G1 X39.38 Y-10.50
G1 X39.78 Y-10.90
G1 X40.18 Y-11.31
G1 X40.56 Y-11.73
G1 X40.94 Y-12.15
G1 X41.30 Y-12.59
G1 X41.66 Y-13.03
G1 X42.00 Y-13.48
G1 X42.34 Y-13.94
G1 X42.66 Y-14.41
G1 X42.98 Y-14.88
G1 X43.56 Y-15.85
G1 X44.13 Y-16.83
G1 X44.62 Y-17.86
G1 X45.10 Y-18.89
G1 X45.31 Y-19.41
G1 X45.52 Y-19.94
G1 X45.86 Y-21.03
G1 X46.21 Y-22.11
G1 X46.45 Y-23.22
G1 X46.70 Y-24.33
G1 X46.78 Y-24.89
G1 X46.87 Y-25.45
G1 X46.93 Y-26.01
G1 X46.99 Y-26.58
G1 X47.03 Y-27.14
G1 X47.06 Y-27.71
G1 X47.07 Y-28.28
G1 X47.08 Y-28.85
G1 X47.02 Y-29.98
G1 X46.97 Y-31.12
G1 X46.90 Y-31.68
G1 X46.83 Y-32.24
G1 X46.63 Y-33.36
G1 X46.42 Y-34.48
G1 X46.11 Y-35.57
G1 X45.80 Y-36.66
G1 X45.40 Y-37.73
G1 X45.00 Y-38.79
G1 X44.76 Y-39.30
G1 X44.52 Y-39.82
G1 X44.26 Y-40.32
G1 X44.00 Y-40.83
G1 X43.42 Y-41.80
G1 X42.83 Y-42.77
G1 X42.51 Y-43.24
G1 X42.18 Y-43.71
G1 X41.47 Y-44.59
G1 X40.76 Y-45.48
G1 X39.97 Y-46.30
G1 X39.19 Y-47.12
G1 X38.76 Y-47.50
G1 X38.34 Y-47.88
G1 X37.91 Y-48.24
G1 X37.47 Y-48.61
G1 X37.02 Y-48.95
G1 X36.57 Y-49.29
G1 X36.10 Y-49.61
G1 X35.63 Y-49.94
G1 X35.15 Y-50.24
G1 X34.67 Y-50.54
G1 X34.17 Y-50.82
G1 X33.68 Y-51.10
G1 X32.65 Y-51.59
G1 X31.63 Y-52.08
G1 X30.57 Y-52.48
G1 X29.50 Y-52.88
G1 X28.96 Y-53.04
G1 X28.41 Y-53.20
G1 X27.31 Y-53.45
G1 X26.20 Y-53.70
G1 X25.07 Y-53.86
G1 X23.95 Y-54.01
G1 X22.81 Y-54.06
G1 X21.68 Y-54.11
G1 X20.95 Y-53.82
G1 X20.21 Y-53.53
G1 X19.16 Y-53.01
G1 X18.10 Y-52.50
G1 X17.10 Y-51.90
G1 X16.09 Y-51.30
G1 X15.14 Y-50.62
G1 X14.19 Y-49.93
G1 X13.74 Y-49.56
G1 X13.29 Y-49.19
G1 X12.85 Y-48.80
G1 X12.41 Y-48.40
G1 X11.60 Y-47.56
G1 X10.78 Y-46.73
G1 X10.40 Y-46.28
G1 X10.02 Y-45.84
G1 X9.66 Y-45.37
G1 X9.29 Y-44.91
G1 X8.95 Y-44.44
G1 X8.61 Y-43.96
G1 X8.29 Y-43.47
G1 X7.97 Y-42.98
G1 X7.67 Y-42.47
G1 X7.38 Y-41.97
G1 X6.85 Y-40.92
G1 X6.32 Y-39.88
G1 X5.88 Y-38.79
G1 X5.44 Y-37.71
G1 X5.26 Y-37.15
G1 X5.08 Y-36.59
G1 X4.92 Y-36.03
G1 X4.76 Y-35.46
G1 X4.51 Y-34.32
G1 X4.27 Y-33.17
G1 X4.13 Y-32.01
G1 X3.99 Y-30.85
G1 X3.94 Y-29.68
G1 X3.90 Y-28.51
G1 X3.92 Y-27.92
G1 X3.94 Y-27.33
G1 X4.05 Y-26.17
G1 X4.16 Y-25.00
G1 X4.37 Y-23.85
G1 X4.58 Y-22.70
G1 X4.72 Y-22.13
G1 X4.86 Y-21.56
G1 X5.03 Y-21.00
G1 X5.20 Y-20.44
G1 X5.60 Y-19.34
G1 X6.01 Y-18.24
G1 X6.51 Y-17.18
G1 X7.01 Y-16.12
G1 X7.60 Y-15.11
G1 X8.19 Y-14.10
G1 X8.52 Y-13.61
G1 X8.85 Y-13.12
G1 X9.56 Y-12.20
G1 X10.28 Y-11.27
G1 X10.67 Y-10.83
G1 X11.05 Y-10.39
G1 X11.88 Y-9.56
G1 X12.71 Y-8.74
G1 X13.61 Y-7.99
G1 X14.51 Y-7.24
G1 X15.47 Y-6.57
G1 X16.43 Y-5.89
G1 X17.45 Y-5.31
G1 X18.46 Y-4.72
G1 X19.53 Y-4.23
G1 X20.59 Y-3.73
G1 X21.13 Y-3.52
G1 X21.68 Y-3.31 F88.13
G1 X21.68 Y-3.31
G1 X21.68 Y-3.31
G4 S1.
M9
G4 S1.
M5
G4 S1.
M1413 00:01:12
M1404
