;-------------------------------Cut file parameters------------------------
; Input file name : Part Studio 1 - sun.dxf
; File rotation : 0 File scale : 1
; Machine : Desktop
; Material name : Glass - Soda Lime
; Material thickness : 0.125 in
; Cut path  : Outside
; Cut quality : mediumRate
; Raw Material width : 192.3mm
; Raw Material height : 136.6mm
;-------------------------------Do Not modify the Gcode file---------------
G90
G21
M1403
M1405 X3.64 Y-0.47
M1406 X195.99 Y-137.07
M1407 S3.33
M1410 2.2.0; Generated on Wam
M1411 Glass - Soda Lime
M1412 0.125 in
G0 X29.10 Y-3.64
M3
M8
G4 S3.33
G1 X27.86 Y-4.23 F176.25
G1 X26.61 Y-4.82
G1 X26.11 Y-5.10 F167.44
G1 X25.61 Y-5.38 F158.63
G1 X24.63 Y-6.01 F149.81
G1 X23.65 Y-6.64 F141.00
G1 X22.73 Y-7.35 F132.19
G1 X21.81 Y-8.06 F123.37
G1 X20.95 Y-8.85
G1 X20.10 Y-9.63
G1 X19.70 Y-10.05
G1 X19.30 Y-10.47
G1 X18.55 Y-11.36
G1 X17.81 Y-12.25
G1 X17.14 Y-13.20
G1 X16.47 Y-14.15
G1 X15.89 Y-15.16
G1 X15.30 Y-16.16
G1 X14.81 Y-17.22
G1 X14.31 Y-18.27
G1 X14.10 Y-18.80
G1 X13.89 Y-19.34
G1 X13.53 Y-20.45
G1 X13.17 Y-21.56
G1 X12.91 Y-22.69
G1 X12.65 Y-23.82
G1 X12.49 Y-24.97
G1 X12.33 Y-26.12
G1 X12.27 Y-27.28
G1 X12.21 Y-28.44
G1 X12.24 Y-29.61
G1 X12.28 Y-30.77
G1 X12.34 Y-31.34
G1 X12.39 Y-31.92
G1 X12.58 Y-33.07
G1 X12.77 Y-34.21
G1 X13.05 Y-35.34
G1 X13.33 Y-36.47
G1 X13.72 Y-37.57
G1 X14.10 Y-38.67
G1 X14.32 Y-39.20
G1 X14.54 Y-39.73
G1 X15.06 Y-40.77
G1 X15.58 Y-41.81
G1 X16.19 Y-42.81
G1 X16.79 Y-43.80
G1 X17.48 Y-44.73
G1 X18.16 Y-45.67
G1 X18.93 Y-46.54
G1 X19.70 Y-47.42
G1 X20.54 Y-48.23
G1 X21.38 Y-49.03
G1 X21.82 Y-49.40
G1 X22.26 Y-49.77
G1 X23.19 Y-50.47
G1 X24.13 Y-51.16
G1 X24.62 Y-51.47
G1 X25.10 Y-51.79
G1 X26.12 Y-52.35
G1 X27.14 Y-52.92 F114.56
G1 X28.12 Y-53.37 F79.31
G1 X29.10 Y-53.82
G1 X28.99 Y-54.21
G1 X28.89 Y-54.61
G1 X27.75 Y-54.50 F114.56
G1 X26.62 Y-54.39 F123.37
G1 X26.04 Y-54.30
G1 X25.47 Y-54.21
G1 X24.34 Y-53.96
G1 X23.22 Y-53.71
G1 X22.11 Y-53.35
G1 X21.01 Y-53.00
G1 X19.95 Y-52.55
G1 X18.88 Y-52.10
G1 X18.35 Y-51.83
G1 X17.83 Y-51.57
G1 X16.84 Y-50.99
G1 X15.86 Y-50.40
G1 X15.37 Y-50.07
G1 X14.89 Y-49.74
G1 X13.98 Y-49.02
G1 X13.07 Y-48.30
G1 X12.23 Y-47.51
G1 X11.39 Y-46.71
G1 X11.00 Y-46.29
G1 X10.60 Y-45.86
G1 X10.23 Y-45.42
G1 X9.86 Y-44.98
G1 X9.18 Y-44.05
G1 X8.49 Y-43.12
G1 X8.18 Y-42.62
G1 X7.86 Y-42.13
G1 X7.31 Y-41.12
G1 X6.76 Y-40.12
G1 X6.30 Y-39.06
G1 X5.84 Y-38.00
G1 X5.47 Y-36.89
G1 X5.11 Y-35.79
G1 X4.96 Y-35.23
G1 X4.82 Y-34.68
G1 X4.70 Y-34.11
G1 X4.58 Y-33.54
G1 X4.41 Y-32.40
G1 X4.25 Y-31.26
G1 X4.19 Y-30.10
G1 X4.13 Y-28.94
G1 X4.13 Y-28.35
G1 X4.14 Y-27.77
G1 X4.24 Y-26.63
G1 X4.33 Y-25.49
G1 X4.42 Y-24.90
G1 X4.50 Y-24.32
G1 X4.75 Y-23.20
G1 X4.99 Y-22.08
G1 X5.16 Y-21.52
G1 X5.32 Y-20.96
G1 X5.71 Y-19.88
G1 X6.11 Y-18.79
G1 X6.60 Y-17.75
G1 X7.09 Y-16.70
G1 X7.68 Y-15.69
G1 X8.27 Y-14.69
G1 X8.59 Y-14.21
G1 X8.92 Y-13.73
G1 X9.27 Y-13.26
G1 X9.61 Y-12.79
G1 X10.36 Y-11.93
G1 X11.10 Y-11.06
G1 X11.51 Y-10.64
G1 X11.92 Y-10.22
G1 X12.78 Y-9.45
G1 X13.65 Y-8.68
G1 X14.11 Y-8.32
G1 X14.57 Y-7.96
G1 X15.52 Y-7.32
G1 X16.47 Y-6.68
G1 X17.48 Y-6.11
G1 X18.49 Y-5.55
G1 X19.56 Y-5.08
G1 X20.62 Y-4.61
G1 X21.17 Y-4.41
G1 X21.72 Y-4.21
G1 X22.82 Y-3.90
G1 X23.92 Y-3.58
G1 X25.06 Y-3.36
G1 X26.21 Y-3.13 F114.56
G1 X27.55 Y-2.99 F79.31
G1 X28.88 Y-2.86 F114.56
G1 X28.99 Y-3.25 F88.13
G1 X29.10 Y-3.64
G1 X29.10 Y-3.64
G4 S1.
M9
G4 S1.
M5
G4 S1.
G0 X41.02 Y-5.05
M3
M8
G4 S3.33
G1 X42.15 Y-7.41
G1 X43.29 Y-9.78 F176.25
G1 X43.98 Y-11.26
G1 X44.67 Y-12.75
G1 X45.59 Y-14.85
G1 X46.52 Y-16.95
G1 X47.07 Y-18.27
G1 X47.63 Y-19.59
G1 X48.36 Y-21.45
G1 X49.10 Y-23.31
G1 X49.73 Y-25.04
G1 X50.36 Y-26.77
G1 X50.89 Y-28.38
G1 X51.42 Y-29.98
G1 X51.85 Y-31.48
G1 X52.29 Y-32.97
G1 X52.63 Y-34.35
G1 X52.98 Y-35.73
G1 X53.25 Y-37.01
G1 X53.51 Y-38.29
G1 X53.70 Y-39.49 F167.44
G1 X53.89 Y-40.68 F158.63
G1 X54.01 Y-41.79 F149.81
G1 X54.13 Y-42.90 F141.00
G1 X54.19 Y-44.26 F158.63
G1 X54.25 Y-45.62 F176.25
G1 X54.23 Y-46.56 F167.44
G1 X54.21 Y-47.51 F158.63
G1 X54.11 Y-48.67 F149.81
G1 X54.01 Y-49.83 F141.00
G1 X53.83 Y-50.92 F132.19
G1 X53.66 Y-52.00 F123.37
G1 X53.43 Y-53.03
G1 X53.19 Y-54.06
G1 X52.85 Y-55.26
G1 X52.51 Y-56.47
G1 X51.74 Y-58.81 F141.00
G1 X50.98 Y-61.16 F158.63
G1 X50.69 Y-62.12 F149.81
G1 X50.39 Y-63.08 F141.00
G1 X50.07 Y-64.35 F158.63
G1 X49.75 Y-65.62 F176.25
G1 X49.54 Y-66.71 F167.44
G1 X49.34 Y-67.80 F158.63
G1 X49.22 Y-68.67 F149.81
G1 X49.11 Y-69.55 F141.00
G1 X49.05 Y-70.16 F132.19
G1 X49.00 Y-70.77 F123.37
G1 X48.95 Y-72.09 F141.00
G1 X48.91 Y-73.41 F158.63
G1 X48.95 Y-74.87 F176.25
G1 X49.00 Y-76.32 F149.81
G1 X49.17 Y-78.07 F123.37
G1 X49.34 Y-79.82
G1 X49.13 Y-79.98
G1 X48.91 Y-80.14
G1 X48.26 Y-79.89 F149.81
G1 X47.61 Y-79.64 F141.00
G1 X46.53 Y-79.30 F132.19
G1 X45.45 Y-78.96 F123.37
G1 X44.91 Y-78.83
G1 X44.37 Y-78.70
G1 X43.25 Y-78.51
G1 X42.14 Y-78.31
G1 X41.58 Y-78.25
G1 X41.03 Y-78.20
G1 X39.90 Y-78.15
G1 X38.77 Y-78.11
G1 X37.65 Y-78.17
G1 X36.53 Y-78.22
G1 X35.41 Y-78.38
G1 X34.30 Y-78.53
G1 X33.20 Y-78.79
G1 X32.10 Y-79.04
G1 X31.56 Y-79.20
G1 X31.03 Y-79.37
G1 X29.98 Y-79.76
G1 X28.92 Y-80.15
G1 X28.71 Y-79.97
G1 X28.50 Y-79.80
G1 X28.78 Y-77.89 F141.00
G1 X29.05 Y-75.97 F158.63
G1 X29.41 Y-74.01 F176.25
G1 X29.77 Y-72.04
G1 X30.18 Y-70.23
G1 X30.59 Y-68.42
G1 X31.12 Y-66.49
G1 X31.65 Y-64.57
G1 X32.22 Y-62.81
G1 X32.79 Y-61.05
G1 X33.47 Y-59.22
G1 X34.15 Y-57.39
G1 X34.84 Y-55.70
G1 X35.54 Y-54.02
G1 X37.12 Y-50.37
G1 X38.70 Y-46.72
G1 X39.07 Y-45.79 F167.44
G1 X39.45 Y-44.86 F158.63
G1 X39.80 Y-43.93 F149.81
G1 X40.14 Y-42.99 F141.00
G1 X40.52 Y-41.84 F132.19
G1 X40.89 Y-40.69 F123.37
G1 X41.21 Y-39.50
G1 X41.54 Y-38.31
G1 X41.76 Y-37.27
G1 X41.98 Y-36.23
G1 X42.15 Y-35.13
G1 X42.33 Y-34.04
G1 X42.42 Y-33.26
G1 X42.50 Y-32.47
G1 X42.57 Y-31.68
G1 X42.63 Y-30.88
G1 X42.66 Y-30.05
G1 X42.70 Y-29.22
G1 X42.70 Y-28.35
G1 X42.71 Y-27.48
G1 X42.65 Y-25.76 F141.00
G1 X42.58 Y-24.03 F158.63
G1 X42.41 Y-22.15 F176.25
G1 X42.23 Y-20.26
G1 X41.93 Y-18.20
G1 X41.64 Y-16.13
G1 X41.25 Y-14.05
G1 X40.86 Y-11.96
G1 X40.30 Y-9.50
G1 X39.75 Y-7.03 F149.81
G1 X39.05 Y-4.33 F114.56
G1 X38.35 Y-1.63 F79.31
G1 X38.76 Y-1.48
G1 X39.16 Y-1.33 F114.56
G1 X40.09 Y-3.19 F88.13
G1 X41.02 Y-5.05
G1 X41.02 Y-5.05
G4 S1.
M9
G4 S1.
M5
G4 S1.
G0 X51.02 Y-84.58
M3
M8
G4 S3.33
G1 X50.79 Y-85.97
G1 X50.57 Y-87.35 F176.25
G1 X50.33 Y-88.47 F167.44
G1 X50.09 Y-89.58 F158.63
G1 X49.80 Y-90.61 F149.81
G1 X49.51 Y-91.65 F141.00
G1 X49.13 Y-92.72 F132.19
G1 X48.75 Y-93.79 F123.37
G1 X48.37 Y-94.65
G1 X48.00 Y-95.50
G1 X47.52 Y-96.38
G1 X47.04 Y-97.27
G1 X46.53 Y-98.05
G1 X46.01 Y-98.84
G1 X45.45 Y-99.55
G1 X44.89 Y-100.26
G1 X44.38 Y-100.81
G1 X43.87 Y-101.36
G1 X43.26 Y-101.93
G1 X42.65 Y-102.50
G1 X42.01 Y-103.01
G1 X41.37 Y-103.53
G1 X40.72 Y-104.00
G1 X40.06 Y-104.46
G1 X39.49 Y-104.83
G1 X38.91 Y-105.20
G1 X38.24 Y-105.60
G1 X37.56 Y-106.00
G1 X34.65 Y-107.61 F141.00
G1 X31.74 Y-109.21 F158.63
G1 X31.03 Y-109.65 F149.81
G1 X30.31 Y-110.09 F141.00
G1 X29.63 Y-110.57 F132.19
G1 X28.94 Y-111.05 F123.37
G1 X28.29 Y-111.58
G1 X27.64 Y-112.11
G1 X27.12 Y-112.61
G1 X26.59 Y-113.11
G1 X26.10 Y-113.67
G1 X25.61 Y-114.23
G1 X25.22 Y-114.74
G1 X24.84 Y-115.26
G1 X24.42 Y-115.94
G1 X23.99 Y-116.62
G1 X23.67 Y-117.25
G1 X23.35 Y-117.88
G1 X23.01 Y-118.72
G1 X22.67 Y-119.56
G1 X22.42 Y-120.33
G1 X22.18 Y-121.11
G1 X21.97 Y-121.95
G1 X21.76 Y-122.80
G1 X21.59 Y-123.72
G1 X21.42 Y-124.65
G1 X21.30 Y-125.66
G1 X21.17 Y-126.66 F114.56
G1 X21.08 Y-127.95 F79.31
G1 X20.98 Y-129.24
G1 X20.62 Y-129.31
G1 X20.25 Y-129.37
G1 X19.69 Y-128.17 F114.56
G1 X19.13 Y-126.97 F149.81
G1 X18.86 Y-126.48 F167.44
G1 X18.60 Y-126.00 F158.63
G1 X17.99 Y-125.04 F149.81
G1 X17.38 Y-124.09 F141.00
G1 X16.69 Y-123.21 F132.19
G1 X16.00 Y-122.32 F123.37
G1 X15.24 Y-121.49
G1 X14.47 Y-120.66
G1 X13.64 Y-119.91
G1 X12.81 Y-119.16
G1 X11.90 Y-118.48
G1 X11.00 Y-117.80
G1 X10.53 Y-117.49
G1 X10.07 Y-117.18
G1 X9.09 Y-116.63
G1 X8.10 Y-116.07
G1 X7.11 Y-115.62
G1 X6.12 Y-115.16
G1 X6.06 Y-114.96
G1 X5.99 Y-114.76
G1 X6.55 Y-113.81
G1 X7.11 Y-112.87
G1 X7.74 Y-111.90
G1 X8.37 Y-110.93
G1 X9.00 Y-110.06
G1 X9.63 Y-109.18
G1 X10.26 Y-108.41
G1 X10.89 Y-107.63
G1 X11.52 Y-106.93
G1 X12.16 Y-106.22
G1 X12.79 Y-105.61
G1 X13.41 Y-105.00
G1 X14.05 Y-104.45
G1 X14.68 Y-103.90
G1 X15.45 Y-103.33
G1 X16.21 Y-102.76
G1 X16.85 Y-102.35
G1 X17.49 Y-101.94
G1 X18.27 Y-101.52
G1 X19.04 Y-101.09
G1 X19.81 Y-100.73
G1 X20.57 Y-100.38
G1 X21.35 Y-100.07
G1 X22.13 Y-99.77
G1 X22.90 Y-99.51
G1 X23.67 Y-99.25
G1 X24.45 Y-99.01
G1 X25.23 Y-98.78
G1 X28.53 Y-97.91 F141.00
G1 X31.82 Y-97.03 F158.63
G1 X33.23 Y-96.57 F176.25
G1 X34.64 Y-96.11
G1 X35.84 Y-95.62
G1 X37.05 Y-95.12
G1 X37.63 Y-94.85 F167.44
G1 X38.21 Y-94.57 F158.63
G1 X38.79 Y-94.26 F149.81
G1 X39.38 Y-93.95 F141.00
G1 X39.97 Y-93.60 F132.19
G1 X40.57 Y-93.25 F123.37
G1 X41.10 Y-92.90
G1 X41.64 Y-92.55
G1 X42.19 Y-92.16
G1 X42.73 Y-91.77
G1 X43.26 Y-91.36
G1 X43.78 Y-90.96
G1 X44.34 Y-90.49
G1 X44.89 Y-90.03
G1 X45.41 Y-89.55
G1 X45.94 Y-89.08
G1 X46.47 Y-88.56
G1 X47.00 Y-88.04
G1 X47.53 Y-87.48
G1 X48.07 Y-86.92 F114.56
G1 X49.21 Y-85.60 F79.31
G1 X50.36 Y-84.28 F114.56
G1 X50.69 Y-84.43 F88.13
G1 X51.02 Y-84.58
G1 X51.02 Y-84.58
G4 S1.
M9
G4 S1.
M5
G4 S1.
G0 X135.21 Y-27.31
M3
M8
G4 S3.33
G1 X135.23 Y-27.40
G1 X135.25 Y-27.50 F123.37
G1 X134.99 Y-28.70 F149.81
G1 X134.73 Y-29.90 F141.00
G1 X134.50 Y-31.06 F132.19
G1 X134.28 Y-32.23 F123.37
G1 X134.08 Y-33.46
G1 X133.88 Y-34.70
G1 X133.69 Y-36.04
G1 X133.50 Y-37.38
G1 X133.36 Y-37.50
G1 X133.21 Y-37.62
G1 X132.18 Y-37.55 F132.19
G1 X131.15 Y-37.48 F123.37
G1 X130.23 Y-37.38
G1 X129.32 Y-37.27
G1 X128.46 Y-37.13
G1 X127.60 Y-37.00
G1 X126.71 Y-36.80
G1 X125.83 Y-36.61
G1 X125.73 Y-36.51
G1 X125.63 Y-36.42
G1 X124.54 Y-31.53 F141.00
G1 X123.46 Y-26.65 F158.63
G1 X122.38 Y-21.77 F176.25
G1 X121.77 Y-19.03
G1 X120.69 Y-14.15
G1 X119.61 Y-9.26 F149.81
G1 X118.53 Y-4.38 F114.56
G1 X117.92 Y-1.64 F79.31
G1 X118.29 Y-1.49
G1 X118.66 Y-1.33
G1 X121.35 Y-5.55 F114.56
G1 X124.03 Y-9.77 F149.81
G1 X126.72 Y-13.98 F176.25
G1 X126.94 Y-14.32 F167.44
G1 X129.62 Y-18.54 F176.25
G1 X132.31 Y-22.75 F132.19
G1 X135.00 Y-26.97 F88.13
G1 X135.21 Y-27.31
G1 X135.21 Y-27.31
G4 S1.
M9
G4 S1.
M5
G4 S1.
G0 X184.07 Y-63.71
M3
M8
G4 S3.33
G1 X184.14 Y-63.75
G1 X184.21 Y-63.80 F158.63
G1 X184.75 Y-64.47 F149.81
G1 X185.28 Y-65.14 F141.00
G1 X185.82 Y-65.73 F132.19
G1 X186.35 Y-66.32 F123.37
G1 X186.96 Y-66.91
G1 X187.56 Y-67.50
G1 X188.19 Y-68.05
G1 X188.81 Y-68.60
G1 X189.50 Y-69.14
G1 X190.20 Y-69.69
G1 X190.96 Y-70.24
G1 X191.73 Y-70.79
G1 X192.57 Y-71.34
G1 X193.42 Y-71.89 F114.56
G1 X194.49 Y-72.53 F79.31
G1 X195.57 Y-73.17
G1 X195.50 Y-73.51
G1 X195.43 Y-73.84
G1 X194.42 Y-73.96 F114.56
G1 X193.42 Y-74.07 F123.37
G1 X192.55 Y-74.14
G1 X191.68 Y-74.21
G1 X190.86 Y-74.25
G1 X190.04 Y-74.28
G1 X189.26 Y-74.29
G1 X188.48 Y-74.29
G1 X187.73 Y-74.27
G1 X186.98 Y-74.25
G1 X186.22 Y-74.20
G1 X185.45 Y-74.14
G1 X184.67 Y-74.06
G1 X183.90 Y-73.97
G1 X183.09 Y-73.84
G1 X182.29 Y-73.70
G1 X178.07 Y-71.02 F141.00
G1 X173.85 Y-68.33 F158.63
G1 X170.76 Y-66.36 F176.25
G1 X166.54 Y-63.67 F149.81
G1 X162.33 Y-60.99 F114.56
G1 X159.23 Y-59.01 F79.31
G1 X159.39 Y-58.64
G1 X159.54 Y-58.27
G1 X164.42 Y-59.35 F114.56
G1 X169.30 Y-60.43 F149.81
G1 X171.81 Y-60.99 F176.25
G1 X176.69 Y-62.07 F132.19
G1 X181.57 Y-63.15 F88.13
G1 X184.07 Y-63.71
G1 X184.07 Y-63.71
G4 S1.
M9
G4 S1.
M5
G4 S1.
G0 X64.79 Y-5.05
M3
M8
G4 S3.33
G1 X65.93 Y-7.41
G1 X67.07 Y-9.78 F176.25
G1 X67.75 Y-11.26
G1 X68.44 Y-12.75
G1 X69.37 Y-14.85
G1 X70.30 Y-16.95
G1 X70.85 Y-18.27
G1 X71.40 Y-19.59
G1 X72.14 Y-21.45
G1 X72.87 Y-23.31
G1 X73.50 Y-25.04
G1 X74.13 Y-26.77
G1 X74.66 Y-28.38
G1 X75.19 Y-29.98
G1 X75.63 Y-31.48
G1 X76.06 Y-32.97
G1 X76.41 Y-34.35
G1 X76.76 Y-35.73
G1 X77.02 Y-37.01
G1 X77.28 Y-38.29
G1 X77.47 Y-39.49 F167.44
G1 X77.66 Y-40.68 F158.63
G1 X77.78 Y-41.79 F149.81
G1 X77.90 Y-42.90 F141.00
G1 X77.96 Y-44.26 F158.63
G1 X78.02 Y-45.62 F176.25
G1 X78.00 Y-46.56 F167.44
G1 X77.98 Y-47.51 F158.63
G1 X77.88 Y-48.67 F149.81
G1 X77.78 Y-49.83 F141.00
G1 X77.61 Y-50.92 F132.19
G1 X77.43 Y-52.00 F123.37
G1 X77.20 Y-53.03
G1 X76.97 Y-54.06
G1 X76.62 Y-55.26
G1 X76.28 Y-56.47
G1 X75.52 Y-58.81 F141.00
G1 X74.75 Y-61.16 F158.63
G1 X74.46 Y-62.12 F149.81
G1 X74.17 Y-63.08 F141.00
G1 X73.85 Y-64.35 F158.63
G1 X73.53 Y-65.62 F176.25
G1 X73.32 Y-66.71 F167.44
G1 X73.11 Y-67.80 F158.63
G1 X73.00 Y-68.67 F149.81
G1 X72.88 Y-69.55 F141.00
G1 X72.83 Y-70.16 F132.19
G1 X72.78 Y-70.77 F123.37
G1 X72.73 Y-72.09 F141.00
G1 X72.68 Y-73.41 F158.63
G1 X72.73 Y-74.87 F176.25
G1 X72.78 Y-76.32 F149.81
G1 X72.95 Y-78.07 F123.37
G1 X73.12 Y-79.82
G1 X72.90 Y-79.98
G1 X72.69 Y-80.14
G1 X72.04 Y-79.89 F149.81
G1 X71.38 Y-79.64 F141.00
G1 X70.30 Y-79.30 F132.19
G1 X69.23 Y-78.96 F123.37
G1 X68.68 Y-78.83
G1 X68.14 Y-78.70
G1 X67.03 Y-78.51
G1 X65.91 Y-78.31
G1 X65.36 Y-78.25
G1 X64.80 Y-78.20
G1 X63.68 Y-78.15
G1 X62.55 Y-78.11
G1 X61.43 Y-78.17
G1 X60.30 Y-78.22
G1 X59.19 Y-78.38
G1 X58.07 Y-78.53
G1 X56.97 Y-78.79
G1 X55.87 Y-79.04
G1 X55.34 Y-79.20
G1 X54.80 Y-79.37
G1 X53.75 Y-79.76
G1 X52.70 Y-80.15
G1 X52.49 Y-79.97
G1 X52.27 Y-79.80
G1 X52.55 Y-77.89 F141.00
G1 X52.83 Y-75.97 F158.63
G1 X53.19 Y-74.01 F176.25
G1 X53.55 Y-72.04
G1 X53.96 Y-70.23
G1 X54.37 Y-68.42
G1 X54.89 Y-66.49
G1 X55.42 Y-64.57
G1 X55.99 Y-62.81
G1 X56.56 Y-61.05
G1 X57.24 Y-59.22
G1 X57.92 Y-57.39
G1 X58.62 Y-55.70
G1 X59.31 Y-54.02
G1 X60.89 Y-50.37
G1 X62.47 Y-46.72
G1 X62.85 Y-45.79 F167.44
G1 X63.22 Y-44.86 F158.63
G1 X63.57 Y-43.93 F149.81
G1 X63.92 Y-42.99 F141.00
G1 X64.29 Y-41.84 F132.19
G1 X64.67 Y-40.69 F123.37
G1 X64.99 Y-39.50
G1 X65.31 Y-38.31
G1 X65.53 Y-37.27
G1 X65.75 Y-36.23
G1 X65.93 Y-35.13
G1 X66.10 Y-34.04
G1 X66.19 Y-33.26
G1 X66.28 Y-32.47
G1 X66.34 Y-31.68
G1 X66.40 Y-30.88
G1 X66.44 Y-30.05
G1 X66.47 Y-29.22
G1 X66.48 Y-28.35
G1 X66.49 Y-27.48
G1 X66.42 Y-25.76 F141.00
G1 X66.36 Y-24.03 F158.63
G1 X66.18 Y-22.15 F176.25
G1 X66.00 Y-20.26
G1 X65.71 Y-18.20
G1 X65.41 Y-16.13
G1 X65.02 Y-14.05
G1 X64.63 Y-11.96
G1 X64.08 Y-9.50
G1 X63.52 Y-7.03 F149.81
G1 X62.83 Y-4.33 F114.56
G1 X62.13 Y-1.63 F79.31
G1 X62.53 Y-1.48
G1 X62.94 Y-1.33 F114.56
G1 X63.86 Y-3.19 F88.13
G1 X64.79 Y-5.05
G1 X64.79 Y-5.05
G4 S1.
M9
G4 S1.
M5
G4 S1.
G0 X88.10 Y-5.05
M3
M8
G4 S3.33
G1 X89.24 Y-7.41
G1 X90.38 Y-9.78 F176.25
G1 X91.06 Y-11.26
G1 X91.75 Y-12.75
G1 X92.68 Y-14.85
G1 X93.60 Y-16.95
G1 X94.16 Y-18.27
G1 X94.71 Y-19.59
G1 X95.45 Y-21.45
G1 X96.18 Y-23.31
G1 X96.81 Y-25.04
G1 X97.44 Y-26.77
G1 X97.97 Y-28.38
G1 X98.50 Y-29.98
G1 X98.94 Y-31.48
G1 X99.37 Y-32.97
G1 X99.72 Y-34.35
G1 X100.07 Y-35.73
G1 X100.33 Y-37.01
G1 X100.59 Y-38.29
G1 X100.78 Y-39.49 F167.44
G1 X100.97 Y-40.68 F158.63
G1 X101.09 Y-41.79 F149.81
G1 X101.21 Y-42.90 F141.00
G1 X101.27 Y-44.26 F158.63
G1 X101.33 Y-45.62 F176.25
G1 X101.31 Y-46.56 F167.44
G1 X101.29 Y-47.51 F158.63
G1 X101.19 Y-48.67 F149.81
G1 X101.09 Y-49.83 F141.00
G1 X100.92 Y-50.92 F132.19
G1 X100.74 Y-52.00 F123.37
G1 X100.51 Y-53.03
G1 X100.28 Y-54.06
G1 X99.93 Y-55.26
G1 X99.59 Y-56.47
G1 X98.83 Y-58.81 F141.00
G1 X98.06 Y-61.16 F158.63
G1 X97.77 Y-62.12 F149.81
G1 X97.48 Y-63.08 F141.00
G1 X97.16 Y-64.35 F158.63
G1 X96.83 Y-65.62 F176.25
G1 X96.63 Y-66.71 F167.44
G1 X96.42 Y-67.80 F158.63
G1 X96.31 Y-68.67 F149.81
G1 X96.19 Y-69.55 F141.00
G1 X96.14 Y-70.16 F132.19
G1 X96.08 Y-70.77 F123.37
G1 X96.04 Y-72.09 F141.00
G1 X95.99 Y-73.41 F158.63
G1 X96.04 Y-74.87 F176.25
G1 X96.08 Y-76.32 F149.81
G1 X96.25 Y-78.07 F123.37
G1 X96.42 Y-79.82
G1 X96.21 Y-79.98
G1 X96.00 Y-80.14
G1 X95.34 Y-79.89 F149.81
G1 X94.69 Y-79.64 F141.00
G1 X93.61 Y-79.30 F132.19
G1 X92.53 Y-78.96 F123.37
G1 X91.99 Y-78.83
G1 X91.45 Y-78.70
G1 X90.34 Y-78.51
G1 X89.22 Y-78.31
G1 X88.67 Y-78.25
G1 X88.11 Y-78.20
G1 X86.99 Y-78.15
G1 X85.86 Y-78.11
G1 X84.73 Y-78.17
G1 X83.61 Y-78.22
G1 X82.50 Y-78.38
G1 X81.38 Y-78.53
G1 X80.28 Y-78.79
G1 X79.18 Y-79.04
G1 X78.65 Y-79.20
G1 X78.11 Y-79.37
G1 X77.06 Y-79.76
G1 X76.01 Y-80.15
G1 X75.80 Y-79.97
G1 X75.58 Y-79.80
G1 X75.86 Y-77.89 F141.00
G1 X76.14 Y-75.97 F158.63
G1 X76.50 Y-74.01 F176.25
G1 X76.86 Y-72.04
G1 X77.27 Y-70.23
G1 X77.68 Y-68.42
G1 X78.20 Y-66.49
G1 X78.73 Y-64.57
G1 X79.30 Y-62.81
G1 X79.87 Y-61.05
G1 X80.55 Y-59.22
G1 X81.23 Y-57.39
G1 X81.93 Y-55.70
G1 X82.62 Y-54.02
G1 X84.20 Y-50.37
G1 X85.78 Y-46.72
G1 X86.16 Y-45.79 F167.44
G1 X86.53 Y-44.86 F158.63
G1 X86.88 Y-43.93 F149.81
G1 X87.23 Y-42.99 F141.00
G1 X87.60 Y-41.84 F132.19
G1 X87.98 Y-40.69 F123.37
G1 X88.30 Y-39.50
G1 X88.62 Y-38.31
G1 X88.84 Y-37.27
G1 X89.06 Y-36.23
G1 X89.24 Y-35.13
G1 X89.41 Y-34.04
G1 X89.50 Y-33.26
G1 X89.59 Y-32.47
G1 X89.65 Y-31.68
G1 X89.71 Y-30.88
G1 X89.75 Y-30.05
G1 X89.78 Y-29.22
G1 X89.79 Y-28.35
G1 X89.80 Y-27.48
G1 X89.73 Y-25.76 F141.00
G1 X89.66 Y-24.03 F158.63
G1 X89.49 Y-22.15 F176.25
G1 X89.31 Y-20.26
G1 X89.02 Y-18.20
G1 X88.72 Y-16.13
G1 X88.33 Y-14.05
G1 X87.94 Y-11.96
G1 X87.39 Y-9.50
G1 X86.83 Y-7.03 F149.81
G1 X86.13 Y-4.33 F114.56
G1 X85.44 Y-1.63 F79.31
G1 X85.84 Y-1.48
G1 X86.25 Y-1.33 F114.56
G1 X87.17 Y-3.19 F88.13
G1 X88.10 Y-5.05
G1 X88.10 Y-5.05
G4 S1.
M9
G4 S1.
M5
G4 S1.
G0 X111.41 Y-6.01
M3
M8
G4 S3.33
G1 X112.55 Y-8.38
G1 X113.68 Y-10.74 F176.25
G1 X114.37 Y-12.23
G1 X115.06 Y-13.71
G1 X115.99 Y-15.82
G1 X116.91 Y-17.92
G1 X117.47 Y-19.24
G1 X118.02 Y-20.56
G1 X118.76 Y-22.42
G1 X119.49 Y-24.28
G1 X120.12 Y-26.01
G1 X120.75 Y-27.74
G1 X121.28 Y-29.34
G1 X121.81 Y-30.95
G1 X122.24 Y-32.44
G1 X122.68 Y-33.93
G1 X123.03 Y-35.32
G1 X123.37 Y-36.70
G1 X123.64 Y-37.98
G1 X123.90 Y-39.25
G1 X124.09 Y-40.45 F167.44
G1 X124.28 Y-41.65 F158.63
G1 X124.40 Y-42.76 F149.81
G1 X124.52 Y-43.87 F141.00
G1 X124.58 Y-45.22 F158.63
G1 X124.64 Y-46.58 F176.25
G1 X124.62 Y-47.53 F167.44
G1 X124.60 Y-48.47 F158.63
G1 X124.50 Y-49.63 F149.81
G1 X124.40 Y-50.79 F141.00
G1 X124.22 Y-51.88 F132.19
G1 X124.05 Y-52.97 F123.37
G1 X123.82 Y-53.99
G1 X123.59 Y-55.02
G1 X123.24 Y-56.23
G1 X122.90 Y-57.43
G1 X122.13 Y-59.78 F141.00
G1 X121.37 Y-62.12 F158.63
G1 X121.08 Y-63.08 F149.81
G1 X120.79 Y-64.04 F141.00
G1 X120.46 Y-65.31 F158.63
G1 X120.14 Y-66.58 F176.25
G1 X119.94 Y-67.67 F167.44
G1 X119.73 Y-68.76 F158.63
G1 X119.62 Y-69.64 F149.81
G1 X119.50 Y-70.51 F141.00
G1 X119.45 Y-71.12 F132.19
G1 X119.39 Y-71.73 F123.37
G1 X119.35 Y-73.06 F141.00
G1 X119.30 Y-74.38 F158.63
G1 X119.35 Y-75.83 F176.25
G1 X119.39 Y-77.29 F149.81
G1 X119.56 Y-79.04 F123.37
G1 X119.73 Y-80.79
G1 X119.52 Y-80.95
G1 X119.31 Y-81.11
G1 X118.65 Y-80.86 F149.81
G1 X118.00 Y-80.60 F141.00
G1 X116.92 Y-80.26 F132.19
G1 X115.84 Y-79.93 F123.37
G1 X115.30 Y-79.79
G1 X114.76 Y-79.66
G1 X113.64 Y-79.47
G1 X112.53 Y-79.28
G1 X111.98 Y-79.22
G1 X111.42 Y-79.16
G1 X110.29 Y-79.12
G1 X109.17 Y-79.07
G1 X108.04 Y-79.13
G1 X106.92 Y-79.19
G1 X105.80 Y-79.34
G1 X104.69 Y-79.50
G1 X103.59 Y-79.75
G1 X102.49 Y-80.01
G1 X101.96 Y-80.17
G1 X101.42 Y-80.33
G1 X100.37 Y-80.72
G1 X99.32 Y-81.11
G1 X99.10 Y-80.94
G1 X98.89 Y-80.77
G1 X99.17 Y-78.85 F141.00
G1 X99.45 Y-76.94 F158.63
G1 X99.81 Y-74.97 F176.25
G1 X100.16 Y-73.00
G1 X100.57 Y-71.19
G1 X100.98 Y-69.39
G1 X101.51 Y-67.46
G1 X102.04 Y-65.53
G1 X102.61 Y-63.77
G1 X103.18 Y-62.01
G1 X103.86 Y-60.18
G1 X104.54 Y-58.35
G1 X105.23 Y-56.67
G1 X105.93 Y-54.99
G1 X107.51 Y-51.34
G1 X109.09 Y-47.69
G1 X109.47 Y-46.76 F167.44
G1 X109.84 Y-45.83 F158.63
G1 X110.19 Y-44.89 F149.81
G1 X110.54 Y-43.95 F141.00
G1 X110.91 Y-42.81 F132.19
G1 X111.29 Y-41.66 F123.37
G1 X111.61 Y-40.46
G1 X111.93 Y-39.27
G1 X112.15 Y-38.23
G1 X112.37 Y-37.19
G1 X112.55 Y-36.10
G1 X112.72 Y-35.01
G1 X112.81 Y-34.22
G1 X112.90 Y-33.44
G1 X112.96 Y-32.64
G1 X113.02 Y-31.84
G1 X113.05 Y-31.01
G1 X113.09 Y-30.18
G1 X113.10 Y-29.32
G1 X113.10 Y-28.45
G1 X113.04 Y-26.72 F141.00
G1 X112.97 Y-25.00 F158.63
G1 X112.80 Y-23.11 F176.25
G1 X112.62 Y-21.23
G1 X112.33 Y-19.16
G1 X112.03 Y-17.10
G1 X111.64 Y-15.01
G1 X111.25 Y-12.93
G1 X110.70 Y-10.46
G1 X110.14 Y-7.99 F149.81
G1 X109.44 Y-5.29 F114.56
G1 X108.74 Y-2.59 F79.31
G1 X109.15 Y-2.44
G1 X109.55 Y-2.29 F114.56
G1 X110.48 Y-4.15 F88.13
G1 X111.41 Y-6.01
G1 X111.41 Y-6.01
G4 S1.
M9
G4 S1.
M5
G4 S1.
G0 X73.19 Y-90.37
M3
M8
G4 S3.33
G1 X72.97 Y-91.75
G1 X72.75 Y-93.14 F176.25
G1 X72.51 Y-94.25 F167.44
G1 X72.26 Y-95.37 F158.63
G1 X71.98 Y-96.40 F149.81
G1 X71.69 Y-97.43 F141.00
G1 X71.31 Y-98.51 F132.19
G1 X70.92 Y-99.58 F123.37
G1 X70.55 Y-100.43
G1 X70.17 Y-101.28
G1 X69.69 Y-102.17
G1 X69.22 Y-103.06
G1 X68.70 Y-103.84
G1 X68.18 Y-104.62
G1 X67.63 Y-105.33
G1 X67.07 Y-106.04
G1 X66.55 Y-106.60
G1 X66.04 Y-107.15
G1 X65.43 Y-107.72
G1 X64.82 Y-108.28
G1 X64.19 Y-108.80
G1 X63.55 Y-109.32
G1 X62.89 Y-109.78
G1 X62.24 Y-110.25
G1 X61.66 Y-110.62
G1 X61.08 Y-110.99
G1 X60.41 Y-111.39
G1 X59.74 Y-111.79
G1 X56.83 Y-113.39 F141.00
G1 X53.91 Y-115.00 F158.63
G1 X53.20 Y-115.44 F149.81
G1 X52.49 Y-115.88 F141.00
G1 X51.80 Y-116.36 F132.19
G1 X51.12 Y-116.84 F123.37
G1 X50.47 Y-117.37
G1 X49.82 Y-117.90
G1 X49.29 Y-118.40
G1 X48.77 Y-118.90
G1 X48.27 Y-119.46
G1 X47.78 Y-120.02
G1 X47.40 Y-120.53
G1 X47.02 Y-121.04
G1 X46.59 Y-121.73
G1 X46.17 Y-122.41
G1 X45.85 Y-123.04
G1 X45.53 Y-123.67
G1 X45.19 Y-124.51
G1 X44.84 Y-125.35
G1 X44.60 Y-126.12
G1 X44.35 Y-126.89
G1 X44.14 Y-127.74
G1 X43.94 Y-128.58
G1 X43.77 Y-129.51
G1 X43.60 Y-130.43
G1 X43.47 Y-131.44
G1 X43.35 Y-132.45 F114.56
G1 X43.25 Y-133.74 F79.31
G1 X43.16 Y-135.02
G1 X42.79 Y-135.09
G1 X42.43 Y-135.16
G1 X41.87 Y-133.96 F114.56
G1 X41.31 Y-132.76 F149.81
G1 X41.04 Y-132.27 F167.44
G1 X40.77 Y-131.78 F158.63
G1 X40.16 Y-130.83 F149.81
G1 X39.55 Y-129.88 F141.00
G1 X38.86 Y-128.99 F132.19
G1 X38.18 Y-128.11 F123.37
G1 X37.41 Y-127.28
G1 X36.64 Y-126.45
G1 X35.81 Y-125.70
G1 X34.98 Y-124.94
G1 X34.08 Y-124.26
G1 X33.18 Y-123.58
G1 X32.71 Y-123.28
G1 X32.24 Y-122.97
G1 X31.26 Y-122.42
G1 X30.28 Y-121.86
G1 X29.29 Y-121.40
G1 X28.30 Y-120.95
G1 X28.23 Y-120.75
G1 X28.17 Y-120.54
G1 X28.73 Y-119.60
G1 X29.29 Y-118.66
G1 X29.92 Y-117.69
G1 X30.55 Y-116.72
G1 X31.18 Y-115.84
G1 X31.81 Y-114.97
G1 X32.43 Y-114.19
G1 X33.06 Y-113.42
G1 X33.70 Y-112.71
G1 X34.33 Y-112.01
G1 X34.96 Y-111.40
G1 X35.59 Y-110.78
G1 X36.22 Y-110.23
G1 X36.86 Y-109.69
G1 X37.62 Y-109.12
G1 X38.38 Y-108.55
G1 X39.03 Y-108.14
G1 X39.67 Y-107.73
G1 X40.44 Y-107.30
G1 X41.22 Y-106.88
G1 X41.98 Y-106.52
G1 X42.75 Y-106.17
G1 X43.53 Y-105.86
G1 X44.31 Y-105.55
G1 X45.08 Y-105.29
G1 X45.85 Y-105.03
G1 X46.63 Y-104.80
G1 X47.41 Y-104.57
G1 X50.70 Y-103.69 F141.00
G1 X53.99 Y-102.81 F158.63
G1 X55.40 Y-102.35 F176.25
G1 X56.81 Y-101.89
G1 X58.02 Y-101.40
G1 X59.22 Y-100.91
G1 X59.80 Y-100.63 F167.44
G1 X60.38 Y-100.36 F158.63
G1 X60.97 Y-100.04 F149.81
G1 X61.55 Y-99.73 F141.00
G1 X62.15 Y-99.38 F132.19
G1 X62.74 Y-99.03 F123.37
G1 X63.28 Y-98.68
G1 X63.82 Y-98.33
G1 X64.36 Y-97.94
G1 X64.91 Y-97.56
G1 X65.43 Y-97.15
G1 X65.96 Y-96.74
G1 X66.51 Y-96.28
G1 X67.06 Y-95.82
G1 X67.59 Y-95.34
G1 X68.11 Y-94.86
G1 X68.64 Y-94.35
G1 X69.17 Y-93.83
G1 X69.71 Y-93.27
G1 X70.24 Y-92.71 F114.56
G1 X71.39 Y-91.38 F79.31
G1 X72.53 Y-90.06 F114.56
G1 X72.86 Y-90.21 F88.13
G1 X73.19 Y-90.37
G1 X73.19 Y-90.37
G4 S1.
M9
G4 S1.
M5
G4 S1.
G0 X102.21 Y-91.81
M3
M8
G4 S3.33
G1 X101.99 Y-93.20
G1 X101.77 Y-94.58 F176.25
G1 X101.53 Y-95.70 F167.44
G1 X101.29 Y-96.82 F158.63
G1 X101.00 Y-97.85 F149.81
G1 X100.71 Y-98.88 F141.00
G1 X100.33 Y-99.95 F132.19
G1 X99.95 Y-101.03 F123.37
G1 X99.57 Y-101.88
G1 X99.20 Y-102.73
G1 X98.72 Y-103.62
G1 X98.24 Y-104.50
G1 X97.72 Y-105.29
G1 X97.21 Y-106.07
G1 X96.65 Y-106.78
G1 X96.09 Y-107.49
G1 X95.58 Y-108.04
G1 X95.07 Y-108.60
G1 X94.46 Y-109.16
G1 X93.85 Y-109.73
G1 X93.21 Y-110.25
G1 X92.57 Y-110.76
G1 X91.92 Y-111.23
G1 X91.26 Y-111.69
G1 X90.68 Y-112.06
G1 X90.11 Y-112.43
G1 X89.43 Y-112.83
G1 X88.76 Y-113.23
G1 X85.85 Y-114.84 F141.00
G1 X82.94 Y-116.44 F158.63
G1 X82.22 Y-116.89 F149.81
G1 X81.51 Y-117.33 F141.00
G1 X80.83 Y-117.81 F132.19
G1 X80.14 Y-118.28 F123.37
G1 X79.49 Y-118.81
G1 X78.84 Y-119.34
G1 X78.32 Y-119.84
G1 X77.79 Y-120.35
G1 X77.30 Y-120.91
G1 X76.80 Y-121.46
G1 X76.42 Y-121.98
G1 X76.04 Y-122.49
G1 X75.62 Y-123.17
G1 X75.19 Y-123.86
G1 X74.87 Y-124.49
G1 X74.55 Y-125.11
G1 X74.21 Y-125.95
G1 X73.87 Y-126.79
G1 X73.62 Y-127.57
G1 X73.38 Y-128.34
G1 X73.17 Y-129.18
G1 X72.96 Y-130.03
G1 X72.79 Y-130.96
G1 X72.62 Y-131.88
G1 X72.50 Y-132.89
G1 X72.37 Y-133.90 F114.56
G1 X72.28 Y-135.18 F79.31
G1 X72.18 Y-136.47
G1 X71.82 Y-136.54
G1 X71.45 Y-136.61
G1 X70.89 Y-135.41 F114.56
G1 X70.33 Y-134.21 F149.81
G1 X70.06 Y-133.72 F167.44
G1 X69.79 Y-133.23 F158.63
G1 X69.18 Y-132.28 F149.81
G1 X68.57 Y-131.32 F141.00
G1 X67.89 Y-130.44 F132.19
G1 X67.20 Y-129.55 F123.37
G1 X66.43 Y-128.72
G1 X65.67 Y-127.89
G1 X64.83 Y-127.14
G1 X64.00 Y-126.39
G1 X63.10 Y-125.71
G1 X62.20 Y-125.03
G1 X61.73 Y-124.72
G1 X61.27 Y-124.42
G1 X60.28 Y-123.86
G1 X59.30 Y-123.31
G1 X58.31 Y-122.85
G1 X57.32 Y-122.40
G1 X57.26 Y-122.19
G1 X57.19 Y-121.99
G1 X57.75 Y-121.05
G1 X58.31 Y-120.11
G1 X58.94 Y-119.13
G1 X59.57 Y-118.16
G1 X60.20 Y-117.29
G1 X60.83 Y-116.42
G1 X61.46 Y-115.64
G1 X62.08 Y-114.86
G1 X62.72 Y-114.16
G1 X63.36 Y-113.46
G1 X63.98 Y-112.84
G1 X64.61 Y-112.23
G1 X65.25 Y-111.68
G1 X65.88 Y-111.13
G1 X66.65 Y-110.56
G1 X67.41 Y-110.00
G1 X68.05 Y-109.58
G1 X68.69 Y-109.17
G1 X69.46 Y-108.75
G1 X70.24 Y-108.32
G1 X71.00 Y-107.97
G1 X71.77 Y-107.61
G1 X72.55 Y-107.31
G1 X73.33 Y-107.00
G1 X74.10 Y-106.74
G1 X74.87 Y-106.48
G1 X75.65 Y-106.25
G1 X76.43 Y-106.02
G1 X79.72 Y-105.14 F141.00
G1 X83.02 Y-104.26 F158.63
G1 X84.43 Y-103.80 F176.25
G1 X85.84 Y-103.34
G1 X87.04 Y-102.85
G1 X88.25 Y-102.36
G1 X88.83 Y-102.08 F167.44
G1 X89.41 Y-101.80 F158.63
G1 X89.99 Y-101.49 F149.81
G1 X90.58 Y-101.18 F141.00
G1 X91.17 Y-100.83 F132.19
G1 X91.76 Y-100.48 F123.37
G1 X92.30 Y-100.13
G1 X92.84 Y-99.78
G1 X93.38 Y-99.39
G1 X93.93 Y-99.00
G1 X94.46 Y-98.60
G1 X94.98 Y-98.19
G1 X95.53 Y-97.73
G1 X96.09 Y-97.26
G1 X96.61 Y-96.79
G1 X97.14 Y-96.31
G1 X97.67 Y-95.79
G1 X98.20 Y-95.27
G1 X98.73 Y-94.71
G1 X99.27 Y-94.15 F114.56
G1 X100.41 Y-92.83 F79.31
G1 X101.56 Y-91.51 F114.56
G1 X101.89 Y-91.66 F88.13
G1 X102.21 Y-91.81
G1 X102.21 Y-91.81
G4 S1.
M9
G4 S1.
M5
G4 S1.
G0 X134.13 Y-90.37
M3
M8
G4 S3.33
G1 X133.91 Y-91.75
G1 X133.69 Y-93.14 F176.25
G1 X133.45 Y-94.25 F167.44
G1 X133.20 Y-95.37 F158.63
G1 X132.92 Y-96.40 F149.81
G1 X132.63 Y-97.43 F141.00
G1 X132.25 Y-98.51 F132.19
G1 X131.86 Y-99.58 F123.37
G1 X131.49 Y-100.43
G1 X131.11 Y-101.28
G1 X130.63 Y-102.17
G1 X130.16 Y-103.06
G1 X129.64 Y-103.84
G1 X129.12 Y-104.62
G1 X128.57 Y-105.33
G1 X128.01 Y-106.04
G1 X127.49 Y-106.60
G1 X126.98 Y-107.15
G1 X126.37 Y-107.72
G1 X125.76 Y-108.28
G1 X125.13 Y-108.80
G1 X124.49 Y-109.32
G1 X123.83 Y-109.78
G1 X123.18 Y-110.25
G1 X122.60 Y-110.62
G1 X122.02 Y-110.99
G1 X121.35 Y-111.39
G1 X120.68 Y-111.79
G1 X117.77 Y-113.39 F141.00
G1 X114.85 Y-115.00 F158.63
G1 X114.14 Y-115.44 F149.81
G1 X113.43 Y-115.88 F141.00
G1 X112.74 Y-116.36 F132.19
G1 X112.06 Y-116.84 F123.37
G1 X111.41 Y-117.37
G1 X110.76 Y-117.90
G1 X110.23 Y-118.40
G1 X109.71 Y-118.90
G1 X109.21 Y-119.46
G1 X108.72 Y-120.02
G1 X108.34 Y-120.53
G1 X107.96 Y-121.04
G1 X107.53 Y-121.73
G1 X107.11 Y-122.41
G1 X106.79 Y-123.04
G1 X106.47 Y-123.67
G1 X106.13 Y-124.51
G1 X105.78 Y-125.35
G1 X105.54 Y-126.12
G1 X105.29 Y-126.89
G1 X105.08 Y-127.74
G1 X104.87 Y-128.58
G1 X104.71 Y-129.51
G1 X104.54 Y-130.43
G1 X104.41 Y-131.44
G1 X104.29 Y-132.45 F114.56
G1 X104.19 Y-133.74 F79.31
G1 X104.10 Y-135.02
G1 X103.73 Y-135.09
G1 X103.37 Y-135.16
G1 X102.81 Y-133.96 F114.56
G1 X102.25 Y-132.76 F149.81
G1 X101.98 Y-132.27 F167.44
G1 X101.71 Y-131.78 F158.63
G1 X101.10 Y-130.83 F149.81
G1 X100.49 Y-129.88 F141.00
G1 X99.80 Y-128.99 F132.19
G1 X99.12 Y-128.11 F123.37
G1 X98.35 Y-127.28
G1 X97.58 Y-126.45
G1 X96.75 Y-125.70
G1 X95.92 Y-124.94
G1 X95.02 Y-124.26
G1 X94.12 Y-123.58
G1 X93.65 Y-123.28
G1 X93.18 Y-122.97
G1 X92.20 Y-122.42
G1 X91.22 Y-121.86
G1 X90.23 Y-121.40
G1 X89.24 Y-120.95
G1 X89.17 Y-120.75
G1 X89.11 Y-120.54
G1 X89.67 Y-119.60
G1 X90.22 Y-118.66
G1 X90.86 Y-117.69
G1 X91.49 Y-116.72
G1 X92.12 Y-115.84
G1 X92.75 Y-114.97
G1 X93.37 Y-114.19
G1 X94.00 Y-113.42
G1 X94.64 Y-112.71
G1 X95.27 Y-112.01
G1 X95.90 Y-111.40
G1 X96.53 Y-110.78
G1 X97.16 Y-110.23
G1 X97.80 Y-109.69
G1 X98.56 Y-109.12
G1 X99.32 Y-108.55
G1 X99.96 Y-108.14
G1 X100.61 Y-107.73
G1 X101.38 Y-107.30
G1 X102.16 Y-106.88
G1 X102.92 Y-106.52
G1 X103.68 Y-106.17
G1 X104.46 Y-105.86
G1 X105.24 Y-105.55
G1 X106.02 Y-105.29
G1 X106.79 Y-105.03
G1 X107.57 Y-104.80
G1 X108.35 Y-104.57
G1 X111.64 Y-103.69 F141.00
G1 X114.93 Y-102.81 F158.63
G1 X116.34 Y-102.35 F176.25
G1 X117.75 Y-101.89
G1 X118.96 Y-101.40
G1 X120.16 Y-100.91
G1 X120.74 Y-100.63 F167.44
G1 X121.32 Y-100.36 F158.63
G1 X121.91 Y-100.04 F149.81
G1 X122.49 Y-99.73 F141.00
G1 X123.09 Y-99.38 F132.19
G1 X123.68 Y-99.03 F123.37
G1 X124.22 Y-98.68
G1 X124.76 Y-98.33
G1 X125.30 Y-97.94
G1 X125.85 Y-97.56
G1 X126.37 Y-97.15
G1 X126.90 Y-96.74
G1 X127.45 Y-96.28
G1 X128.00 Y-95.82
G1 X128.53 Y-95.34
G1 X129.05 Y-94.86
G1 X129.58 Y-94.35
G1 X130.11 Y-93.83
G1 X130.65 Y-93.27
G1 X131.18 Y-92.71 F114.56
G1 X132.33 Y-91.38 F79.31
G1 X133.47 Y-90.06 F114.56
G1 X133.80 Y-90.21 F88.13
G1 X134.13 Y-90.37
G1 X134.13 Y-90.37
G4 S1.
M9
G4 S1.
M5
G4 S1.
G0 X149.38 Y-26.83
M3
M8
G4 S3.33
G1 X149.39 Y-26.92
G1 X149.41 Y-27.01 F123.37
G1 X149.15 Y-28.21 F149.81
G1 X148.89 Y-29.41 F141.00
G1 X148.67 Y-30.58 F132.19
G1 X148.44 Y-31.75 F123.37
G1 X148.24 Y-32.98
G1 X148.04 Y-34.21
G1 X147.85 Y-35.56
G1 X147.67 Y-36.90
G1 X147.52 Y-37.02
G1 X147.37 Y-37.14
G1 X146.34 Y-37.07 F132.19
G1 X145.31 Y-37.00 F123.37
G1 X144.40 Y-36.89
G1 X143.48 Y-36.79
G1 X142.62 Y-36.65
G1 X141.76 Y-36.51
G1 X140.87 Y-36.32
G1 X139.99 Y-36.13
G1 X139.89 Y-36.03
G1 X139.79 Y-35.93
G1 X138.71 Y-31.05 F141.00
G1 X137.63 Y-26.17 F158.63
G1 X136.54 Y-21.29 F176.25
G1 X135.94 Y-18.55
G1 X134.85 Y-13.66
G1 X133.77 Y-8.78 F149.81
G1 X132.69 Y-3.90 F114.56
G1 X132.08 Y-1.16 F79.31
G1 X132.45 Y-1.00
G1 X132.82 Y-0.85
G1 X135.51 Y-5.07 F114.56
G1 X138.20 Y-9.28 F149.81
G1 X140.88 Y-13.50 F176.25
G1 X141.10 Y-13.84 F167.44
G1 X143.79 Y-18.06 F176.25
G1 X146.47 Y-22.27 F132.19
G1 X149.16 Y-26.49 F88.13
G1 X149.38 Y-26.83
G1 X149.38 Y-26.83
G4 S1.
M9
G4 S1.
M5
G4 S1.
G0 X164.21 Y-27.79
M3
M8
G4 S3.33
G1 X164.23 Y-27.89
G1 X164.25 Y-27.98 F123.37
G1 X163.99 Y-29.18 F149.81
G1 X163.73 Y-30.38 F141.00
G1 X163.50 Y-31.55 F132.19
G1 X163.28 Y-32.71 F123.37
G1 X163.08 Y-33.95
G1 X162.88 Y-35.18
G1 X162.69 Y-36.52
G1 X162.50 Y-37.86
G1 X162.36 Y-37.98
G1 X162.21 Y-38.10
G1 X161.18 Y-38.03 F132.19
G1 X160.15 Y-37.96 F123.37
G1 X159.23 Y-37.86
G1 X158.32 Y-37.75
G1 X157.46 Y-37.62
G1 X156.60 Y-37.48
G1 X155.71 Y-37.29
G1 X154.83 Y-37.10
G1 X154.73 Y-37.00
G1 X154.63 Y-36.90
G1 X153.55 Y-32.02 F141.00
G1 X152.46 Y-27.13 F158.63
G1 X151.38 Y-22.25 F176.25
G1 X150.77 Y-19.51
G1 X149.69 Y-14.63
G1 X148.61 Y-9.75 F149.81
G1 X147.53 Y-4.87 F114.56
G1 X146.92 Y-2.12 F79.31
G1 X147.29 Y-1.97
G1 X147.66 Y-1.81
G1 X150.35 Y-6.03 F114.56
G1 X153.03 Y-10.25 F149.81
G1 X155.72 Y-14.46 F176.25
G1 X155.94 Y-14.80 F167.44
G1 X158.62 Y-19.02 F176.25
G1 X161.31 Y-23.24 F132.19
G1 X164.00 Y-27.45 F88.13
G1 X164.21 Y-27.79
G1 X164.21 Y-27.79
G4 S1.
M9
G4 S1.
M5
G4 S1.
G0 X178.57 Y-27.31
M3
M8
G4 S3.33
G1 X178.58 Y-27.40
G1 X178.60 Y-27.50 F123.37
G1 X178.34 Y-28.70 F149.81
G1 X178.08 Y-29.90 F141.00
G1 X177.86 Y-31.06 F132.19
G1 X177.64 Y-32.23 F123.37
G1 X177.43 Y-33.46
G1 X177.23 Y-34.70
G1 X177.05 Y-36.04
G1 X176.86 Y-37.38
G1 X176.71 Y-37.50
G1 X176.56 Y-37.62
G1 X175.53 Y-37.55 F132.19
G1 X174.51 Y-37.48 F123.37
G1 X173.59 Y-37.38
G1 X172.67 Y-37.27
G1 X171.81 Y-37.13
G1 X170.95 Y-37.00
G1 X170.07 Y-36.80
G1 X169.18 Y-36.61
G1 X169.08 Y-36.51
G1 X168.98 Y-36.42
G1 X167.90 Y-31.53 F141.00
G1 X166.82 Y-26.65 F158.63
G1 X165.74 Y-21.77 F176.25
G1 X165.13 Y-19.03
G1 X164.05 Y-14.15
G1 X162.96 Y-9.26 F149.81
G1 X161.88 Y-4.38 F114.56
G1 X161.27 Y-1.64 F79.31
G1 X161.64 Y-1.49
G1 X162.02 Y-1.33
G1 X164.70 Y-5.55 F114.56
G1 X167.39 Y-9.77 F149.81
G1 X170.08 Y-13.98 F176.25
G1 X170.29 Y-14.32 F167.44
G1 X172.98 Y-18.54 F176.25
G1 X175.67 Y-22.75 F132.19
G1 X178.35 Y-26.97 F88.13
G1 X178.57 Y-27.31
G1 X178.57 Y-27.31
G4 S1.
M9
G4 S1.
M5
G4 S1.
G0 X153.44 Y-62.77
M3
M8
G4 S3.33
G1 X153.51 Y-62.81
G1 X153.58 Y-62.85 F158.63
G1 X154.12 Y-63.53 F149.81
G1 X154.66 Y-64.20 F141.00
G1 X155.19 Y-64.79 F132.19
G1 X155.73 Y-65.38 F123.37
G1 X156.33 Y-65.97
G1 X156.94 Y-66.56
G1 X157.56 Y-67.11
G1 X158.18 Y-67.65
G1 X158.88 Y-68.20
G1 X159.57 Y-68.75
G1 X160.33 Y-69.30
G1 X161.10 Y-69.84
G1 X161.94 Y-70.39
G1 X162.79 Y-70.94 F114.56
G1 X163.87 Y-71.59 F79.31
G1 X164.94 Y-72.23
G1 X164.87 Y-72.57
G1 X164.80 Y-72.90
G1 X163.79 Y-73.02 F114.56
G1 X162.79 Y-73.13 F123.37
G1 X161.92 Y-73.20
G1 X161.06 Y-73.27
G1 X160.23 Y-73.30
G1 X159.41 Y-73.34
G1 X158.63 Y-73.35
G1 X157.85 Y-73.35
G1 X157.10 Y-73.33
G1 X156.35 Y-73.31
G1 X155.59 Y-73.26
G1 X154.83 Y-73.20
G1 X154.05 Y-73.12
G1 X153.27 Y-73.03
G1 X152.46 Y-72.89
G1 X151.66 Y-72.76
G1 X147.44 Y-70.07 F141.00
G1 X143.23 Y-67.39 F158.63
G1 X140.13 Y-65.42 F176.25
G1 X135.92 Y-62.73 F149.81
G1 X131.70 Y-60.04 F114.56
G1 X128.60 Y-58.07 F79.31
G1 X128.76 Y-57.70
G1 X128.91 Y-57.33
G1 X133.79 Y-58.41 F114.56
G1 X138.68 Y-59.49 F149.81
G1 X141.18 Y-60.05 F176.25
G1 X146.06 Y-61.13 F132.19
G1 X150.94 Y-62.21 F88.13
G1 X153.44 Y-62.77
G1 X153.44 Y-62.77
G4 S1.
M9
G4 S1.
M5
G4 S1.
G0 X151.54 Y-45.91
M3
M8
G4 S3.33
G1 X151.61 Y-45.95
G1 X151.68 Y-46.00 F158.63
G1 X152.21 Y-46.67 F149.81
G1 X152.75 Y-47.34 F141.00
G1 X153.29 Y-47.93 F132.19
G1 X153.82 Y-48.52 F123.37
G1 X154.43 Y-49.11
G1 X155.03 Y-49.71
G1 X155.65 Y-50.25
G1 X156.28 Y-50.80
G1 X156.97 Y-51.34
G1 X157.66 Y-51.89
G1 X158.43 Y-52.44
G1 X159.19 Y-52.99
G1 X160.04 Y-53.54
G1 X160.88 Y-54.09 F114.56
G1 X161.96 Y-54.73 F79.31
G1 X163.04 Y-55.37
G1 X162.97 Y-55.71
G1 X162.89 Y-56.05
G1 X161.89 Y-56.16 F114.56
G1 X160.89 Y-56.27 F123.37
G1 X160.02 Y-56.34
G1 X159.15 Y-56.41
G1 X158.33 Y-56.45
G1 X157.50 Y-56.48
G1 X156.72 Y-56.49
G1 X155.94 Y-56.50
G1 X155.19 Y-56.47
G1 X154.45 Y-56.45
G1 X153.68 Y-56.40
G1 X152.92 Y-56.35
G1 X152.14 Y-56.26
G1 X151.36 Y-56.17
G1 X150.56 Y-56.04
G1 X149.75 Y-55.90
G1 X145.54 Y-53.22 F141.00
G1 X141.32 Y-50.53 F158.63
G1 X138.23 Y-48.56 F176.25
G1 X134.01 Y-45.87 F149.81
G1 X129.79 Y-43.19 F114.56
G1 X126.70 Y-41.22 F79.31
G1 X126.85 Y-40.84
G1 X127.01 Y-40.47
G1 X131.89 Y-41.55 F114.56
G1 X136.77 Y-42.64 F149.81
G1 X139.27 Y-43.19 F176.25
G1 X144.15 Y-44.27 F132.19
G1 X149.04 Y-45.35 F88.13
G1 X151.54 Y-45.91
G1 X151.54 Y-45.91
G4 S1.
M9
G4 S1.
M5
G4 S1.
G0 X178.06 Y-45.91
M3
M8
G4 S3.33
G1 X178.13 Y-45.95
G1 X178.20 Y-46.00 F158.63
G1 X178.74 Y-46.67 F149.81
G1 X179.27 Y-47.34 F141.00
G1 X179.81 Y-47.93 F132.19
G1 X180.34 Y-48.52 F123.37
G1 X180.95 Y-49.11
G1 X181.55 Y-49.71
G1 X182.18 Y-50.25
G1 X182.80 Y-50.80
G1 X183.49 Y-51.34
G1 X184.18 Y-51.89
G1 X184.95 Y-52.44
G1 X185.72 Y-52.99
G1 X186.56 Y-53.54
G1 X187.40 Y-54.09 F114.56
G1 X188.48 Y-54.73 F79.31
G1 X189.56 Y-55.37
G1 X189.49 Y-55.71
G1 X189.41 Y-56.05
G1 X188.41 Y-56.16 F114.56
G1 X187.41 Y-56.27 F123.37
G1 X186.54 Y-56.34
G1 X185.67 Y-56.41
G1 X184.85 Y-56.45
G1 X184.03 Y-56.48
G1 X183.24 Y-56.49
G1 X182.46 Y-56.50
G1 X181.72 Y-56.47
G1 X180.97 Y-56.45
G1 X180.21 Y-56.40
G1 X179.44 Y-56.35
G1 X178.66 Y-56.26
G1 X177.88 Y-56.17
G1 X177.08 Y-56.04
G1 X176.28 Y-55.90
G1 X172.06 Y-53.22 F141.00
G1 X167.84 Y-50.53 F158.63
G1 X164.75 Y-48.56 F176.25
G1 X160.53 Y-45.87 F149.81
G1 X156.31 Y-43.19 F114.56
G1 X153.22 Y-41.22 F79.31
G1 X153.37 Y-40.84
G1 X153.53 Y-40.47
G1 X158.41 Y-41.55 F114.56
G1 X163.29 Y-42.64 F149.81
G1 X165.79 Y-43.19 F176.25
G1 X170.68 Y-44.27 F132.19
G1 X175.56 Y-45.35 F88.13
G1 X178.06 Y-45.91
G1 X178.06 Y-45.91
G4 S1.
M9
G4 S1.
M5
G4 S1.
M1413 00:24:09
M1404
