;-------------------------------Cut file parameters------------------------
; Input file name : Part Studio 1 - alpaca_front_leg.dxf
; File rotation : 90 File scale : 1
; Machine : Desktop
; Material name : Glass - Soda Lime
; Material thickness : 0.125 in
; Cut path  : Outside
; Cut quality : mediumRate
; Raw Material width : 124.0mm
; Raw Material height : 115.0mm
;-------------------------------Do Not modify the Gcode file---------------
G90
G21
M1403
M1405 X-0.00 Y-0.03
M1406 X123.97 Y-114.98
M1407 S3.33
M1410 2.2.0; Generated on Wam
M1411 Glass - Soda Lime
M1412 0.125 in
G0 X74.86 Y-110.49
M3
M8
G4 S3.33
G1 X71.00 Y-110.23 F176.25
G1 X67.14 Y-109.97
G1 X64.68 Y-109.77
G1 X62.21 Y-109.57
G1 X60.39 Y-109.38
G1 X58.56 Y-109.18
G1 X57.85 Y-109.07 F167.44
G1 X57.15 Y-108.97 F158.63
G1 X56.68 Y-108.88 F149.81
G1 X56.21 Y-108.78 F141.00
G1 X55.81 Y-108.66 F132.19
G1 X55.41 Y-108.55 F123.37
G1 X55.05 Y-108.39
G1 X54.68 Y-108.23
G1 X54.44 Y-108.09
G1 X54.20 Y-107.94
G1 X53.94 Y-107.72
G1 X53.67 Y-107.50
G1 X53.41 Y-107.21
G1 X53.15 Y-106.91
G1 X52.94 Y-106.60
G1 X52.74 Y-106.28
G1 X52.59 Y-105.94
G1 X52.45 Y-105.60
G1 X52.38 Y-105.34
G1 X52.31 Y-105.08
G1 X52.27 Y-104.81
G1 X52.24 Y-104.53
G1 X52.24 Y-104.23
G1 X52.25 Y-103.94
G1 X52.29 Y-103.66
G1 X52.34 Y-103.38
G1 X52.42 Y-103.13
G1 X52.50 Y-102.88
G1 X52.63 Y-102.61
G1 X52.77 Y-102.35
G1 X52.93 Y-102.11
G1 X53.10 Y-101.87
G1 X53.58 Y-101.35
G1 X54.05 Y-100.83
G1 X54.15 Y-100.79
G1 X54.24 Y-100.75
G1 X59.24 Y-100.79 F141.00
G1 X62.52 Y-100.82 F158.63
G1 X67.52 Y-100.85 F149.81
G1 X70.81 Y-100.88 F123.37
G1 X70.94 Y-100.98
G1 X71.07 Y-101.08
G1 X71.30 Y-102.04 F149.81
G1 X71.53 Y-102.99 F141.00
G1 X71.73 Y-103.68 F132.19
G1 X71.93 Y-104.37 F123.37
G1 X72.13 Y-104.98
G1 X72.34 Y-105.58
G1 X72.55 Y-106.11
G1 X72.77 Y-106.63
G1 X73.01 Y-107.11
G1 X73.25 Y-107.60
G1 X73.50 Y-107.99
G1 X73.75 Y-108.39
G1 X74.03 Y-108.74
G1 X74.31 Y-109.09 F114.56
G1 X74.72 Y-109.48 F79.31
G1 X75.13 Y-109.88 F114.56
G1 X74.99 Y-110.19 F88.13
G1 X74.86 Y-110.49
G1 X74.86 Y-110.49
G4 S1.
M9
G4 S1.
M5
G4 S1.
G0 X49.45 Y-103.09
M3
M8
G4 S3.33
G1 X48.79 Y-104.95
G1 X48.12 Y-106.81 F149.81
G1 X47.59 Y-108.54 F123.37
G1 X47.06 Y-110.28
G1 X46.94 Y-110.37
G1 X46.82 Y-110.46
G1 X45.02 Y-110.56 F149.81
G1 X43.22 Y-110.66 F176.25
G1 X42.19 Y-110.67 F167.44
G1 X41.16 Y-110.68 F158.63
G1 X40.14 Y-110.62 F149.81
G1 X39.12 Y-110.56 F141.00
G1 X38.25 Y-110.42 F132.19
G1 X37.39 Y-110.29 F123.37
G1 X36.87 Y-110.16
G1 X36.35 Y-110.04
G1 X35.84 Y-109.89
G1 X35.33 Y-109.73
G1 X34.54 Y-109.43
G1 X33.76 Y-109.12
G1 X33.31 Y-108.90
G1 X32.87 Y-108.68
G1 X32.46 Y-108.44
G1 X32.05 Y-108.20
G1 X31.68 Y-107.93
G1 X31.32 Y-107.67
G1 X31.09 Y-107.48
G1 X30.87 Y-107.28
G1 X30.59 Y-106.98
G1 X30.31 Y-106.68
G1 X30.07 Y-106.36
G1 X29.84 Y-106.05
G1 X29.65 Y-105.71
G1 X29.46 Y-105.38
G1 X29.31 Y-105.02
G1 X29.16 Y-104.67
G1 X29.02 Y-104.20
G1 X28.88 Y-103.74
G1 X28.79 Y-103.26
G1 X28.70 Y-102.79
G1 X28.65 Y-102.30
G1 X28.60 Y-101.82
G1 X28.60 Y-101.34
G1 X28.61 Y-100.85
G1 X28.67 Y-100.49
G1 X28.72 Y-100.12
G1 X28.87 Y-99.69
G1 X29.01 Y-99.25
G1 X29.19 Y-98.91
G1 X29.38 Y-98.57
G1 X29.60 Y-98.28
G1 X29.83 Y-97.99
G1 X30.08 Y-97.71
G1 X30.34 Y-97.44
G1 X31.04 Y-96.83
G1 X31.74 Y-96.23
G1 X31.85 Y-96.20
G1 X31.95 Y-96.17
G1 X33.34 Y-96.41 F141.00
G1 X34.73 Y-96.66 F158.63
G1 X36.82 Y-96.97 F176.25
G1 X38.92 Y-97.28
G1 X43.88 Y-97.91
G1 X44.88 Y-98.04 F149.81
G1 X49.84 Y-98.67 F123.37
G1 X50.84 Y-98.79
G1 X50.96 Y-99.00
G1 X51.08 Y-99.21
G1 X50.26 Y-101.15 F88.13
G1 X49.45 Y-103.09
G1 X49.45 Y-103.09
G4 S1.
M9
G4 S1.
M5
G4 S1.
G0 X87.51 Y-0.51
M3
M8
G4 S3.33
G1 X88.17 Y-0.61
G1 X88.82 Y-0.72 F158.63
G1 X89.40 Y-0.97 F149.81
G1 X89.99 Y-1.23 F141.00
G1 X90.47 Y-1.67 F132.19
G1 X90.94 Y-2.11 F123.37
G1 X91.25 Y-2.67
G1 X91.55 Y-3.23
G1 X91.83 Y-4.57 F141.00
G1 X92.10 Y-5.91 F114.56
G1 X92.13 Y-6.68 F79.31
G1 X92.15 Y-7.44
G1 X92.25 Y-7.03 F114.56
G1 X92.36 Y-6.61 F123.37
G1 X92.74 Y-5.51
G1 X93.12 Y-4.41
G1 X93.64 Y-3.60
G1 X94.16 Y-2.80
G1 X94.90 Y-2.26
G1 X95.63 Y-1.72
G1 X96.54 Y-1.42
G1 X97.44 Y-1.13
G1 X98.31 Y-1.10
G1 X99.17 Y-1.06
G1 X99.87 Y-1.30
G1 X100.57 Y-1.54
G1 X101.15 Y-2.03
G1 X101.73 Y-2.53
G1 X102.22 Y-3.25
G1 X102.72 Y-3.98
G1 X103.08 Y-4.83
G1 X103.45 Y-5.68
G1 X103.67 Y-6.80
G1 X103.88 Y-7.91
G1 X103.82 Y-8.88
G1 X103.76 Y-9.85 F114.56
G1 X103.59 Y-10.55 F79.31
G1 X103.43 Y-11.26
G1 X105.08 Y-11.22 F114.56
G1 X106.73 Y-11.19 F149.81
G1 X108.72 Y-11.38 F176.25
G1 X110.71 Y-11.58
G1 X112.79 Y-12.13
G1 X114.86 Y-12.69
G1 X116.22 Y-13.38
G1 X117.57 Y-14.08
G1 X118.73 Y-15.00
G1 X119.88 Y-15.92
G1 X120.85 Y-17.04
G1 X121.82 Y-18.15 F149.81
G1 X122.50 Y-19.50 F123.37
G1 X123.17 Y-20.85
G1 X123.33 Y-22.39 F149.81
G1 X123.49 Y-23.93 F176.25
G1 X123.20 Y-25.54
G1 X122.91 Y-27.16
G1 X122.33 Y-28.55
G1 X121.75 Y-29.94
G1 X120.84 Y-31.05
G1 X119.94 Y-32.15
G1 X118.84 Y-32.89
G1 X117.75 Y-33.62
G1 X116.35 Y-34.23
G1 X114.95 Y-34.85
G1 X113.45 Y-35.32
G1 X111.95 Y-35.79
G1 X110.51 Y-36.11
G1 X109.07 Y-36.42
G1 X107.83 Y-36.57 F149.81
G1 X106.58 Y-36.73 F114.56
G1 X105.20 Y-36.77 F79.31
G1 X103.81 Y-36.81
G1 X103.73 Y-41.81 F114.56
G1 X103.65 Y-46.81 F149.81
G1 X103.57 Y-51.81 F176.25
G1 X103.49 Y-56.81
G1 X103.46 Y-59.08
G1 X103.38 Y-64.08
G1 X103.30 Y-69.08
G1 X103.22 Y-74.08
G1 X103.14 Y-79.08
G1 X103.10 Y-81.35
G1 X103.00 Y-82.09 F167.44
G1 X102.90 Y-82.83 F158.63
G1 X102.57 Y-83.50 F149.81
G1 X102.24 Y-84.18 F141.00
G1 X101.37 Y-85.07 F132.19
G1 X100.49 Y-85.96 F123.37
G1 X99.25 Y-86.61 F141.00
G1 X98.02 Y-87.26 F158.63
G1 X96.87 Y-87.64 F149.81
G1 X95.73 Y-88.02 F114.56
G1 X94.44 Y-88.35 F79.31
G1 X93.15 Y-88.67
G1 X93.06 Y-93.18 F114.56
G1 X92.96 Y-97.69 F149.81
G1 X93.00 Y-101.28 F176.25
G1 X93.04 Y-104.87
G1 X92.99 Y-106.44
G1 X92.94 Y-108.01
G1 X92.76 Y-109.15 F167.44
G1 X92.59 Y-110.29 F158.63
G1 X92.16 Y-111.18 F149.81
G1 X91.74 Y-112.07 F141.00
G1 X91.70 Y-112.11 F132.19
G1 X91.67 Y-112.16 F123.37
G1 X90.67 Y-112.91
G1 X89.67 Y-113.67
G1 X88.27 Y-114.08 F141.00
G1 X86.87 Y-114.50 F158.63
G1 X85.52 Y-114.49 F176.25
G1 X84.16 Y-114.49
G1 X83.34 Y-114.23 F167.44
G1 X82.52 Y-113.96 F149.81
G1 X81.82 Y-113.44 F123.37
G1 X81.12 Y-112.92
G1 X80.61 Y-112.13 F132.19
G1 X80.10 Y-111.34 F123.37
G1 X79.66 Y-109.82 F141.00
G1 X79.22 Y-108.30 F158.63
G1 X79.03 Y-106.56 F176.25
G1 X78.84 Y-104.81
G1 X78.76 Y-101.44
G1 X78.68 Y-98.08 F149.81
G1 X78.68 Y-95.04 F114.56
G1 X78.69 Y-92.01 F79.31
G1 X77.50 Y-92.29 F114.56
G1 X76.31 Y-92.57 F149.81
G1 X74.35 Y-92.93 F176.25
G1 X72.39 Y-93.30
G1 X71.40 Y-93.45 F167.44
G1 X70.41 Y-93.59 F158.63
G1 X68.43 Y-93.81 F176.25
G1 X66.45 Y-94.02
G1 X65.45 Y-94.09 F167.44
G1 X64.46 Y-94.16 F158.63
G1 X63.46 Y-94.20 F149.81
G1 X62.47 Y-94.24 F141.00
G1 X60.47 Y-94.25 F158.63
G1 X58.48 Y-94.27 F176.25
G1 X56.48 Y-94.17
G1 X54.48 Y-94.08
G1 X52.49 Y-93.89
G1 X50.51 Y-93.69
G1 X49.52 Y-93.56 F167.44
G1 X48.53 Y-93.42 F158.63
G1 X47.55 Y-93.26 F149.81
G1 X46.56 Y-93.10 F141.00
G1 X44.61 Y-92.71 F158.63
G1 X42.65 Y-92.31 F176.25
G1 X41.68 Y-92.08 F167.44
G1 X40.71 Y-91.84 F158.63
G1 X39.74 Y-91.58 F149.81
G1 X38.77 Y-91.32 F141.00
G1 X36.87 Y-90.73 F158.63
G1 X34.97 Y-90.13 F176.25
G1 X34.03 Y-89.80 F167.44
G1 X33.09 Y-89.47 F158.63
G1 X32.16 Y-89.11 F149.81
G1 X31.22 Y-88.75 F114.56
G1 X29.68 Y-88.10 F79.31
G1 X28.15 Y-87.45
G1 X27.52 Y-92.41 F114.56
G1 X27.48 Y-92.75 F149.81
G1 X26.85 Y-97.71 F176.25
G1 X26.81 Y-98.05
G1 X26.53 Y-100.04
G1 X26.24 Y-102.04
G1 X25.91 Y-104.01
G1 X25.58 Y-105.98
G1 X25.22 Y-107.35
G1 X24.86 Y-108.71
G1 X24.37 Y-109.77 F167.44
G1 X23.88 Y-110.83 F158.63
G1 X23.13 Y-111.72 F149.81
G1 X22.37 Y-112.61 F141.00
G1 X21.25 Y-113.31 F158.63
G1 X20.14 Y-114.00 F149.81
G1 X18.96 Y-114.25 F123.37
G1 X17.79 Y-114.50
G1 X16.71 Y-114.26 F149.81
G1 X15.64 Y-114.01 F141.00
G1 X15.58 Y-113.99 F132.19
G1 X15.53 Y-113.96 F123.37
G1 X14.64 Y-113.16
G1 X13.74 Y-112.35
G1 X13.07 Y-110.99 F141.00
G1 X12.41 Y-109.64 F158.63
G1 X11.96 Y-107.74 F176.25
G1 X11.51 Y-105.84
G1 X11.24 Y-103.48
G1 X10.96 Y-101.12
G1 X10.83 Y-98.43
G1 X10.70 Y-95.74
G1 X10.66 Y-92.78
G1 X10.63 Y-89.81
G1 X10.67 Y-86.65
G1 X10.71 Y-83.50 F149.81
G1 X10.77 Y-80.73 F114.56
G1 X10.84 Y-77.95 F79.31
G1 X10.67 Y-78.28 F114.56
G1 X10.51 Y-78.61 F149.81
G1 X10.01 Y-79.23 F123.37
G1 X9.51 Y-79.85
G1 X8.79 Y-80.29
G1 X8.07 Y-80.72
G1 X6.81 Y-80.86
G1 X5.56 Y-80.99
G1 X4.92 Y-80.83
G1 X4.29 Y-80.67
G1 X3.73 Y-80.33
G1 X3.17 Y-79.99
G1 X2.60 Y-79.27
G1 X2.03 Y-78.55
G1 X1.66 Y-77.59
G1 X1.28 Y-76.63
G1 X1.03 Y-75.48
G1 X0.79 Y-74.32
G1 X0.63 Y-72.24 F141.00
G1 X0.48 Y-70.15 F158.63
G1 X0.68 Y-67.82 F176.25
G1 X0.89 Y-65.50
G1 X1.55 Y-63.08
G1 X2.21 Y-60.67
G1 X3.36 Y-58.38
G1 X4.51 Y-56.09
G1 X5.48 Y-54.79
G1 X6.45 Y-53.49
G1 X7.55 Y-52.46
G1 X8.65 Y-51.42 F149.81
G1 X9.88 Y-50.75 F123.37
G1 X11.10 Y-50.08
G1 X12.34 Y-49.90 F149.81
G1 X13.57 Y-49.72 F158.63
G1 X14.77 Y-49.91 F149.81
G1 X15.97 Y-50.11 F141.00
G1 X17.19 Y-50.55 F149.81
G1 X18.41 Y-51.00 F114.56
G1 X19.48 Y-51.50 F79.31
G1 X20.55 Y-52.00
G1 X21.40 Y-51.40 F114.56
G1 X22.24 Y-50.81 F141.00
G1 X22.82 Y-50.44 F132.19
G1 X23.41 Y-50.07 F123.37
G1 X24.01 Y-49.72
G1 X24.60 Y-49.37
G1 X25.84 Y-48.74 F141.00
G1 X27.07 Y-48.11 F158.63
G1 X28.35 Y-47.57 F176.25
G1 X29.63 Y-47.03
G1 X30.95 Y-46.58
G1 X32.27 Y-46.14
G1 X33.61 Y-45.80
G1 X34.95 Y-45.45
G1 X36.31 Y-45.21
G1 X37.68 Y-44.97
G1 X38.37 Y-44.88 F167.44
G1 X39.06 Y-44.80 F158.63
G1 X39.76 Y-44.74 F149.81
G1 X40.45 Y-44.68 F141.00
G1 X41.84 Y-44.64 F158.63
G1 X43.23 Y-44.60 F176.25
G1 X43.92 Y-44.62 F167.44
G1 X44.61 Y-44.64 F158.63
G1 X45.30 Y-44.69 F149.81
G1 X46.00 Y-44.73 F141.00
G1 X47.37 Y-44.90 F158.63
G1 X48.75 Y-45.06 F176.25
G1 X50.11 Y-45.33
G1 X51.47 Y-45.60
G1 X52.14 Y-45.77 F167.44
G1 X52.81 Y-45.94 F158.63
G1 X57.69 Y-47.04 F176.25
G1 X58.02 Y-47.11 F167.44
G1 X62.90 Y-48.21 F176.25
G1 X63.24 Y-48.29
G1 X64.56 Y-48.24
G1 X65.88 Y-48.20
G1 X66.88 Y-48.04 F167.44
G1 X67.89 Y-47.88 F158.63
G1 X69.77 Y-47.39 F176.25
G1 X71.66 Y-46.91
G1 X72.63 Y-46.56 F167.44
G1 X73.61 Y-46.21 F158.63
G1 X74.28 Y-45.77 F149.81
G1 X74.96 Y-45.33 F141.00
G1 X75.45 Y-44.68 F132.19
G1 X75.94 Y-44.04 F123.37
G1 X76.25 Y-43.16
G1 X76.56 Y-42.28
G1 X76.78 Y-40.61 F141.00
G1 X77.00 Y-38.93 F158.63
G1 X77.07 Y-37.03 F176.25
G1 X77.13 Y-35.13
G1 X77.41 Y-30.14
G1 X77.69 Y-25.15
G1 X77.77 Y-23.75
G1 X78.05 Y-18.76
G1 X78.33 Y-13.77
G1 X78.41 Y-12.37
G1 X78.77 Y-10.72
G1 X79.14 Y-9.07
G1 X79.52 Y-7.74
G1 X79.89 Y-6.41
G1 X80.37 Y-5.26 F167.44
G1 X80.85 Y-4.11 F158.63
G1 X81.49 Y-3.23 F149.81
G1 X82.13 Y-2.35 F141.00
G1 X82.97 Y-1.77 F132.19
G1 X83.81 Y-1.19 F123.37
G1 X84.72 Y-0.91
G1 X85.63 Y-0.63 F132.19
G1 X86.57 Y-0.57 F88.13
G1 X87.51 Y-0.51
G1 X87.51 Y-0.51
G4 S1.
M9
G4 S1.
M5
G4 S1.
M1413 00:04:24
M1404
