;-------------------------------Cut file parameters------------------------
; Input file name : Part Studio 1 - background_green_1.dxf
; File rotation : 0 File scale : 1
; Machine : Desktop
; Material name : Glass - Soda Lime
; Material thickness : 0.125 in
; Cut path  : Outside
; Cut quality : mediumRate
; Raw Material width : 68.3mm
; Raw Material height : 82.4mm
;-------------------------------Do Not modify the Gcode file---------------
G90
G21
M1403
M1405 X0.73 Y-4.59
M1406 X69.07 Y-87.00
M1407 S3.33
M1410 2.2.0; Generated on Wam
M1411 Glass - Soda Lime
M1412 0.125 in
G0 X63.44 Y-5.16
M3
M8
G4 S3.33
G1 X63.88 Y-6.36 F176.25
G1 X64.32 Y-7.57
G1 X64.92 Y-9.45
G1 X65.53 Y-11.32
G1 X66.03 Y-13.23
G1 X66.53 Y-15.15
G1 X66.94 Y-17.08
G1 X67.34 Y-19.01
G1 X67.65 Y-20.95
G1 X67.95 Y-22.90
G1 X68.16 Y-24.87
G1 X68.36 Y-26.83
G1 X68.46 Y-28.80
G1 X68.56 Y-30.77
G1 X68.57 Y-35.77
G1 X68.57 Y-40.77
G1 X68.57 Y-45.77
G1 X68.57 Y-50.77
G1 X68.57 Y-55.77
G1 X68.58 Y-58.61
G1 X68.58 Y-63.61
G1 X68.58 Y-68.61
G1 X68.58 Y-73.61
G1 X68.58 Y-78.61 F149.81
G1 X68.59 Y-83.61 F114.56
G1 X68.59 Y-86.44 F79.31
G1 X68.45 Y-86.50
G1 X68.30 Y-86.56
G1 X64.77 Y-83.02 F114.56
G1 X61.25 Y-79.48 F149.81
G1 X57.72 Y-75.94 F176.25
G1 X54.19 Y-72.39
G1 X53.62 Y-71.83 F167.44
G1 X50.10 Y-68.29 F176.25
G1 X46.57 Y-64.75 F149.81
G1 X43.04 Y-61.20 F114.56
G1 X39.51 Y-57.66 F79.31
G1 X38.95 Y-57.10
G1 X38.99 Y-56.96
G1 X39.04 Y-56.83
G1 X39.84 Y-56.73 F114.56
G1 X40.65 Y-56.64 F141.00
G1 X41.17 Y-56.55 F132.19
G1 X41.69 Y-56.46 F123.37
G1 X42.83 Y-56.20
G1 X43.97 Y-55.95
G1 X45.15 Y-55.59
G1 X46.34 Y-55.24
G1 X46.91 Y-55.03
G1 X47.49 Y-54.82
G1 X48.05 Y-54.59
G1 X48.60 Y-54.36
G1 X49.12 Y-54.11
G1 X49.64 Y-53.86
G1 X50.12 Y-53.60
G1 X50.59 Y-53.33
G1 X51.20 Y-52.90
G1 X51.81 Y-52.47
G1 X52.30 Y-52.00
G1 X52.79 Y-51.52
G1 X53.18 Y-50.99
G1 X53.58 Y-50.46
G1 X53.80 Y-50.08
G1 X54.01 Y-49.69
G1 X54.20 Y-49.28
G1 X54.39 Y-48.86
G1 X54.64 Y-48.17
G1 X54.88 Y-47.49
G1 X55.01 Y-47.00
G1 X55.14 Y-46.52
G1 X55.24 Y-46.01
G1 X55.34 Y-45.51
G1 X55.40 Y-45.00
G1 X55.46 Y-44.50
G1 X55.47 Y-43.99
G1 X55.49 Y-43.48
G1 X55.46 Y-42.98
G1 X55.42 Y-42.49
G1 X55.38 Y-42.25
G1 X55.35 Y-42.01
G1 X55.23 Y-41.54
G1 X55.11 Y-41.07
G1 X54.94 Y-40.64
G1 X54.77 Y-40.20
G1 X54.55 Y-39.78
G1 X54.34 Y-39.37
G1 X54.09 Y-38.98
G1 X53.84 Y-38.59
G1 X53.56 Y-38.23
G1 X53.28 Y-37.86
G1 X52.66 Y-37.19
G1 X52.04 Y-36.52
G1 X51.36 Y-35.92
G1 X50.68 Y-35.32
G1 X50.32 Y-35.05
G1 X49.96 Y-34.78
G1 X49.57 Y-34.53
G1 X49.18 Y-34.28
G1 X48.77 Y-34.06
G1 X48.36 Y-33.83
G1 X47.93 Y-33.62
G1 X47.49 Y-33.42
G1 X47.03 Y-33.24
G1 X46.57 Y-33.06
G1 X46.08 Y-32.90
G1 X45.60 Y-32.74
G1 X45.11 Y-32.61
G1 X44.61 Y-32.48
G1 X43.86 Y-32.31
G1 X43.10 Y-32.15
G1 X42.61 Y-32.07
G1 X42.11 Y-31.99
G1 X41.39 Y-31.91
G1 X40.67 Y-31.82
G1 X39.56 Y-31.77
G1 X38.46 Y-31.72
G1 X37.01 Y-31.76
G1 X35.56 Y-31.80
G1 X35.49 Y-31.71
G1 X35.41 Y-31.62
G1 X35.60 Y-30.75 F132.19
G1 X35.78 Y-29.88 F123.37
G1 X35.82 Y-29.46
G1 X35.87 Y-29.04
G1 X35.87 Y-28.72
G1 X35.87 Y-28.39
G1 X35.81 Y-27.81
G1 X35.74 Y-27.23
G1 X35.66 Y-26.87
G1 X35.57 Y-26.51
G1 X35.45 Y-26.14
G1 X35.33 Y-25.77
G1 X35.18 Y-25.40
G1 X35.04 Y-25.03
G1 X34.86 Y-24.68
G1 X34.68 Y-24.33
G1 X34.48 Y-24.00
G1 X34.28 Y-23.67
G1 X34.06 Y-23.38
G1 X33.84 Y-23.08
G1 X33.60 Y-22.83
G1 X33.36 Y-22.58
G1 X33.20 Y-22.44
G1 X33.04 Y-22.30
G1 X32.78 Y-22.14
G1 X32.52 Y-21.97
G1 X32.25 Y-21.86
G1 X31.99 Y-21.75
G1 X31.71 Y-21.68
G1 X31.43 Y-21.61
G1 X31.15 Y-21.59
G1 X30.87 Y-21.56
G1 X30.58 Y-21.57
G1 X30.29 Y-21.57
G1 X29.91 Y-21.63
G1 X29.52 Y-21.69
G1 X29.15 Y-21.79
G1 X28.77 Y-21.89
G1 X28.50 Y-21.99
G1 X28.23 Y-22.09
G1 X27.89 Y-22.26
G1 X27.55 Y-22.43
G1 X27.31 Y-22.60
G1 X27.07 Y-22.76
G1 X26.86 Y-22.95
G1 X26.64 Y-23.14
G1 X26.44 Y-23.36
G1 X26.24 Y-23.58
G1 X25.96 Y-24.04
G1 X25.67 Y-24.49
G1 X25.39 Y-25.14
G1 X25.12 Y-25.79 F114.56
G1 X24.84 Y-26.76 F79.31
G1 X24.55 Y-27.73
G1 X24.36 Y-27.71
G1 X24.17 Y-27.69
G1 X24.08 Y-26.59 F114.56
G1 X24.00 Y-25.50 F123.37
G1 X23.93 Y-25.09
G1 X23.86 Y-24.69
G1 X23.76 Y-24.31
G1 X23.66 Y-23.94
G1 X23.52 Y-23.60
G1 X23.38 Y-23.25
G1 X23.26 Y-23.03
G1 X23.13 Y-22.80
G1 X22.91 Y-22.53
G1 X22.70 Y-22.25
G1 X22.51 Y-22.08
G1 X22.33 Y-21.91
G1 X22.11 Y-21.77
G1 X21.89 Y-21.63
G1 X21.56 Y-21.48
G1 X21.23 Y-21.33
G1 X20.87 Y-21.24
G1 X20.51 Y-21.14
G1 X20.12 Y-21.10
G1 X19.73 Y-21.05
G1 X19.33 Y-21.04
G1 X18.92 Y-21.04
G1 X18.52 Y-21.08
G1 X18.11 Y-21.12
G1 X17.71 Y-21.20
G1 X17.31 Y-21.27
G1 X16.93 Y-21.39
G1 X16.54 Y-21.52
G1 X16.08 Y-21.74
G1 X15.62 Y-21.96
G1 X15.27 Y-22.19
G1 X14.93 Y-22.43
G1 X14.53 Y-22.81
G1 X14.14 Y-23.18
G1 X13.86 Y-23.56
G1 X13.58 Y-23.94
G1 X13.34 Y-24.37
G1 X13.09 Y-24.81
G1 X12.82 Y-25.42
G1 X12.56 Y-26.04
G1 X12.32 Y-26.72
G1 X12.09 Y-27.40
G1 X11.83 Y-28.35
G1 X11.57 Y-29.30
G1 X11.44 Y-29.33
G1 X11.32 Y-29.37
G1 X7.78 Y-25.83 F141.00
G1 X6.27 Y-24.32 F149.81
G1 X2.73 Y-20.78 F123.37
G1 X1.22 Y-19.27
G1 X1.22 Y-19.18
G1 X1.22 Y-19.08
G1 X1.60 Y-18.68 F149.81
G1 X1.98 Y-18.28 F141.00
G1 X2.30 Y-17.90 F132.19
G1 X2.63 Y-17.52 F123.37
G1 X3.23 Y-16.71
G1 X3.82 Y-15.90
G1 X4.34 Y-15.04
G1 X4.85 Y-14.18
G1 X5.27 Y-13.26
G1 X5.70 Y-12.35
G1 X5.87 Y-11.89
G1 X6.05 Y-11.42
G1 X6.33 Y-10.45
G1 X6.61 Y-9.49
G1 X6.72 Y-9.00
G1 X6.82 Y-8.51
G1 X6.96 Y-7.51
G1 X7.10 Y-6.51
G1 X7.13 Y-5.86
G1 X7.17 Y-5.20
G1 X7.23 Y-5.14
G1 X7.30 Y-5.07
G1 X12.30 Y-5.07 F141.00
G1 X17.30 Y-5.07 F158.63
G1 X22.30 Y-5.07 F176.25
G1 X27.30 Y-5.07
G1 X32.30 Y-5.07
G1 X35.31 Y-5.07
G1 X40.31 Y-5.07
G1 X45.31 Y-5.07
G1 X50.31 Y-5.07
G1 X55.31 Y-5.07
G1 X60.31 Y-5.07 F149.81
G1 X63.32 Y-5.07 F123.37
G1 X63.38 Y-5.12 F88.13
G1 X63.44 Y-5.16
G1 X63.44 Y-5.16
G4 S1.
M9
G4 S1.
M5
G4 S1.
M1413 00:02:13
M1404
