;-------------------------------Cut file parameters------------------------
; Input file name : Part Studio 1 - background_blue_1 (1).dxf
; File rotation : 0 File scale : 1
; Machine : Desktop
; Material name : Glass - Soda Lime
; Material thickness : 0.125 in
; Cut path  : Outside
; Cut quality : mediumRate
; Raw Material width : 75.5mm
; Raw Material height : 117.1mm
;-------------------------------Do Not modify the Gcode file---------------
G90
G21
M1403
M1405 X3.85 Y-1.92
M1406 X79.32 Y-119.01
M1407 S3.33
M1410 2.2.0; Generated on Wam
M1411 Glass - Soda Lime
M1412 0.125 in
G0 X63.38 Y-3.87
M3
M8
G4 S3.33
G1 X64.17 Y-4.46 F176.25
G1 X64.97 Y-5.05 F158.63
G1 X65.83 Y-5.55 F149.81
G1 X66.68 Y-6.06 F141.00
G1 X67.58 Y-6.48 F132.19
G1 X68.47 Y-6.89 F123.37
G1 X69.41 Y-7.22
G1 X70.35 Y-7.55
G1 X71.31 Y-7.78
G1 X72.28 Y-8.01
G1 X73.26 Y-8.14
G1 X74.25 Y-8.28
G1 X75.20 Y-8.32
G1 X76.15 Y-8.36
G1 X76.28 Y-8.50
G1 X76.41 Y-8.64
G1 X76.41 Y-13.64 F141.00
G1 X76.41 Y-18.64 F158.63
G1 X76.41 Y-23.64 F176.25
G1 X76.41 Y-28.64
G1 X76.41 Y-29.64 F167.44
G1 X76.41 Y-34.64 F176.25
G1 X76.41 Y-39.64
G1 X76.41 Y-44.64 F149.81
G1 X76.41 Y-49.64 F123.37
G1 X76.41 Y-50.65
G1 X76.23 Y-50.79
G1 X76.05 Y-50.94
G1 X73.57 Y-50.37 F149.81
G1 X71.08 Y-49.79 F176.25
G1 X70.42 Y-49.67 F167.44
G1 X69.75 Y-49.55 F158.63
G1 X68.39 Y-49.39 F176.25
G1 X67.04 Y-49.22
G1 X66.36 Y-49.18 F167.44
G1 X65.69 Y-49.14 F158.63
G1 X64.32 Y-49.12 F176.25
G1 X62.96 Y-49.11
G1 X61.60 Y-49.19
G1 X60.24 Y-49.28
G1 X58.89 Y-49.47
G1 X57.54 Y-49.65
G1 X56.21 Y-49.94
G1 X54.88 Y-50.22
G1 X53.57 Y-50.60
G1 X52.27 Y-50.98
G1 X50.99 Y-51.46
G1 X49.71 Y-51.94
G1 X49.09 Y-52.21 F167.44
G1 X48.47 Y-52.48 F158.63
G1 X47.25 Y-53.10 F176.25
G1 X46.04 Y-53.71
G1 X44.87 Y-54.42
G1 X43.70 Y-55.12 F149.81
G1 X42.73 Y-55.79 F123.37
G1 X41.77 Y-56.47
G1 X41.64 Y-56.48
G1 X41.51 Y-56.49
G1 X40.31 Y-55.93 F149.81
G1 X39.10 Y-55.38 F176.25
G1 X37.96 Y-54.97 F167.44
G1 X36.82 Y-54.56 F158.63
G1 X35.69 Y-54.39 F149.81
G1 X34.56 Y-54.22 F141.00
G1 X33.43 Y-54.39 F132.19
G1 X32.30 Y-54.56 F123.37
G1 X31.20 Y-55.14
G1 X30.11 Y-55.73
G1 X29.07 Y-56.68 F141.00
G1 X28.03 Y-57.62 F158.63
G1 X27.10 Y-58.83 F176.25
G1 X26.16 Y-60.05
G1 X25.03 Y-62.20
G1 X23.90 Y-64.35
G1 X23.21 Y-66.65
G1 X22.52 Y-68.94
G1 X22.27 Y-70.91
G1 X22.03 Y-72.89
G1 X22.05 Y-74.71
G1 X22.08 Y-76.54
G1 X22.27 Y-77.90
G1 X22.46 Y-79.26
G1 X22.78 Y-80.38 F167.44
G1 X23.10 Y-81.50 F158.63
G1 X23.58 Y-82.36 F149.81
G1 X24.07 Y-83.22 F141.00
G1 X24.46 Y-83.57 F132.19
G1 X24.84 Y-83.92 F123.37
G1 X25.33 Y-84.15
G1 X25.81 Y-84.38
G1 X26.36 Y-84.49
G1 X26.91 Y-84.59
G1 X27.47 Y-84.57
G1 X28.04 Y-84.55
G1 X28.75 Y-84.32
G1 X29.46 Y-84.09
G1 X30.03 Y-83.63
G1 X30.60 Y-83.17 F114.56
G1 X31.13 Y-82.38 F79.31
G1 X31.66 Y-81.59
G1 X32.00 Y-81.69
G1 X32.35 Y-81.80
G1 X32.27 Y-85.20 F114.56
G1 X32.20 Y-88.59 F149.81
G1 X32.17 Y-91.69 F176.25
G1 X32.14 Y-94.78
G1 X32.18 Y-97.68
G1 X32.23 Y-100.57
G1 X32.38 Y-103.17
G1 X32.52 Y-105.77
G1 X32.69 Y-107.30
G1 X32.86 Y-108.83
G1 X33.10 Y-110.17
G1 X33.34 Y-111.51
G1 X33.66 Y-112.64 F167.44
G1 X33.97 Y-113.76 F158.63
G1 X34.38 Y-114.64 F149.81
G1 X34.78 Y-115.52 F141.00
G1 X35.27 Y-116.16 F132.19
G1 X35.75 Y-116.80 F114.56
G1 X36.48 Y-117.33 F79.31
G1 X37.22 Y-117.87
G1 X37.11 Y-118.20
G1 X37.00 Y-118.53
G1 X32.00 Y-118.53 F114.56
G1 X27.00 Y-118.53 F149.81
G1 X22.00 Y-118.53 F176.25
G1 X20.81 Y-118.53 F167.44
G1 X15.81 Y-118.53 F176.25
G1 X10.81 Y-118.53 F149.81
G1 X5.81 Y-118.53 F123.37
G1 X4.62 Y-118.53
G1 X4.48 Y-118.39
G1 X4.33 Y-118.25
G1 X4.33 Y-113.25 F149.81
G1 X4.33 Y-108.25 F176.25
G1 X4.33 Y-103.25
G1 X4.33 Y-98.25
G1 X4.33 Y-93.25
G1 X4.33 Y-88.89
G1 X4.33 Y-83.89
G1 X4.33 Y-78.89
G1 X4.33 Y-73.89
G1 X4.33 Y-68.89
G1 X4.33 Y-63.89 F149.81
G1 X4.33 Y-59.53 F123.37
G1 X4.37 Y-59.45
G1 X4.41 Y-59.36
G1 X7.94 Y-55.82 F149.81
G1 X11.48 Y-52.29 F176.25
G1 X15.01 Y-48.75
G1 X18.55 Y-45.22
G1 X22.09 Y-41.68
G1 X25.62 Y-38.15
G1 X29.16 Y-34.61
G1 X32.69 Y-31.07
G1 X32.89 Y-30.88 F167.44
G1 X36.42 Y-27.35 F176.25
G1 X39.96 Y-23.81
G1 X43.49 Y-20.27
G1 X47.03 Y-16.74
G1 X50.56 Y-13.20
G1 X54.10 Y-9.67
G1 X57.63 Y-6.13 F149.81
G1 X61.17 Y-2.60 F123.37
G1 X61.36 Y-2.40
G1 X61.55 Y-2.40
G1 X61.75 Y-2.39
G1 X62.56 Y-3.13 F88.13
G1 X63.38 Y-3.87
G1 X63.38 Y-3.87
G4 S1.
M9
G4 S1.
M5
G4 S1.
G0 X67.37 Y-92.10
M3
M8
G4 S3.33
G1 X69.31 Y-92.48
G1 X71.25 Y-92.85 F176.25
G1 X73.21 Y-93.13
G1 X75.17 Y-93.40 F149.81
G1 X76.88 Y-93.57 F123.37
G1 X78.59 Y-93.73
G1 X78.71 Y-93.86
G1 X78.84 Y-94.00
G1 X78.84 Y-99.00 F149.81
G1 X78.84 Y-104.00 F176.25
G1 X78.84 Y-104.15 F167.44
G1 X78.84 Y-109.15 F149.81
G1 X78.84 Y-114.15 F123.37
G1 X78.84 Y-114.31
G1 X78.70 Y-114.45
G1 X78.56 Y-114.59
G1 X73.56 Y-114.59 F149.81
G1 X68.56 Y-114.59 F176.25
G1 X63.56 Y-114.59
G1 X61.15 Y-114.59
G1 X56.15 Y-114.59 F149.81
G1 X51.15 Y-114.59 F114.56
G1 X46.15 Y-114.59 F79.31
G1 X43.74 Y-114.59
G1 X43.65 Y-114.22
G1 X43.57 Y-113.85
G1 X44.20 Y-113.53 F114.56
G1 X44.84 Y-113.22 F141.00
G1 X45.27 Y-112.93 F132.19
G1 X45.70 Y-112.64 F123.37
G1 X46.08 Y-112.30
G1 X46.47 Y-111.95
G1 X46.80 Y-111.55
G1 X47.14 Y-111.16
G1 X47.42 Y-110.71
G1 X47.70 Y-110.26
G1 X47.93 Y-109.77
G1 X48.16 Y-109.28
G1 X48.36 Y-108.70
G1 X48.57 Y-108.12 F114.56
G1 X48.80 Y-107.24 F79.31
G1 X49.03 Y-106.37
G1 X49.31 Y-106.30
G1 X49.60 Y-106.23
G1 X50.01 Y-106.72 F114.56
G1 X50.42 Y-107.20 F123.37
G1 X50.67 Y-107.45
G1 X50.92 Y-107.70
G1 X51.17 Y-107.92
G1 X51.43 Y-108.14
G1 X51.71 Y-108.33
G1 X51.99 Y-108.51
G1 X52.18 Y-108.60
G1 X52.36 Y-108.70
G1 X52.67 Y-108.80
G1 X52.98 Y-108.91
G1 X53.30 Y-108.97
G1 X53.62 Y-109.03
G1 X53.95 Y-109.05
G1 X54.27 Y-109.07
G1 X54.72 Y-109.04
G1 X55.17 Y-109.02
G1 X55.62 Y-108.95
G1 X56.07 Y-108.88
G1 X56.50 Y-108.78
G1 X56.94 Y-108.67
G1 X57.37 Y-108.52
G1 X57.80 Y-108.36
G1 X58.11 Y-108.21
G1 X58.41 Y-108.06
G1 X58.71 Y-107.87
G1 X59.01 Y-107.67
G1 X59.29 Y-107.44
G1 X59.57 Y-107.20
G1 X59.84 Y-106.91
G1 X60.11 Y-106.62
G1 X60.28 Y-106.41
G1 X60.45 Y-106.19
G1 X60.69 Y-105.83
G1 X60.93 Y-105.46
G1 X61.15 Y-105.06
G1 X61.37 Y-104.66
G1 X61.56 Y-104.23
G1 X61.76 Y-103.80
G1 X62.04 Y-103.02
G1 X62.32 Y-102.24
G1 X62.45 Y-101.76
G1 X62.59 Y-101.28
G1 X62.69 Y-100.79
G1 X62.80 Y-100.29
G1 X62.91 Y-99.47
G1 X63.03 Y-98.64
G1 X63.07 Y-97.65
G1 X63.12 Y-96.65
G1 X63.10 Y-95.66
G1 X63.09 Y-94.66
G1 X63.00 Y-93.03
G1 X62.90 Y-91.40
G1 X63.09 Y-91.24
G1 X63.28 Y-91.09
G1 X65.32 Y-91.59 F88.13
G1 X67.37 Y-92.10
G1 X67.37 Y-92.10
G4 S1.
M9
G4 S1.
M5
G4 S1.
G0 X66.33 Y-57.63
M3
M8
G4 S3.33
G1 X66.33 Y-62.63
G1 X66.33 Y-67.63 F176.25
G1 X66.33 Y-71.72
G1 X66.33 Y-76.72
G1 X66.33 Y-81.72 F149.81
G1 X66.33 Y-85.81 F123.37
G1 X66.20 Y-85.95
G1 X66.06 Y-86.09
G1 X65.46 Y-86.10 F149.81
G1 X64.87 Y-86.12 F141.00
G1 X63.87 Y-86.21 F132.19
G1 X62.88 Y-86.31 F123.37
G1 X62.40 Y-86.40
G1 X61.92 Y-86.48
G1 X60.95 Y-86.73
G1 X59.99 Y-86.98
G1 X59.06 Y-87.32
G1 X58.13 Y-87.66
G1 X57.23 Y-88.09
G1 X56.34 Y-88.52
G1 X55.49 Y-89.04
G1 X54.64 Y-89.56
G1 X53.86 Y-90.16
G1 X53.07 Y-90.76
G1 X52.55 Y-91.23
G1 X52.02 Y-91.70
G1 X51.83 Y-91.69
G1 X51.64 Y-91.69
G1 X48.10 Y-88.15 F141.00
G1 X44.57 Y-84.62 F158.63
G1 X41.03 Y-81.08 F176.25
G1 X40.64 Y-80.69 F167.44
G1 X37.10 Y-77.15 F176.25
G1 X33.57 Y-73.61 F149.81
G1 X30.03 Y-70.08 F123.37
G1 X29.63 Y-69.68
G1 X29.66 Y-69.45
G1 X29.69 Y-69.22
G1 X30.88 Y-68.50 F149.81
G1 X32.07 Y-67.77 F176.25
G1 X32.93 Y-67.28 F167.44
G1 X33.79 Y-66.79 F158.63
G1 X35.55 Y-65.87 F176.25
G1 X37.31 Y-64.96
G1 X39.11 Y-64.13
G1 X40.91 Y-63.31
G1 X42.74 Y-62.59
G1 X44.58 Y-61.86
G1 X46.46 Y-61.23
G1 X48.33 Y-60.60
G1 X50.24 Y-60.06
G1 X52.16 Y-59.52
G1 X54.08 Y-59.09
G1 X56.01 Y-58.66
G1 X56.98 Y-58.48 F167.44
G1 X57.96 Y-58.30 F158.63
G1 X58.94 Y-58.14 F149.81
G1 X59.92 Y-57.98 F141.00
G1 X61.88 Y-57.75 F158.63
G1 X63.84 Y-57.52 F149.81
G1 X64.93 Y-57.43 F123.37
G1 X66.02 Y-57.34
G1 X66.18 Y-57.49 F88.13
G1 X66.33 Y-57.63
G1 X66.33 Y-57.63
G4 S1.
M9
G4 S1.
M5
G4 S1.
M1413 00:04:12
M1404
