;-------------------------------Cut file parameters------------------------
; Input file name : Part Studio 1 - background_blue_1 (1).dxf
; File rotation : 0 File scale : 1
; Machine : Desktop
; Material name : Glass - Soda Lime
; Material thickness : 0.125 in
; Cut path  : Outside
; Cut quality : mediumRate
; Raw Material width : 75.2mm
; Raw Material height : 116.6mm
;-------------------------------Do Not modify the Gcode file---------------
G90
G21
M1403
M1405 X4.10 Y-2.17
M1406 X79.32 Y-118.76
M1407 S3.33
M1410 2.2.0; Generated on Wam
M1411 Glass - Soda Lime
M1412 0.125 in
G0 X63.22 Y-4.06
M3
M8
G4 S3.33
G1 X64.03 Y-4.66 F176.25
G1 X64.83 Y-5.26 F158.63
G1 X65.70 Y-5.77 F149.81
G1 X66.56 Y-6.28 F141.00
G1 X67.47 Y-6.70 F132.19
G1 X68.38 Y-7.13 F123.37
G1 X69.33 Y-7.46
G1 X70.28 Y-7.79
G1 X71.26 Y-8.02
G1 X72.23 Y-8.26
G1 X73.23 Y-8.39
G1 X74.22 Y-8.53
G1 X75.13 Y-8.57
G1 X76.04 Y-8.60
G1 X76.10 Y-8.67
G1 X76.16 Y-8.74
G1 X76.16 Y-13.74 F141.00
G1 X76.16 Y-18.74 F158.63
G1 X76.16 Y-23.74 F176.25
G1 X76.16 Y-28.74
G1 X76.16 Y-29.63 F167.44
G1 X76.16 Y-34.63 F176.25
G1 X76.16 Y-39.63
G1 X76.16 Y-44.63 F149.81
G1 X76.16 Y-49.63 F123.37
G1 X76.16 Y-50.53
G1 X76.08 Y-50.60
G1 X75.99 Y-50.67
G1 X73.56 Y-50.11 F149.81
G1 X71.13 Y-49.55 F176.25
G1 X70.46 Y-49.43 F167.44
G1 X69.79 Y-49.31 F158.63
G1 X68.43 Y-49.14 F176.25
G1 X67.06 Y-48.98
G1 X66.38 Y-48.93 F167.44
G1 X65.70 Y-48.89 F158.63
G1 X64.33 Y-48.87 F176.25
G1 X62.95 Y-48.86
G1 X61.59 Y-48.94
G1 X60.22 Y-49.03
G1 X58.86 Y-49.22
G1 X57.50 Y-49.41
G1 X56.16 Y-49.69
G1 X54.82 Y-49.98
G1 X53.50 Y-50.36
G1 X52.19 Y-50.75
G1 X50.90 Y-51.23
G1 X49.62 Y-51.71
G1 X48.99 Y-51.98 F167.44
G1 X48.36 Y-52.26 F158.63
G1 X47.14 Y-52.88 F176.25
G1 X45.92 Y-53.50
G1 X44.74 Y-54.20
G1 X43.57 Y-54.91 F149.81
G1 X42.62 Y-55.57 F123.37
G1 X41.68 Y-56.23
G1 X41.62 Y-56.23
G1 X41.55 Y-56.24
G1 X40.38 Y-55.69 F149.81
G1 X39.20 Y-55.14 F176.25
G1 X38.04 Y-54.73 F167.44
G1 X36.89 Y-54.32 F158.63
G1 X35.72 Y-54.14 F149.81
G1 X34.56 Y-53.96 F141.00
G1 X33.39 Y-54.14 F132.19
G1 X32.22 Y-54.32 F123.37
G1 X31.09 Y-54.92 F141.00
G1 X29.96 Y-55.53 F158.63
G1 X28.90 Y-56.49 F176.25
G1 X27.85 Y-57.45
G1 X26.90 Y-58.68
G1 X25.95 Y-59.91
G1 X24.81 Y-62.09
G1 X23.66 Y-64.26
G1 X22.97 Y-66.58
G1 X22.27 Y-68.89
G1 X22.02 Y-70.88
G1 X21.78 Y-72.87
G1 X21.80 Y-74.72
G1 X21.83 Y-76.56
G1 X22.03 Y-77.94
G1 X22.22 Y-79.31
G1 X22.54 Y-80.46 F167.44
G1 X22.86 Y-81.60 F158.63
G1 X23.37 Y-82.49 F149.81
G1 X23.87 Y-83.38 F141.00
G1 X24.29 Y-83.75 F132.19
G1 X24.70 Y-84.13 F123.37
G1 X25.22 Y-84.37
G1 X25.73 Y-84.62
G1 X26.31 Y-84.73
G1 X26.89 Y-84.84
G1 X27.48 Y-84.82
G1 X28.08 Y-84.80
G1 X28.83 Y-84.55
G1 X29.58 Y-84.31
G1 X30.19 Y-83.83
G1 X30.79 Y-83.34 F114.56
G1 X31.28 Y-82.61 F79.31
G1 X31.76 Y-81.88
G1 X31.93 Y-81.93
G1 X32.09 Y-81.98
G1 X32.02 Y-85.29 F114.56
G1 X31.95 Y-88.59 F149.81
G1 X31.92 Y-91.69 F176.25
G1 X31.89 Y-94.79
G1 X31.93 Y-97.68
G1 X31.98 Y-100.58
G1 X32.13 Y-103.18
G1 X32.27 Y-105.79
G1 X32.45 Y-107.33
G1 X32.62 Y-108.87
G1 X32.86 Y-110.22
G1 X33.10 Y-111.57
G1 X33.42 Y-112.71 F167.44
G1 X33.74 Y-113.84 F158.63
G1 X34.15 Y-114.75 F149.81
G1 X34.56 Y-115.65 F141.00
G1 X35.07 Y-116.32 F132.19
G1 X35.58 Y-116.98 F114.56
G1 X36.25 Y-117.47 F79.31
G1 X36.92 Y-117.96
G1 X36.87 Y-118.12
G1 X36.82 Y-118.28
G1 X31.82 Y-118.28 F114.56
G1 X26.82 Y-118.28 F149.81
G1 X21.82 Y-118.28 F176.25
G1 X20.77 Y-118.28 F167.44
G1 X15.77 Y-118.28 F176.25
G1 X10.77 Y-118.28 F149.81
G1 X5.77 Y-118.28 F123.37
G1 X4.72 Y-118.28
G1 X4.65 Y-118.21
G1 X4.58 Y-118.15
G1 X4.58 Y-113.15 F149.81
G1 X4.58 Y-108.15 F176.25
G1 X4.58 Y-103.15
G1 X4.58 Y-98.15
G1 X4.58 Y-93.15
G1 X4.58 Y-88.87
G1 X4.58 Y-83.87
G1 X4.58 Y-78.87
G1 X4.58 Y-73.87
G1 X4.58 Y-68.87
G1 X4.58 Y-63.87 F149.81
G1 X4.58 Y-59.58 F123.37
G1 X4.60 Y-59.54
G1 X4.62 Y-59.50
G1 X8.16 Y-55.96 F149.81
G1 X11.69 Y-52.43 F176.25
G1 X15.23 Y-48.89
G1 X18.76 Y-45.36
G1 X22.30 Y-41.82
G1 X25.83 Y-38.29
G1 X29.37 Y-34.75
G1 X32.90 Y-31.22
G1 X33.04 Y-31.08 F167.44
G1 X36.58 Y-27.54 F176.25
G1 X40.12 Y-24.00
G1 X43.65 Y-20.47
G1 X47.19 Y-16.93
G1 X50.72 Y-13.40
G1 X54.26 Y-9.86
G1 X57.79 Y-6.33 F149.81
G1 X61.33 Y-2.79 F123.37
G1 X61.47 Y-2.65
G1 X61.56 Y-2.65
G1 X61.65 Y-2.65
G1 X62.44 Y-3.35 F88.13
G1 X63.22 Y-4.06
G1 X63.22 Y-4.06
G4 S1.
M9
G4 S1.
M5
G4 S1.
G0 X67.37 Y-92.10
M3
M8
G4 S3.33
G1 X69.31 Y-92.48
G1 X71.25 Y-92.85 F176.25
G1 X73.21 Y-93.13
G1 X75.17 Y-93.40 F149.81
G1 X76.88 Y-93.57 F123.37
G1 X78.59 Y-93.73
G1 X78.71 Y-93.86
G1 X78.84 Y-94.00
G1 X78.84 Y-99.00 F149.81
G1 X78.84 Y-104.00 F176.25
G1 X78.84 Y-104.15 F167.44
G1 X78.84 Y-109.15 F149.81
G1 X78.84 Y-114.15 F123.37
G1 X78.84 Y-114.31
G1 X78.70 Y-114.45
G1 X78.56 Y-114.59
G1 X73.56 Y-114.59 F149.81
G1 X68.56 Y-114.59 F176.25
G1 X63.56 Y-114.59
G1 X61.15 Y-114.59
G1 X56.15 Y-114.59 F149.81
G1 X51.15 Y-114.59 F114.56
G1 X46.15 Y-114.59 F79.31
G1 X43.74 Y-114.59
G1 X43.65 Y-114.22
G1 X43.57 Y-113.85
G1 X44.20 Y-113.53 F114.56
G1 X44.84 Y-113.22 F141.00
G1 X45.27 Y-112.93 F132.19
G1 X45.70 Y-112.64 F123.37
G1 X46.08 Y-112.30
G1 X46.47 Y-111.95
G1 X46.80 Y-111.55
G1 X47.14 Y-111.16
G1 X47.42 Y-110.71
G1 X47.70 Y-110.26
G1 X47.93 Y-109.77
G1 X48.16 Y-109.28
G1 X48.36 Y-108.70
G1 X48.57 Y-108.12 F114.56
G1 X48.80 Y-107.24 F79.31
G1 X49.03 Y-106.37
G1 X49.31 Y-106.30
G1 X49.60 Y-106.23
G1 X50.01 Y-106.72 F114.56
G1 X50.42 Y-107.20 F123.37
G1 X50.67 Y-107.45
G1 X50.92 Y-107.70
G1 X51.17 Y-107.92
G1 X51.43 Y-108.14
G1 X51.71 Y-108.33
G1 X51.99 Y-108.51
G1 X52.18 Y-108.60
G1 X52.36 Y-108.70
G1 X52.67 Y-108.80
G1 X52.98 Y-108.91
G1 X53.30 Y-108.97
G1 X53.62 Y-109.03
G1 X53.95 Y-109.05
G1 X54.27 Y-109.07
G1 X54.72 Y-109.04
G1 X55.17 Y-109.02
G1 X55.62 Y-108.95
G1 X56.07 Y-108.88
G1 X56.50 Y-108.78
G1 X56.94 Y-108.67
G1 X57.37 Y-108.52
G1 X57.80 Y-108.36
G1 X58.11 Y-108.21
G1 X58.41 Y-108.06
G1 X58.71 Y-107.87
G1 X59.01 Y-107.67
G1 X59.29 Y-107.44
G1 X59.57 Y-107.20
G1 X59.84 Y-106.91
G1 X60.11 Y-106.62
G1 X60.28 Y-106.41
G1 X60.45 Y-106.19
G1 X60.69 Y-105.83
G1 X60.93 Y-105.46
G1 X61.15 Y-105.06
G1 X61.37 Y-104.66
G1 X61.56 Y-104.23
G1 X61.76 Y-103.80
G1 X62.04 Y-103.02
G1 X62.32 Y-102.24
G1 X62.45 Y-101.76
G1 X62.59 Y-101.28
G1 X62.69 Y-100.79
G1 X62.80 Y-100.29
G1 X62.91 Y-99.47
G1 X63.03 Y-98.64
G1 X63.07 Y-97.65
G1 X63.12 Y-96.65
G1 X63.10 Y-95.66
G1 X63.09 Y-94.66
G1 X63.00 Y-93.03
G1 X62.90 Y-91.40
G1 X63.09 Y-91.24
G1 X63.28 Y-91.09
G1 X65.32 Y-91.59 F88.13
G1 X67.37 Y-92.10
G1 X67.37 Y-92.10
G4 S1.
M9
G4 S1.
M5
G4 S1.
G0 X66.33 Y-57.63
M3
M8
G4 S3.33
G1 X66.33 Y-62.63
G1 X66.33 Y-67.63 F176.25
G1 X66.33 Y-71.72
G1 X66.33 Y-76.72
G1 X66.33 Y-81.72 F149.81
G1 X66.33 Y-85.81 F123.37
G1 X66.20 Y-85.95
G1 X66.06 Y-86.09
G1 X65.46 Y-86.10 F149.81
G1 X64.87 Y-86.12 F141.00
G1 X63.87 Y-86.21 F132.19
G1 X62.88 Y-86.31 F123.37
G1 X62.40 Y-86.40
G1 X61.92 Y-86.48
G1 X60.95 Y-86.73
G1 X59.99 Y-86.98
G1 X59.06 Y-87.32
G1 X58.13 Y-87.66
G1 X57.23 Y-88.09
G1 X56.34 Y-88.52
G1 X55.49 Y-89.04
G1 X54.64 Y-89.56
G1 X53.86 Y-90.16
G1 X53.07 Y-90.76
G1 X52.55 Y-91.23
G1 X52.02 Y-91.70
G1 X51.83 Y-91.69
G1 X51.64 Y-91.69
G1 X48.10 Y-88.15 F141.00
G1 X44.57 Y-84.62 F158.63
G1 X41.03 Y-81.08 F176.25
G1 X40.64 Y-80.69 F167.44
G1 X37.10 Y-77.15 F176.25
G1 X33.57 Y-73.61 F149.81
G1 X30.03 Y-70.08 F123.37
G1 X29.63 Y-69.68
G1 X29.66 Y-69.45
G1 X29.69 Y-69.22
G1 X30.88 Y-68.50 F149.81
G1 X32.07 Y-67.77 F176.25
G1 X32.93 Y-67.28 F167.44
G1 X33.79 Y-66.79 F158.63
G1 X35.55 Y-65.87 F176.25
G1 X37.31 Y-64.96
G1 X39.11 Y-64.13
G1 X40.91 Y-63.31
G1 X42.74 Y-62.59
G1 X44.58 Y-61.86
G1 X46.46 Y-61.23
G1 X48.33 Y-60.60
G1 X50.24 Y-60.06
G1 X52.16 Y-59.52
G1 X54.08 Y-59.09
G1 X56.01 Y-58.66
G1 X56.98 Y-58.48 F167.44
G1 X57.96 Y-58.30 F158.63
G1 X58.94 Y-58.14 F149.81
G1 X59.92 Y-57.98 F141.00
G1 X61.88 Y-57.75 F158.63
G1 X63.84 Y-57.52 F149.81
G1 X64.93 Y-57.43 F123.37
G1 X66.02 Y-57.34
G1 X66.18 Y-57.49 F88.13
G1 X66.33 Y-57.63
G1 X66.33 Y-57.63
G4 S1.
M9
G4 S1.
M5
G4 S1.
M1413 00:04:11
M1404
