;-------------------------------Cut file parameters------------------------
; Input file name : Part Studio 1 - background_red_1.dxf
; File rotation : 90 File scale : 1
; Machine : Desktop
; Material name : Glass - Soda Lime
; Material thickness : 0.125 in
; Cut path  : Outside
; Cut quality : mediumRate
; Raw Material width : 107.1mm
; Raw Material height : 100.5mm
;-------------------------------Do Not modify the Gcode file---------------
G90
G21
M1403
M1405 X3.97 Y-1.97
M1406 X111.06 Y-102.44
M1407 S3.33
M1410 2.2.0; Generated on Wam
M1411 Glass - Soda Lime
M1412 0.125 in
G0 X108.93 Y-68.95
M3
M8
G4 S3.33
G1 X108.42 Y-69.80 F176.25
G1 X107.91 Y-70.66 F158.63
G1 X106.84 Y-72.32 F176.25
G1 X105.76 Y-73.98
G1 X104.60 Y-75.58
G1 X103.44 Y-77.18
G1 X102.20 Y-78.72
G1 X100.96 Y-80.26
G1 X99.63 Y-81.73
G1 X98.31 Y-83.21
G1 X96.92 Y-84.61
G1 X95.52 Y-86.01
G1 X94.05 Y-87.35
G1 X92.58 Y-88.68
G1 X91.05 Y-89.94
G1 X89.52 Y-91.19
G1 X87.92 Y-92.36
G1 X86.32 Y-93.53
G1 X84.67 Y-94.62
G1 X83.02 Y-95.71
G1 X81.31 Y-96.71
G1 X79.61 Y-97.71
G1 X77.86 Y-98.62
G1 X76.10 Y-99.53
G1 X74.29 Y-100.35
G1 X72.49 Y-101.17 F149.81
G1 X71.46 Y-101.60 F123.37
G1 X70.43 Y-102.02
G1 X70.21 Y-101.87
G1 X70.00 Y-101.73
G1 X70.00 Y-96.73 F149.81
G1 X70.00 Y-91.73 F176.25
G1 X70.00 Y-86.73
G1 X70.00 Y-81.73
G1 X70.00 Y-76.73
G1 X70.00 Y-73.68
G1 X70.00 Y-68.68
G1 X70.00 Y-63.68
G1 X70.00 Y-58.68
G1 X70.00 Y-53.68
G1 X70.00 Y-48.68 F149.81
G1 X70.00 Y-45.63 F123.37
G1 X70.13 Y-45.49
G1 X70.26 Y-45.35
G1 X71.36 Y-45.30 F149.81
G1 X72.46 Y-45.24 F141.00
G1 X73.44 Y-45.10 F132.19
G1 X74.42 Y-44.95 F123.37
G1 X75.38 Y-44.70
G1 X76.34 Y-44.46
G1 X77.28 Y-44.12
G1 X78.21 Y-43.78
G1 X79.10 Y-43.34
G1 X79.99 Y-42.91
G1 X80.84 Y-42.40
G1 X81.68 Y-41.88
G1 X82.47 Y-41.28
G1 X83.27 Y-40.67
G1 X83.79 Y-40.20
G1 X84.31 Y-39.74
G1 X84.50 Y-39.74
G1 X84.69 Y-39.75
G1 X88.23 Y-43.28 F141.00
G1 X91.77 Y-46.82 F158.63
G1 X95.30 Y-50.35 F176.25
G1 X97.62 Y-52.67
G1 X101.16 Y-56.21
G1 X104.69 Y-59.75
G1 X108.23 Y-63.28 F149.81
G1 X110.55 Y-65.60 F123.37
G1 X110.57 Y-65.76
G1 X110.60 Y-65.92
G1 X109.76 Y-67.43 F88.13
G1 X108.93 Y-68.95
G1 X108.93 Y-68.95
G4 S1.
M9
G4 S1.
M5
G4 S1.
G0 X82.24 Y-3.31
M3
M8
G4 S3.33
G1 X82.67 Y-8.29
G1 X83.11 Y-13.27 F176.25
G1 X83.55 Y-18.25
G1 X83.60 Y-18.83 F167.44
G1 X84.03 Y-23.81 F176.25
G1 X84.47 Y-28.79 F149.81
G1 X84.90 Y-33.77 F123.37
G1 X84.95 Y-34.35
G1 X84.83 Y-34.51
G1 X84.71 Y-34.66
G1 X84.11 Y-34.72 F149.81
G1 X83.52 Y-34.79 F141.00
G1 X83.03 Y-34.87 F132.19
G1 X82.54 Y-34.95 F123.37
G1 X81.58 Y-35.18
G1 X80.61 Y-35.42
G1 X79.67 Y-35.75
G1 X78.74 Y-36.07
G1 X77.84 Y-36.49
G1 X76.94 Y-36.91
G1 X76.09 Y-37.42
G1 X75.24 Y-37.93
G1 X74.44 Y-38.52
G1 X73.64 Y-39.11
G1 X72.91 Y-39.78
G1 X72.17 Y-40.45
G1 X71.69 Y-40.96
G1 X71.21 Y-41.47
G1 X71.02 Y-41.48
G1 X70.83 Y-41.49
G1 X67.00 Y-38.28 F141.00
G1 X63.17 Y-35.07 F158.63
G1 X59.34 Y-31.85 F176.25
G1 X55.51 Y-28.64
G1 X53.30 Y-26.79
G1 X49.47 Y-23.58
G1 X45.64 Y-20.36
G1 X41.81 Y-17.15
G1 X37.98 Y-13.94 F149.81
G1 X35.78 Y-12.09 F123.37
G1 X35.81 Y-11.83
G1 X35.84 Y-11.57
G1 X37.61 Y-10.68 F149.81
G1 X39.39 Y-9.79 F176.25
G1 X40.29 Y-9.38 F167.44
G1 X41.19 Y-8.97 F158.63
G1 X43.02 Y-8.21 F176.25
G1 X44.85 Y-7.46
G1 X45.78 Y-7.12 F167.44
G1 X46.71 Y-6.78 F158.63
G1 X47.65 Y-6.46 F149.81
G1 X48.60 Y-6.14 F141.00
G1 X50.50 Y-5.58 F158.63
G1 X52.39 Y-5.03 F176.25
G1 X54.32 Y-4.56
G1 X56.24 Y-4.10
G1 X58.19 Y-3.74
G1 X60.13 Y-3.38
G1 X62.09 Y-3.12
G1 X64.05 Y-2.86
G1 X65.04 Y-2.77 F167.44
G1 X66.04 Y-2.68 F158.63
G1 X68.01 Y-2.57 F176.25
G1 X69.98 Y-2.46
G1 X71.96 Y-2.46
G1 X73.94 Y-2.45
G1 X75.91 Y-2.55
G1 X77.89 Y-2.65 F149.81
G1 X79.94 Y-2.85 F123.37
G1 X82.00 Y-3.06
G1 X82.12 Y-3.18 F88.13
G1 X82.24 Y-3.31
G1 X82.24 Y-3.31
G4 S1.
M9
G4 S1.
M5
G4 S1.
G0 X18.91 Y-4.48
M3
M8
G4 S3.33
G1 X22.44 Y-8.01
G1 X24.10 Y-9.67 F149.81
G1 X27.63 Y-13.20 F123.37
G1 X29.29 Y-14.86
G1 X29.32 Y-14.97
G1 X29.35 Y-15.09
G1 X29.01 Y-16.65 F149.81
G1 X28.67 Y-18.21 F176.25
G1 X28.39 Y-23.20
G1 X28.11 Y-28.20
G1 X28.03 Y-29.56
G1 X27.76 Y-34.55
G1 X27.48 Y-39.54
G1 X27.40 Y-40.90
G1 X27.39 Y-42.15 F167.44
G1 X27.38 Y-43.40 F158.63
G1 X27.32 Y-44.37 F149.81
G1 X27.26 Y-45.33 F141.00
G1 X27.13 Y-46.28 F132.19
G1 X27.01 Y-47.22 F123.37
G1 X26.81 Y-48.10
G1 X26.62 Y-48.97
G1 X26.46 Y-49.43
G1 X26.30 Y-49.89
G1 X26.15 Y-50.16
G1 X26.01 Y-50.44
G1 X25.88 Y-50.62
G1 X25.76 Y-50.80
G1 X25.53 Y-51.04
G1 X25.30 Y-51.29
G1 X25.10 Y-51.46
G1 X24.89 Y-51.64
G1 X24.45 Y-51.91
G1 X24.01 Y-52.19
G1 X23.59 Y-52.39
G1 X23.17 Y-52.59
G1 X22.56 Y-52.82
G1 X21.96 Y-53.06
G1 X20.83 Y-53.39
G1 X19.70 Y-53.72
G1 X19.05 Y-53.87
G1 X18.40 Y-54.02
G1 X17.65 Y-54.16
G1 X16.91 Y-54.29
G1 X16.28 Y-54.38
G1 X15.65 Y-54.46
G1 X15.12 Y-54.49
G1 X14.59 Y-54.52
G1 X13.79 Y-54.51
G1 X13.00 Y-54.50
G1 X8.96 Y-53.60 F141.00
G1 X4.92 Y-52.69 F123.37
G1 X4.82 Y-52.56
G1 X4.71 Y-52.42
G1 X4.71 Y-47.42 F149.81
G1 X4.71 Y-42.42 F176.25
G1 X4.71 Y-37.42
G1 X4.71 Y-32.42
G1 X4.71 Y-31.39 F167.44
G1 X4.71 Y-26.39 F176.25
G1 X4.71 Y-21.39
G1 X4.71 Y-16.39 F149.81
G1 X4.71 Y-11.39 F123.37
G1 X4.71 Y-10.36
G1 X4.84 Y-10.22
G1 X4.97 Y-10.08
G1 X6.07 Y-10.00 F149.81
G1 X7.16 Y-9.92 F141.00
G1 X7.65 Y-9.85 F132.19
G1 X8.13 Y-9.77 F123.37
G1 X9.10 Y-9.55
G1 X10.08 Y-9.33
G1 X10.55 Y-9.18
G1 X11.01 Y-9.04
G1 X11.94 Y-8.67
G1 X12.87 Y-8.31
G1 X13.31 Y-8.10
G1 X13.75 Y-7.88
G1 X14.61 Y-7.39
G1 X15.48 Y-6.89
G1 X16.28 Y-6.31
G1 X17.09 Y-5.73
G1 X17.81 Y-5.10
G1 X18.53 Y-4.47
G1 X18.72 Y-4.47 F88.13
G1 X18.91 Y-4.48
G1 X18.91 Y-4.48
G4 S1.
M9
G4 S1.
M5
G4 S1.
G0 X36.14 Y-18.46
M3
M8
G4 S3.33
G1 X39.68 Y-21.99
G1 X43.21 Y-25.53 F176.25
G1 X46.75 Y-29.06
G1 X50.28 Y-32.60
G1 X51.06 Y-33.38 F167.44
G1 X54.60 Y-36.92 F176.25
G1 X58.13 Y-40.45
G1 X61.67 Y-43.99 F149.81
G1 X65.21 Y-47.52 F123.37
G1 X65.99 Y-48.30
G1 X66.02 Y-48.39
G1 X66.06 Y-48.48
G1 X66.06 Y-53.48 F149.81
G1 X66.06 Y-58.48 F176.25
G1 X66.06 Y-63.48
G1 X66.06 Y-68.48
G1 X66.06 Y-72.40
G1 X66.06 Y-77.40
G1 X66.06 Y-82.40
G1 X66.06 Y-87.40
G1 X66.06 Y-92.40 F149.81
G1 X66.06 Y-96.33 F123.37
G1 X65.92 Y-96.47
G1 X65.78 Y-96.61
G1 X60.78 Y-96.61 F149.81
G1 X55.78 Y-96.61 F176.25
G1 X50.78 Y-96.61
G1 X45.78 Y-96.61
G1 X41.85 Y-96.61
G1 X36.85 Y-96.61
G1 X31.85 Y-96.61
G1 X26.85 Y-96.61 F149.81
G1 X21.85 Y-96.61 F114.56
G1 X17.92 Y-96.61 F79.31
G1 X17.84 Y-96.23
G1 X17.76 Y-95.85
G1 X18.48 Y-95.53 F114.56
G1 X19.20 Y-95.20 F141.00
G1 X19.63 Y-94.91 F132.19
G1 X20.06 Y-94.63 F123.37
G1 X20.39 Y-94.31
G1 X20.72 Y-93.99
G1 X20.84 Y-93.82
G1 X20.96 Y-93.65
G1 X21.08 Y-93.44
G1 X21.20 Y-93.23
G1 X21.35 Y-92.85
G1 X21.50 Y-92.46
G1 X21.60 Y-92.04
G1 X21.71 Y-91.61
G1 X21.78 Y-91.02
G1 X21.86 Y-90.44
G1 X21.91 Y-89.72
G1 X21.96 Y-89.00 F114.56
G1 X21.97 Y-88.25 F79.31
G1 X21.99 Y-87.49
G1 X22.27 Y-87.37
G1 X22.55 Y-87.25
G1 X22.95 Y-87.60 F114.56
G1 X23.34 Y-87.94 F123.37
G1 X23.62 Y-88.13
G1 X23.90 Y-88.33
G1 X24.12 Y-88.43
G1 X24.34 Y-88.54
G1 X24.58 Y-88.61
G1 X24.81 Y-88.68
G1 X25.05 Y-88.71
G1 X25.29 Y-88.75
G1 X25.54 Y-88.75
G1 X25.78 Y-88.75
G1 X26.02 Y-88.71
G1 X26.26 Y-88.68
G1 X26.59 Y-88.58
G1 X26.91 Y-88.48
G1 X27.13 Y-88.37
G1 X27.35 Y-88.27
G1 X27.63 Y-88.08
G1 X27.92 Y-87.90
G1 X28.16 Y-87.67
G1 X28.41 Y-87.45
G1 X28.62 Y-87.19
G1 X28.83 Y-86.94
G1 X28.95 Y-86.73
G1 X29.08 Y-86.52
G1 X29.21 Y-86.20
G1 X29.35 Y-85.88
G1 X29.44 Y-85.60
G1 X29.52 Y-85.33
G1 X29.61 Y-84.90
G1 X29.71 Y-84.47
G1 X29.89 Y-83.17 F141.00
G1 X30.08 Y-81.87 F158.63
G1 X30.25 Y-80.14 F176.25
G1 X30.42 Y-78.42
G1 X30.62 Y-75.93
G1 X30.81 Y-73.43
G1 X31.06 Y-69.74 F149.81
G1 X31.30 Y-66.05 F123.37
G1 X31.48 Y-65.71 F149.81
G1 X31.65 Y-65.37 F158.63
G1 X31.76 Y-65.11 F149.81
G1 X31.86 Y-64.85 F141.00
G1 X31.93 Y-64.59 F132.19
G1 X32.00 Y-64.33 F123.37
G1 X32.03 Y-64.07
G1 X32.06 Y-63.82
G1 X32.14 Y-58.82 F141.00
G1 X32.22 Y-53.82 F158.63
G1 X32.30 Y-48.82 F176.25
G1 X32.38 Y-43.82
G1 X32.42 Y-41.28
G1 X32.49 Y-36.28
G1 X32.57 Y-31.28
G1 X32.65 Y-26.29 F149.81
G1 X32.73 Y-21.29 F123.37
G1 X32.77 Y-18.75
G1 X32.90 Y-18.61
G1 X33.04 Y-18.48
G1 X34.50 Y-18.43
G1 X35.95 Y-18.38
G1 X36.05 Y-18.42 F88.13
G1 X36.14 Y-18.46
G1 X36.14 Y-18.46
G4 S1.
M9
G4 S1.
M5
G4 S1.
G0 X27.13 Y-80.00
M3
M8
G4 S3.33
G1 X23.76 Y-80.00
G1 X20.38 Y-79.99 F176.25
G1 X18.20 Y-80.03
G1 X16.02 Y-80.07
G1 X14.47 Y-80.16
G1 X12.93 Y-80.24
G1 X11.80 Y-80.39 F167.44
G1 X10.68 Y-80.54 F158.63
G1 X10.11 Y-80.66 F149.81
G1 X9.53 Y-80.78 F141.00
G1 X9.10 Y-80.91 F132.19
G1 X8.67 Y-81.03 F123.37
G1 X8.27 Y-81.19
G1 X7.88 Y-81.34
G1 X7.52 Y-81.52
G1 X7.17 Y-81.70
G1 X6.85 Y-81.92
G1 X6.54 Y-82.13
G1 X6.35 Y-82.31
G1 X6.15 Y-82.49
G1 X5.93 Y-82.77
G1 X5.71 Y-83.04 F114.56
G1 X5.44 Y-83.52 F79.31
G1 X5.17 Y-83.99
G1 X4.81 Y-83.90
G1 X4.45 Y-83.80
G1 X4.45 Y-78.80 F114.56
G1 X4.45 Y-73.80 F149.81
G1 X4.45 Y-69.67 F176.25
G1 X4.45 Y-64.67
G1 X4.45 Y-59.67 F149.81
G1 X4.45 Y-55.54 F123.37
G1 X4.59 Y-55.40
G1 X4.73 Y-55.26
G1 X9.73 Y-55.26 F149.81
G1 X14.73 Y-55.26 F176.25
G1 X14.88 Y-55.26 F167.44
G1 X19.88 Y-55.26 F149.81
G1 X24.88 Y-55.26 F123.37
G1 X25.03 Y-55.26
G1 X25.17 Y-55.40
G1 X25.31 Y-55.55
G1 X25.22 Y-57.64 F149.81
G1 X25.14 Y-59.73 F176.25
G1 X25.14 Y-60.71 F167.44
G1 X25.13 Y-61.70 F158.63
G1 X25.20 Y-63.68 F176.25
G1 X25.27 Y-65.66
G1 X25.35 Y-66.64 F167.44
G1 X25.42 Y-67.62 F158.63
G1 X25.64 Y-69.59 F176.25
G1 X25.86 Y-71.56
G1 X26.01 Y-72.54 F167.44
G1 X26.16 Y-73.51 F158.63
G1 X26.53 Y-75.46 F176.25
G1 X26.90 Y-77.40 F149.81
G1 X27.16 Y-78.52 F123.37
G1 X27.42 Y-79.64
G1 X27.28 Y-79.82 F88.13
G1 X27.13 Y-80.00
G1 X27.13 Y-80.00
G4 S1.
M9
G4 S1.
M5
G4 S1.
M1413 00:05:44
M1404
