;-------------------------------Cut file parameters------------------------
; Input file name : Part Studio 1 - background_green_1.dxf
; File rotation : 0 File scale : 1
; Machine : Desktop
; Material name : Glass - Soda Lime
; Material thickness : 0.125 in
; Cut path  : Outside
; Cut quality : mediumRate
; Raw Material width : 68.8mm
; Raw Material height : 82.9mm
;-------------------------------Do Not modify the Gcode file---------------
G90
G21
M1403
M1405 X0.48 Y-4.34
M1406 X69.32 Y-87.25
M1407 S3.33
M1410 2.2.0; Generated on Wam
M1411 Glass - Soda Lime
M1412 0.125 in
G0 X63.64 Y-5.00
M3
M8
G4 S3.33
G1 X64.10 Y-6.24 F176.25
G1 X64.56 Y-7.49
G1 X65.16 Y-9.37
G1 X65.76 Y-11.25
G1 X66.27 Y-13.17
G1 X66.78 Y-15.09
G1 X67.18 Y-17.03
G1 X67.59 Y-18.97
G1 X67.89 Y-20.92
G1 X68.20 Y-22.87
G1 X68.40 Y-24.84
G1 X68.61 Y-26.82
G1 X68.71 Y-28.79
G1 X68.81 Y-30.77
G1 X68.82 Y-35.77
G1 X68.82 Y-40.77
G1 X68.82 Y-45.77
G1 X68.82 Y-50.77
G1 X68.82 Y-55.77
G1 X68.83 Y-58.69
G1 X68.83 Y-63.69
G1 X68.83 Y-68.69
G1 X68.83 Y-73.69
G1 X68.83 Y-78.69 F149.81
G1 X68.84 Y-83.69 F114.56
G1 X68.84 Y-86.61 F79.31
G1 X68.54 Y-86.73
G1 X68.24 Y-86.86
G1 X64.72 Y-83.32 F114.56
G1 X61.19 Y-79.77 F149.81
G1 X57.66 Y-76.23 F176.25
G1 X54.13 Y-72.69
G1 X53.45 Y-72.01 F167.44
G1 X49.92 Y-68.47 F176.25
G1 X46.39 Y-64.93 F149.81
G1 X42.86 Y-61.38 F114.56
G1 X39.34 Y-57.84 F79.31
G1 X38.66 Y-57.16
G1 X38.76 Y-56.88
G1 X38.86 Y-56.60
G1 X39.73 Y-56.49 F114.56
G1 X40.61 Y-56.39 F141.00
G1 X41.13 Y-56.30 F132.19
G1 X41.65 Y-56.21 F123.37
G1 X42.78 Y-55.96
G1 X43.91 Y-55.70
G1 X45.08 Y-55.35
G1 X46.26 Y-55.00
G1 X46.83 Y-54.79
G1 X47.40 Y-54.59
G1 X47.95 Y-54.36
G1 X48.50 Y-54.13
G1 X49.01 Y-53.89
G1 X49.53 Y-53.64
G1 X49.99 Y-53.38
G1 X50.46 Y-53.12
G1 X51.05 Y-52.70
G1 X51.65 Y-52.28
G1 X52.13 Y-51.82
G1 X52.60 Y-51.36
G1 X52.98 Y-50.84
G1 X53.37 Y-50.33
G1 X53.58 Y-49.95
G1 X53.79 Y-49.58
G1 X53.97 Y-49.17
G1 X54.16 Y-48.77
G1 X54.40 Y-48.09
G1 X54.64 Y-47.41
G1 X54.77 Y-46.94
G1 X54.90 Y-46.46
G1 X55.00 Y-45.97
G1 X55.09 Y-45.47
G1 X55.15 Y-44.98
G1 X55.21 Y-44.48
G1 X55.22 Y-43.98
G1 X55.24 Y-43.49
G1 X55.21 Y-43.00
G1 X55.17 Y-42.51
G1 X55.14 Y-42.29
G1 X55.10 Y-42.06
G1 X54.99 Y-41.61
G1 X54.87 Y-41.15
G1 X54.71 Y-40.73
G1 X54.54 Y-40.30
G1 X54.33 Y-39.90
G1 X54.12 Y-39.50
G1 X53.88 Y-39.12
G1 X53.63 Y-38.74
G1 X53.36 Y-38.38
G1 X53.09 Y-38.02
G1 X52.48 Y-37.36
G1 X51.87 Y-36.70
G1 X51.20 Y-36.11
G1 X50.53 Y-35.51
G1 X50.17 Y-35.25
G1 X49.81 Y-34.99
G1 X49.43 Y-34.74
G1 X49.05 Y-34.50
G1 X48.65 Y-34.28
G1 X48.25 Y-34.05
G1 X47.82 Y-33.85
G1 X47.39 Y-33.65
G1 X46.94 Y-33.47
G1 X46.48 Y-33.29
G1 X46.01 Y-33.14
G1 X45.53 Y-32.98
G1 X45.04 Y-32.85
G1 X44.55 Y-32.72
G1 X43.81 Y-32.56
G1 X43.06 Y-32.40
G1 X42.57 Y-32.32
G1 X42.08 Y-32.24
G1 X41.36 Y-32.15
G1 X40.65 Y-32.07
G1 X39.55 Y-32.02
G1 X38.46 Y-31.97
G1 X36.95 Y-32.01
G1 X35.44 Y-32.05
G1 X35.29 Y-31.87
G1 X35.15 Y-31.69
G1 X35.34 Y-30.77 F132.19
G1 X35.53 Y-29.85 F123.37
G1 X35.58 Y-29.44
G1 X35.62 Y-29.03
G1 X35.62 Y-28.72
G1 X35.62 Y-28.41
G1 X35.56 Y-27.84
G1 X35.50 Y-27.28
G1 X35.41 Y-26.93
G1 X35.33 Y-26.57
G1 X35.21 Y-26.21
G1 X35.10 Y-25.85
G1 X34.95 Y-25.49
G1 X34.81 Y-25.14
G1 X34.64 Y-24.79
G1 X34.46 Y-24.45
G1 X34.27 Y-24.13
G1 X34.07 Y-23.81
G1 X33.86 Y-23.53
G1 X33.65 Y-23.24
G1 X33.42 Y-23.00
G1 X33.19 Y-22.76
G1 X33.04 Y-22.63
G1 X32.89 Y-22.50
G1 X32.65 Y-22.35
G1 X32.40 Y-22.19
G1 X32.16 Y-22.09
G1 X31.91 Y-21.99
G1 X31.65 Y-21.92
G1 X31.39 Y-21.86
G1 X31.12 Y-21.84
G1 X30.86 Y-21.81
G1 X30.59 Y-21.82
G1 X30.32 Y-21.82
G1 X29.95 Y-21.88
G1 X29.57 Y-21.93
G1 X29.21 Y-22.03
G1 X28.85 Y-22.12
G1 X28.59 Y-22.22
G1 X28.33 Y-22.32
G1 X28.00 Y-22.48
G1 X27.68 Y-22.65
G1 X27.45 Y-22.80
G1 X27.23 Y-22.95
G1 X27.02 Y-23.14
G1 X26.81 Y-23.32
G1 X26.63 Y-23.53
G1 X26.44 Y-23.73
G1 X26.17 Y-24.17
G1 X25.89 Y-24.61
G1 X25.62 Y-25.24
G1 X25.36 Y-25.87 F114.56
G1 X25.04 Y-26.93 F79.31
G1 X24.73 Y-28.00
G1 X24.33 Y-27.95
G1 X23.94 Y-27.91
G1 X23.84 Y-26.72 F114.56
G1 X23.75 Y-25.53 F123.37
G1 X23.68 Y-25.13
G1 X23.61 Y-24.74
G1 X23.52 Y-24.38
G1 X23.42 Y-24.02
G1 X23.29 Y-23.69
G1 X23.16 Y-23.36
G1 X23.04 Y-23.15
G1 X22.92 Y-22.94
G1 X22.72 Y-22.68
G1 X22.52 Y-22.43
G1 X22.34 Y-22.27
G1 X22.17 Y-22.11
G1 X21.97 Y-21.98
G1 X21.77 Y-21.85
G1 X21.46 Y-21.71
G1 X21.15 Y-21.57
G1 X20.81 Y-21.48
G1 X20.46 Y-21.39
G1 X20.09 Y-21.34
G1 X19.71 Y-21.30
G1 X19.32 Y-21.29
G1 X18.94 Y-21.29
G1 X18.54 Y-21.33
G1 X18.15 Y-21.37
G1 X17.76 Y-21.44
G1 X17.38 Y-21.52
G1 X17.00 Y-21.63
G1 X16.63 Y-21.75
G1 X16.19 Y-21.96
G1 X15.74 Y-22.17
G1 X15.41 Y-22.40
G1 X15.08 Y-22.63
G1 X14.71 Y-22.99
G1 X14.33 Y-23.34
G1 X14.06 Y-23.71
G1 X13.79 Y-24.07
G1 X13.55 Y-24.50
G1 X13.31 Y-24.92
G1 X13.05 Y-25.52
G1 X12.79 Y-26.13
G1 X12.56 Y-26.80
G1 X12.33 Y-27.47
G1 X12.05 Y-28.49
G1 X11.77 Y-29.50
G1 X11.51 Y-29.57
G1 X11.24 Y-29.65
G1 X7.71 Y-26.11 F141.00
G1 X6.10 Y-24.51 F149.81
G1 X2.57 Y-20.97 F123.37
G1 X0.97 Y-19.37
G1 X0.97 Y-19.18
G1 X0.96 Y-18.98
G1 X1.38 Y-18.55 F149.81
G1 X1.79 Y-18.11 F141.00
G1 X2.11 Y-17.74 F132.19
G1 X2.43 Y-17.37 F123.37
G1 X3.02 Y-16.57
G1 X3.61 Y-15.77
G1 X4.12 Y-14.91
G1 X4.63 Y-14.06
G1 X5.05 Y-13.16
G1 X5.47 Y-12.26
G1 X5.64 Y-11.80
G1 X5.81 Y-11.34
G1 X6.09 Y-10.38
G1 X6.37 Y-9.42
G1 X6.47 Y-8.95
G1 X6.58 Y-8.47
G1 X6.71 Y-7.48
G1 X6.85 Y-6.49
G1 X6.88 Y-5.79
G1 X6.92 Y-5.09
G1 X7.06 Y-4.96
G1 X7.20 Y-4.82
G1 X12.20 Y-4.82 F141.00
G1 X17.20 Y-4.82 F158.63
G1 X22.20 Y-4.82 F176.25
G1 X27.20 Y-4.82
G1 X32.20 Y-4.82
G1 X35.30 Y-4.82
G1 X40.30 Y-4.82
G1 X45.30 Y-4.82
G1 X50.30 Y-4.82
G1 X55.30 Y-4.82
G1 X60.30 Y-4.82 F149.81
G1 X63.40 Y-4.82 F123.37
G1 X63.52 Y-4.91 F88.13
G1 X63.64 Y-5.00
G1 X63.64 Y-5.00
G4 S1.
M9
G4 S1.
M5
G4 S1.
M1413 00:02:15
M1404
