;-------------------------------Cut file parameters------------------------
; Input file name : Part Studio 1 - background_teal_1.dxf
; File rotation : 0 File scale : 1
; Machine : Desktop
; Material name : Glass - Soda Lime
; Material thickness : 0.125 in
; Cut path  : Outside
; Cut quality : mediumRate
; Raw Material width : 102.0mm
; Raw Material height : 72.3mm
;-------------------------------Do Not modify the Gcode file---------------
G90
G21
M1403
M1405 X2.25 Y-3.36
M1406 X104.26 Y-75.69
M1407 S3.33
M1410 2.2.0; Generated on Wam
M1411 Glass - Soda Lime
M1412 0.125 in
G0 X54.49 Y-4.11
M3
M8
G4 S3.33
G1 X54.50 Y-4.71 F176.25
G1 X54.51 Y-5.30 F158.63
G1 X54.61 Y-6.29 F149.81
G1 X54.71 Y-7.28 F141.00
G1 X54.91 Y-8.26 F132.19
G1 X55.11 Y-9.23 F123.37
G1 X55.24 Y-9.70
G1 X55.37 Y-10.18
G1 X55.72 Y-11.11
G1 X56.06 Y-12.04
G1 X56.49 Y-12.94
G1 X56.92 Y-13.83
G1 X57.44 Y-14.68
G1 X57.96 Y-15.52
G1 X58.56 Y-16.31
G1 X59.16 Y-17.10
G1 X59.63 Y-17.63
G1 X60.10 Y-18.15
G1 X60.09 Y-18.34
G1 X60.09 Y-18.53
G1 X56.55 Y-22.07 F141.00
G1 X53.02 Y-25.60 F158.63
G1 X49.48 Y-29.14 F176.25
G1 X45.94 Y-32.67
G1 X42.41 Y-36.21
G1 X38.87 Y-39.75
G1 X35.34 Y-43.28
G1 X31.80 Y-46.82
G1 X31.70 Y-46.92 F167.44
G1 X28.17 Y-50.45 F176.25
G1 X24.63 Y-53.99
G1 X21.10 Y-57.52
G1 X17.56 Y-61.06
G1 X14.03 Y-64.59
G1 X10.49 Y-68.13 F149.81
G1 X6.96 Y-71.66 F114.56
G1 X3.42 Y-75.20 F79.31
G1 X3.32 Y-75.30
G1 X3.03 Y-75.17
G1 X2.73 Y-75.05
G1 X2.73 Y-70.05 F114.56
G1 X2.73 Y-65.05 F149.81
G1 X2.73 Y-60.05 F176.25
G1 X2.73 Y-55.05
G1 X2.73 Y-53.65
G1 X2.73 Y-48.65
G1 X2.73 Y-43.65
G1 X2.73 Y-38.65
G1 X2.73 Y-33.65
G1 X2.73 Y-32.26
G1 X2.76 Y-30.74
G1 X2.79 Y-29.22
G1 X2.84 Y-28.22 F167.44
G1 X2.90 Y-27.23 F158.63
G1 X3.08 Y-25.26 F176.25
G1 X3.26 Y-23.30
G1 X3.54 Y-21.34
G1 X3.82 Y-19.38
G1 X4.00 Y-18.40 F167.44
G1 X4.18 Y-17.43 F158.63
G1 X4.38 Y-16.46 F149.81
G1 X4.59 Y-15.49 F141.00
G1 X5.07 Y-13.57 F158.63
G1 X5.55 Y-11.65 F176.25
G1 X6.13 Y-9.76
G1 X6.71 Y-7.87 F149.81
G1 X7.42 Y-5.94 F123.37
G1 X8.12 Y-4.01
G1 X8.24 Y-3.92
G1 X8.37 Y-3.84
G1 X13.37 Y-3.84 F149.81
G1 X18.37 Y-3.84 F176.25
G1 X23.37 Y-3.84
G1 X28.37 Y-3.84
G1 X31.29 Y-3.84
G1 X36.29 Y-3.84
G1 X41.29 Y-3.84
G1 X46.29 Y-3.84
G1 X51.29 Y-3.84 F149.81
G1 X54.21 Y-3.84 F123.37
G1 X54.35 Y-3.97 F88.13
G1 X54.49 Y-4.11
G1 X54.49 Y-4.11
G4 S1.
M9
G4 S1.
M5
G4 S1.
G0 X71.20 Y-5.32
M3
M8
G4 S3.33
G1 X73.18 Y-5.44
G1 X75.16 Y-5.56 F176.25
G1 X76.14 Y-5.66 F167.44
G1 X77.13 Y-5.76 F158.63
G1 X79.09 Y-6.03 F176.25
G1 X81.04 Y-6.30
G1 X82.98 Y-6.68
G1 X84.93 Y-7.05
G1 X85.90 Y-7.28 F167.44
G1 X86.87 Y-7.50 F158.63
G1 X88.78 Y-8.03 F176.25
G1 X90.69 Y-8.55
G1 X92.56 Y-9.17
G1 X94.43 Y-9.79
G1 X95.36 Y-10.13 F167.44
G1 X96.29 Y-10.48 F158.63
G1 X98.12 Y-11.25 F176.25
G1 X99.95 Y-12.01 F149.81
G1 X101.84 Y-12.92 F123.37
G1 X103.73 Y-13.83
G1 X103.77 Y-14.07
G1 X103.81 Y-14.32
G1 X100.28 Y-17.85 F149.81
G1 X96.74 Y-21.39 F176.25
G1 X93.20 Y-24.93
G1 X90.91 Y-27.22
G1 X87.37 Y-30.76
G1 X83.84 Y-34.29
G1 X80.30 Y-37.83 F149.81
G1 X78.01 Y-40.12 F123.37
G1 X77.82 Y-40.13
G1 X77.62 Y-40.13
G1 X76.81 Y-39.39 F149.81
G1 X75.99 Y-38.66 F141.00
G1 X75.19 Y-38.06 F132.19
G1 X74.39 Y-37.47 F123.37
G1 X73.55 Y-36.97
G1 X72.70 Y-36.47
G1 X71.80 Y-36.05
G1 X70.89 Y-35.63
G1 X69.96 Y-35.30
G1 X69.02 Y-34.98
G1 X68.06 Y-34.75
G1 X67.09 Y-34.51
G1 X66.11 Y-34.38
G1 X65.12 Y-34.25
G1 X64.42 Y-34.21
G1 X63.72 Y-34.17
G1 X63.59 Y-34.03
G1 X63.46 Y-33.89
G1 X63.46 Y-28.89 F141.00
G1 X63.46 Y-23.89 F158.63
G1 X63.46 Y-19.80 F176.25
G1 X63.46 Y-14.80
G1 X63.46 Y-9.80 F149.81
G1 X63.46 Y-5.70 F123.37
G1 X63.59 Y-5.56
G1 X63.72 Y-5.42
G1 X65.49 Y-5.35 F149.81
G1 X67.25 Y-5.28 F132.19
G1 X69.22 Y-5.30 F88.13
G1 X71.20 Y-5.32
G1 X71.20 Y-5.32
G4 S1.
M9
G4 S1.
M5
G4 S1.
M1413 00:02:21
M1404
