;-------------------------------Cut file parameters------------------------
; Input file name : Part Studio 1 - sun.dxf
; File rotation : 0 File scale : 1
; Machine : Desktop
; Material name : Glass - Soda Lime
; Material thickness : 0.125 in
; Cut path  : Centerline
; Cut quality : mediumRate
; Raw Material width : 40.6mm
; Raw Material height : 40.6mm
;-------------------------------Do Not modify the Gcode file---------------
G90
G21
M1403
M1405 X3.67 Y-5.44
M1406 X44.28 Y-46.05
M1407 S3.33
M1410 2.2.0; Generated on Wam
M1411 Glass - Soda Lime
M1412 0.125 in
G0 X43.58 Y-28.55
M3
M8
G4 S3.33
G1 X43.55 Y-28.84 F176.25
G1 X43.35 Y-29.82 F158.63
G1 X43.14 Y-30.80 F149.81
G1 X42.83 Y-31.76 F141.00
G1 X42.53 Y-32.71 F132.19
G1 X42.34 Y-33.18 F123.37
G1 X42.15 Y-33.64
G1 X41.94 Y-34.10
G1 X41.73 Y-34.55
G1 X41.24 Y-35.43
G1 X40.75 Y-36.30
G1 X40.17 Y-37.12
G1 X39.60 Y-37.94
G1 X39.28 Y-38.33
G1 X38.96 Y-38.72
G1 X38.62 Y-39.09
G1 X38.28 Y-39.46
G1 X37.93 Y-39.81
G1 X37.57 Y-40.17
G1 X37.20 Y-40.50
G1 X36.82 Y-40.84
G1 X36.03 Y-41.45
G1 X35.23 Y-42.06
G1 X34.38 Y-42.59
G1 X33.52 Y-43.11
G1 X32.62 Y-43.55
G1 X31.72 Y-43.99
G1 X30.78 Y-44.33
G1 X29.84 Y-44.68
G1 X29.35 Y-44.81
G1 X28.87 Y-44.95
G1 X28.38 Y-45.06
G1 X27.89 Y-45.17
G1 X26.90 Y-45.32
G1 X25.91 Y-45.47
G1 X25.41 Y-45.51
G1 X24.91 Y-45.54
G1 X24.40 Y-45.55
G1 X23.90 Y-45.56
G1 X22.90 Y-45.51
G1 X21.90 Y-45.46
G1 X21.40 Y-45.39
G1 X20.90 Y-45.33
G1 X20.41 Y-45.24
G1 X19.92 Y-45.15
G1 X19.43 Y-45.03
G1 X18.94 Y-44.92
G1 X18.46 Y-44.78
G1 X17.98 Y-44.64
G1 X17.50 Y-44.47
G1 X17.03 Y-44.31
G1 X16.56 Y-44.12
G1 X16.10 Y-43.93
G1 X15.64 Y-43.72
G1 X15.19 Y-43.51
G1 X14.74 Y-43.28
G1 X14.30 Y-43.04
G1 X13.87 Y-42.79
G1 X13.44 Y-42.53
G1 X13.02 Y-42.25
G1 X12.60 Y-41.98
G1 X11.81 Y-41.36
G1 X11.02 Y-40.74
G1 X10.29 Y-40.05
G1 X9.57 Y-39.36
G1 X8.92 Y-38.59
G1 X8.27 Y-37.83
G1 X7.70 Y-37.01
G1 X7.12 Y-36.18
G1 X6.64 Y-35.30
G1 X6.16 Y-34.42
G1 X5.76 Y-33.50
G1 X5.37 Y-32.58
G1 X5.21 Y-32.10
G1 X5.05 Y-31.63
G1 X4.91 Y-31.15
G1 X4.77 Y-30.66
G1 X4.66 Y-30.17
G1 X4.55 Y-29.69
G1 X4.46 Y-29.19
G1 X4.38 Y-28.70
G1 X4.31 Y-28.20
G1 X4.25 Y-27.70
G1 X4.21 Y-27.20
G1 X4.18 Y-26.70
G1 X4.17 Y-26.20
G1 X4.15 Y-25.70
G1 X4.21 Y-24.70
G1 X4.26 Y-23.69
G1 X4.41 Y-22.70
G1 X4.57 Y-21.71
G1 X4.68 Y-21.22
G1 X4.80 Y-20.73
G1 X5.10 Y-19.78
G1 X5.40 Y-18.82
G1 X5.80 Y-17.90
G1 X6.20 Y-16.98
G1 X6.43 Y-16.54
G1 X6.66 Y-16.09
G1 X6.92 Y-15.66
G1 X7.17 Y-15.23
G1 X7.45 Y-14.81
G1 X7.73 Y-14.39
G1 X8.03 Y-13.99
G1 X8.32 Y-13.58
G1 X8.64 Y-13.20
G1 X8.96 Y-12.81
G1 X9.30 Y-12.44
G1 X9.63 Y-12.06
G1 X10.36 Y-11.37
G1 X11.09 Y-10.68
G1 X11.88 Y-10.07
G1 X12.68 Y-9.46
G1 X13.53 Y-8.93
G1 X14.38 Y-8.40
G1 X15.28 Y-7.96
G1 X16.19 Y-7.52
G1 X16.65 Y-7.33
G1 X17.12 Y-7.15
G1 X17.59 Y-6.99
G1 X18.07 Y-6.83
G1 X19.04 Y-6.58
G1 X20.01 Y-6.33
G1 X20.50 Y-6.24
G1 X21.00 Y-6.15
G1 X21.50 Y-6.09
G1 X21.99 Y-6.02
G1 X23.00 Y-5.97
G1 X24.00 Y-5.92
G1 X25.00 Y-5.98
G1 X26.00 Y-6.03
G1 X26.99 Y-6.18
G1 X27.98 Y-6.33
G1 X28.96 Y-6.59
G1 X29.93 Y-6.84
G1 X30.87 Y-7.19
G1 X31.81 Y-7.54
G1 X32.26 Y-7.75
G1 X32.72 Y-7.96
G1 X33.16 Y-8.19
G1 X33.61 Y-8.42
G1 X34.46 Y-8.95
G1 X35.31 Y-9.49
G1 X36.10 Y-10.10
G1 X36.89 Y-10.71
G1 X37.62 Y-11.41
G1 X38.35 Y-12.10
G1 X39.00 Y-12.86
G1 X39.65 Y-13.62
G1 X40.23 Y-14.44
G1 X40.80 Y-15.27
G1 X41.29 Y-16.15
G1 X41.77 Y-17.02
G1 X41.98 Y-17.48
G1 X42.19 Y-17.93
G1 X42.54 Y-18.88
G1 X42.89 Y-19.82
G1 X43.14 Y-20.79
G1 X43.39 Y-21.76
G1 X43.54 Y-22.75
G1 X43.69 Y-23.74
G1 X43.74 Y-24.74 F132.19
G1 X43.79 Y-25.74 F88.13
G1 X43.79 Y-25.74
G1 X43.79 Y-25.74
G4 S1.
M9
G4 S1.
M5
G4 S1.
M1413 00:01:02
M1404
