;-------------------------------Cut file parameters------------------------
; Input file name : peak.DXF
; File rotation : 0 File scale : 0.005
; Machine : Desktop
; Material name : Glass - Borosilicate
; Material thickness : 0.18799999999999997 in
; Cut path  : Outside
; Cut quality : mediumRate
; Raw Material width : 93.34mm
; Raw Material height : 93.58mm
;-------------------------------Do Not modify the Gcode file---------------
G90
G21
M1403
M1405 X4.80 Y-4.80
M1406 X98.14 Y-98.38
M1407 S5.4
M1410 2.1.0; Generated on Wam
M1411 Glass - Borosilicate
M1412 0.18799999999999997 
G0 X81.17 Y-22.37
M3
M8
G4 S5.4
G1 X81.17 Y-22.36 F103.63
G1 X81.18 Y-22.36 F93.27
G1 X81.18 Y-22.35 F88.09
G1 X81.18 Y-22.35 F82.91
G1 X81.18 Y-22.35 F77.72
G1 X81.18 Y-22.34 F72.54
G1 X81.18 Y-22.34
G1 X81.18 Y-22.33
G1 X81.19 Y-22.32
G1 X81.19 Y-22.32
G1 X81.20 Y-22.31
G1 X81.20 Y-22.30
G1 X81.20 Y-22.30
G1 X81.20 Y-22.29
G1 X81.21 Y-22.29
G1 X81.21 Y-22.28
G1 X81.22 Y-22.27
G1 X81.22 Y-22.26
G1 X81.23 Y-22.26
G1 X81.23 Y-22.25
G1 X81.24 Y-22.25
G1 X81.24 Y-22.24
G1 X81.24 Y-22.24
G1 X81.25 Y-22.24
G1 X81.25 Y-22.23
G1 X81.25 Y-22.23
G1 X81.26 Y-22.22
G1 X81.27 Y-22.22
G1 X81.27 Y-22.21
G1 X81.27 Y-22.21
G1 X81.28 Y-22.21
G1 X81.28 Y-22.21
G1 X81.28 Y-22.20
G1 X81.29 Y-22.20
G1 X81.29 Y-22.20
G1 X81.29 Y-22.19
G1 X81.30 Y-22.19
G1 X81.30 Y-22.19
G1 X81.30 Y-22.19
G1 X81.31 Y-22.18
G1 X81.31 Y-22.18
G1 X81.32 Y-22.18
G1 X81.32 Y-22.18
G1 X81.33 Y-22.17
G1 X81.33 Y-22.17
G1 X81.34 Y-22.17
G1 X81.34 Y-22.17
G1 X81.35 Y-22.17
G1 X81.35 Y-22.16
G1 X81.35 Y-22.16
G1 X81.36 Y-22.16
G1 X81.37 Y-22.16
G1 X81.37 Y-22.16
G1 X81.38 Y-22.16
G1 X81.38 Y-22.16
G1 X81.39 Y-22.16
G1 X81.40 Y-22.16
G1 X81.40 Y-22.16
G1 X81.41 Y-22.16
G1 X81.41 Y-22.16
G1 X81.42 Y-22.16
G1 X81.42 Y-22.16
G1 X81.43 Y-22.16
G1 X81.43 Y-22.16
G1 X81.44 Y-22.16
G1 X81.44 Y-22.16
G1 X81.45 Y-22.16
G1 X81.46 Y-22.16
G1 X81.46 Y-22.17
G1 X81.47 Y-22.17
G1 X81.47 Y-22.17
G1 X81.48 Y-22.17
G1 X81.48 Y-22.17
G1 X81.49 Y-22.18
G1 X81.49 Y-22.18
G1 X81.49 Y-22.18
G1 X81.50 Y-22.18
G1 X81.50 Y-22.18
G1 X81.50 Y-22.19
G1 X81.50 Y-22.19
G1 X81.51 Y-22.19
G1 X81.51 Y-22.20
G1 X81.55 Y-22.23
G1 X81.59 Y-22.26
G1 X81.61 Y-22.28
G1 X81.64 Y-22.30
G1 X81.68 Y-22.34
G1 X81.72 Y-22.37
G1 X81.74 Y-22.39
G1 X81.76 Y-22.41
G1 X81.78 Y-22.43
G1 X81.80 Y-22.44
G1 X81.82 Y-22.46
G1 X81.84 Y-22.48
G1 X81.88 Y-22.52
G1 X81.92 Y-22.56
G1 X81.94 Y-22.57
G1 X81.96 Y-22.59
G1 X81.98 Y-22.61
G1 X82.00 Y-22.63
G1 X82.02 Y-22.65
G1 X82.04 Y-22.67
G1 X82.07 Y-22.69
G1 X82.09 Y-22.71
G1 X82.10 Y-22.72
G1 X82.12 Y-22.74
G1 X82.13 Y-22.75
G1 X82.15 Y-22.77
G1 X82.16 Y-22.78
G1 X82.18 Y-22.80
G1 X82.19 Y-22.81
G1 X82.21 Y-22.83
G1 X82.22 Y-22.84
G1 X82.24 Y-22.86
G1 X82.27 Y-22.89
G1 X82.30 Y-22.92
G1 X82.31 Y-22.94
G1 X82.33 Y-22.95
G1 X82.34 Y-22.97
G1 X82.36 Y-22.98
G1 X82.38 Y-23.01
G1 X82.41 Y-23.04
G1 X82.43 Y-23.06
G1 X82.44 Y-23.08
G1 X82.46 Y-23.09
G1 X82.48 Y-23.11
G1 X82.49 Y-23.13
G1 X82.50 Y-23.14
G1 X82.51 Y-23.15
G1 X82.52 Y-23.16
G1 X82.53 Y-23.18
G1 X82.54 Y-23.19
G1 X82.55 Y-23.20
G1 X82.55 Y-23.21
G1 X82.57 Y-23.23
G1 X82.58 Y-23.24
G1 X82.59 Y-23.25
G1 X82.59 Y-23.26
G1 X82.60 Y-23.28
G1 X82.61 Y-23.29
G1 X82.62 Y-23.30
G1 X82.63 Y-23.31
G1 X82.63 Y-23.32
G1 X82.64 Y-23.33
G1 X82.64 Y-23.34
G1 X82.65 Y-23.35
G1 X82.65 Y-23.36
G1 X82.66 Y-23.36
G1 X82.66 Y-23.37
G1 X82.67 Y-23.38
G1 X82.68 Y-23.40
G1 X82.69 Y-23.42
G1 X82.70 Y-23.43
G1 X82.70 Y-23.44
G1 X82.71 Y-23.45
G1 X82.71 Y-23.46
G1 X82.72 Y-23.47
G1 X82.72 Y-23.48
G1 X82.74 Y-23.51
G1 X82.75 Y-23.53
G1 X82.76 Y-23.55
G1 X82.76 Y-23.56
G1 X82.77 Y-23.59
G1 X82.78 Y-23.61
G1 X82.80 Y-23.64
G1 X82.81 Y-23.66
G1 X82.81 Y-23.67
G1 X82.82 Y-23.69
G1 X82.83 Y-23.71
G1 X82.84 Y-23.74
G1 X82.84 Y-23.75
G1 X82.85 Y-23.76
G1 X82.86 Y-23.79
G1 X82.87 Y-23.82
G1 X82.88 Y-23.84
G1 X82.89 Y-23.87
G1 X82.89 Y-23.88
G1 X82.90 Y-23.90
G1 X82.91 Y-23.94
G1 X82.93 Y-23.99
G1 X82.94 Y-24.05
G1 X82.96 Y-24.10
G1 X82.98 Y-24.15
G1 X82.99 Y-24.20
G1 X83.01 Y-24.26
G1 X83.03 Y-24.31
G1 X83.04 Y-24.36
G1 X83.06 Y-24.41
G1 X83.08 Y-24.47
G1 X83.09 Y-24.52
G1 X83.11 Y-24.57
G1 X83.13 Y-24.62
G1 X83.14 Y-24.68
G1 X83.16 Y-24.73
G1 X83.17 Y-24.78
G1 X83.19 Y-24.83
G1 X83.22 Y-24.92
G1 X83.24 Y-25.01
G1 X83.25 Y-25.05
G1 X83.26 Y-25.08
G1 X83.29 Y-25.15
G1 X83.31 Y-25.23
G1 X83.32 Y-25.26
G1 X83.33 Y-25.30
G1 X83.35 Y-25.37
G1 X83.38 Y-25.44
G1 X83.39 Y-25.48
G1 X83.40 Y-25.51
G1 X83.41 Y-25.55
G1 X83.42 Y-25.58
G1 X83.44 Y-25.64
G1 X83.46 Y-25.70
G1 X83.48 Y-25.75
G1 X83.50 Y-25.79
G1 X83.50 Y-25.82
G1 X83.51 Y-25.84
G1 X83.53 Y-25.89
G1 X83.55 Y-25.94
G1 X83.56 Y-25.98
G1 X83.58 Y-26.03
G1 X83.59 Y-26.05
G1 X83.60 Y-26.08
G1 X83.61 Y-26.10
G1 X83.62 Y-26.12
G1 X83.63 Y-26.15
G1 X83.64 Y-26.17
G1 X83.65 Y-26.19
G1 X83.65 Y-26.22
G1 X83.66 Y-26.24
G1 X83.67 Y-26.26
G1 X83.68 Y-26.29
G1 X83.69 Y-26.31
G1 X83.70 Y-26.33
G1 X83.71 Y-26.35
G1 X83.72 Y-26.37
G1 X83.72 Y-26.38
G1 X83.73 Y-26.40
G1 X83.74 Y-26.42
G1 X83.75 Y-26.44
G1 X83.76 Y-26.46
G1 X83.77 Y-26.50
G1 X83.79 Y-26.53
G1 X83.80 Y-26.55
G1 X83.81 Y-26.57
G1 X83.83 Y-26.61
G1 X83.84 Y-26.65
G1 X83.85 Y-26.66
G1 X83.86 Y-26.68
G1 X83.87 Y-26.70
G1 X83.88 Y-26.72
G1 X83.90 Y-26.76
G1 X83.92 Y-26.79
G1 X83.93 Y-26.82
G1 X83.94 Y-26.84
G1 X83.95 Y-26.85
G1 X83.95 Y-26.86
G1 X83.97 Y-26.89
G1 X83.98 Y-26.91
G1 X83.99 Y-26.92
G1 X83.99 Y-26.93
G1 X84.01 Y-26.96
G1 X84.02 Y-26.98
G1 X84.03 Y-26.99
G1 X84.04 Y-27.00
G1 X84.04 Y-27.02
G1 X84.05 Y-27.03
G1 X84.06 Y-27.05
G1 X84.08 Y-27.07
G1 X84.09 Y-27.09
G1 X84.11 Y-27.12
G1 X84.12 Y-27.13
G1 X84.13 Y-27.14
G1 X84.15 Y-27.17
G1 X84.17 Y-27.19
G1 X84.18 Y-27.21
G1 X84.19 Y-27.23
G1 X84.22 Y-27.26
G1 X84.24 Y-27.30
G1 X84.25 Y-27.31
G1 X84.27 Y-27.33
G1 X84.29 Y-27.36
G1 X84.32 Y-27.39
G1 X84.34 Y-27.42
G1 X84.36 Y-27.44
G1 X84.38 Y-27.47
G1 X84.40 Y-27.49
G1 X84.42 Y-27.52
G1 X84.44 Y-27.54
G1 X84.46 Y-27.57
G1 X84.48 Y-27.59
G1 X84.49 Y-27.60
G1 X84.50 Y-27.62
G1 X84.52 Y-27.63
G1 X84.53 Y-27.64
G1 X84.55 Y-27.67
G1 X84.58 Y-27.69
G1 X84.59 Y-27.71
G1 X84.60 Y-27.72
G1 X84.61 Y-27.73
G1 X84.62 Y-27.74
G1 X84.62 Y-27.75
G1 X84.63 Y-27.75
G1 X84.63 Y-27.75
G1 X84.63 Y-27.75
G1 X84.63 Y-27.75
G1 X84.63 Y-27.75
G1 X84.63 Y-27.75
G1 X84.64 Y-27.76
G1 X84.64 Y-27.76
G1 X84.64 Y-27.76
G1 X84.64 Y-27.76
G1 X84.64 Y-27.76
G1 X84.65 Y-27.76
G1 X84.65 Y-27.76
G1 X84.65 Y-27.76
G1 X84.66 Y-27.76
G1 X84.66 Y-27.77
G1 X84.67 Y-27.77
G1 X84.67 Y-27.77
G1 X84.67 Y-27.77
G1 X84.68 Y-27.77
G1 X84.68 Y-27.77
G1 X84.68 Y-27.77
G1 X84.69 Y-27.77
G1 X84.69 Y-27.77
G1 X84.69 Y-27.77
G1 X84.69 Y-27.77
G1 X84.70 Y-27.77
G1 X84.70 Y-27.77
G1 X84.70 Y-27.77
G1 X84.70 Y-27.77
G1 X84.70 Y-27.77
G1 X84.71 Y-27.76
G1 X84.71 Y-27.76
G1 X84.72 Y-27.76
G1 X84.72 Y-27.76
G1 X84.72 Y-27.76
G1 X84.73 Y-27.76
G1 X84.73 Y-27.75
G1 X84.73 Y-27.75
G1 X84.73 Y-27.75
G1 X84.73 Y-27.75
G1 X84.74 Y-27.75
G1 X84.74 Y-27.74
G1 X84.74 Y-27.74
G1 X84.75 Y-27.74
G1 X84.79 Y-27.69
G1 X84.83 Y-27.65
G1 X84.86 Y-27.60
G1 X84.90 Y-27.56
G1 X84.94 Y-27.51
G1 X84.98 Y-27.47
G1 X85.03 Y-27.41
G1 X85.08 Y-27.35
G1 X85.10 Y-27.32
G1 X85.13 Y-27.30
G1 X85.18 Y-27.24
G1 X85.22 Y-27.18
G1 X85.27 Y-27.12
G1 X85.32 Y-27.07
G1 X85.34 Y-27.04
G1 X85.37 Y-27.01
G1 X85.41 Y-26.95
G1 X85.46 Y-26.90
G1 X85.52 Y-26.82
G1 X85.59 Y-26.74
G1 X85.65 Y-26.66
G1 X85.71 Y-26.58
G1 X85.74 Y-26.54
G1 X85.78 Y-26.50
G1 X85.83 Y-26.43
G1 X85.89 Y-26.35
G1 X85.91 Y-26.33
G1 X85.93 Y-26.30
G1 X85.95 Y-26.28
G1 X85.97 Y-26.26
G1 X85.98 Y-26.23
G1 X86.00 Y-26.21
G1 X86.04 Y-26.16
G1 X86.08 Y-26.11
G1 X86.11 Y-26.06
G1 X86.15 Y-26.01
G1 X86.17 Y-25.99
G1 X86.18 Y-25.96
G1 X86.20 Y-25.94
G1 X86.22 Y-25.91
G1 X86.24 Y-25.89
G1 X86.26 Y-25.86
G1 X86.29 Y-25.81
G1 X86.33 Y-25.76
G1 X86.34 Y-25.74
G1 X86.36 Y-25.71
G1 X86.38 Y-25.69
G1 X86.40 Y-25.66
G1 X86.41 Y-25.64
G1 X86.43 Y-25.61
G1 X86.46 Y-25.56
G1 X86.50 Y-25.51
G1 X86.53 Y-25.46
G1 X86.57 Y-25.41
G1 X86.60 Y-25.36
G1 X86.63 Y-25.31
G1 X86.65 Y-25.28
G1 X86.67 Y-25.26
G1 X86.70 Y-25.21
G1 X86.73 Y-25.16
G1 X86.75 Y-25.13
G1 X86.77 Y-25.10
G1 X86.78 Y-25.08
G1 X86.79 Y-25.06
G1 X86.80 Y-25.04
G1 X86.81 Y-25.03
G1 X86.82 Y-25.01
G1 X86.83 Y-24.99
G1 X86.85 Y-24.96
G1 X86.87 Y-24.92
G1 X86.88 Y-24.90
G1 X86.89 Y-24.89
G1 X86.90 Y-24.87
G1 X86.91 Y-24.85
G1 X86.93 Y-24.81
G1 X86.95 Y-24.78
G1 X86.96 Y-24.76
G1 X86.97 Y-24.74
G1 X86.98 Y-24.72
G1 X86.99 Y-24.71
G1 X87.01 Y-24.67
G1 X87.03 Y-24.63
G1 X87.04 Y-24.61
G1 X87.05 Y-24.60
G1 X87.07 Y-24.56
G1 X87.09 Y-24.52
G1 X87.10 Y-24.50
G1 X87.10 Y-24.49
G1 X87.11 Y-24.47
G1 X87.12 Y-24.45
G1 X87.13 Y-24.43
G1 X87.14 Y-24.41
G1 X87.16 Y-24.37
G1 X87.17 Y-24.34
G1 X87.18 Y-24.32
G1 X87.19 Y-24.30
G1 X87.21 Y-24.26
G1 X87.22 Y-24.22
G1 X87.24 Y-24.19
G1 X87.26 Y-24.15
G1 X87.26 Y-24.13
G1 X87.27 Y-24.11
G1 X87.28 Y-24.08
G1 X87.30 Y-24.04
G1 X87.31 Y-24.02
G1 X87.31 Y-24.00
G1 X87.32 Y-23.98
G1 X87.33 Y-23.96
G1 X87.34 Y-23.95
G1 X87.34 Y-23.93
G1 X87.35 Y-23.91
G1 X87.36 Y-23.89
G1 X87.37 Y-23.85
G1 X87.39 Y-23.81
G1 X87.40 Y-23.76
G1 X87.42 Y-23.72
G1 X87.42 Y-23.70
G1 X87.43 Y-23.68
G1 X87.44 Y-23.66
G1 X87.44 Y-23.64
G1 X87.45 Y-23.62
G1 X87.46 Y-23.60
G1 X87.46 Y-23.58
G1 X87.47 Y-23.56
G1 X87.48 Y-23.54
G1 X87.48 Y-23.52
G1 X87.49 Y-23.50
G1 X87.49 Y-23.48
G1 X87.51 Y-23.44
G1 X87.52 Y-23.40
G1 X87.52 Y-23.38
G1 X87.53 Y-23.36
G1 X87.54 Y-23.32
G1 X87.55 Y-23.28
G1 X87.56 Y-23.24
G1 X87.57 Y-23.19
G1 X87.58 Y-23.17
G1 X87.58 Y-23.15
G1 X87.59 Y-23.13
G1 X87.59 Y-23.11
G1 X87.60 Y-23.09
G1 X87.60 Y-23.07
G1 X87.61 Y-23.05
G1 X87.61 Y-23.03
G1 X87.62 Y-22.99
G1 X87.63 Y-22.95
G1 X87.64 Y-22.92
G1 X87.64 Y-22.90
G1 X87.65 Y-22.87
G1 X87.66 Y-22.84
G1 X87.66 Y-22.81
G1 X87.67 Y-22.77
G1 X87.68 Y-22.70
G1 X87.70 Y-22.64
G1 X87.71 Y-22.57
G1 X87.72 Y-22.50
G1 X87.73 Y-22.43
G1 X87.75 Y-22.36
G1 X87.75 Y-22.33
G1 X87.76 Y-22.30
G1 X87.76 Y-22.26
G1 X87.77 Y-22.23
G1 X87.78 Y-22.19
G1 X87.78 Y-22.16
G1 X87.79 Y-22.12
G1 X87.79 Y-22.09
G1 X87.80 Y-22.02
G1 X87.81 Y-21.95
G1 X87.82 Y-21.92
G1 X87.82 Y-21.88
G1 X87.83 Y-21.85
G1 X87.83 Y-21.82
G1 X87.84 Y-21.78
G1 X87.84 Y-21.75
G1 X87.85 Y-21.68
G1 X87.86 Y-21.61
G1 X87.87 Y-21.58
G1 X87.87 Y-21.54
G1 X87.88 Y-21.51
G1 X87.88 Y-21.47
G1 X87.89 Y-21.44
G1 X87.89 Y-21.40
G1 X87.89 Y-21.37
G1 X87.90 Y-21.34
G1 X87.91 Y-21.23
G1 X87.92 Y-21.12
G1 X87.93 Y-21.06
G1 X87.94 Y-21.01
G1 X87.94 Y-20.95
G1 X87.95 Y-20.89
G1 X87.97 Y-20.78
G1 X87.98 Y-20.67
G1 X87.99 Y-20.63
G1 X87.99 Y-20.59
G1 X88.00 Y-20.54
G1 X88.00 Y-20.50
G1 X88.01 Y-20.42
G1 X88.02 Y-20.34
G1 X88.03 Y-20.30
G1 X88.04 Y-20.26
G1 X88.04 Y-20.22
G1 X88.05 Y-20.18
G1 X88.06 Y-20.10
G1 X88.07 Y-20.03
G1 X88.09 Y-19.89
G1 X88.11 Y-19.75
G1 X88.11 Y-19.74
G1 X88.11 Y-19.74
G1 X88.11 Y-19.74
G1 X88.12 Y-19.73
G1 X88.12 Y-19.73
G1 X88.12 Y-19.73
G1 X88.12 Y-19.73
G1 X88.12 Y-19.72
G1 X88.12 Y-19.72
G1 X88.12 Y-19.72
G1 X88.12 Y-19.72
G1 X88.12 Y-19.72
G1 X88.13 Y-19.71
G1 X88.13 Y-19.71
G1 X88.13 Y-19.71
G1 X88.13 Y-19.70
G1 X88.13 Y-19.70
G1 X88.13 Y-19.70
G1 X88.14 Y-19.70
G1 X88.14 Y-19.70
G1 X88.14 Y-19.70
G1 X88.14 Y-19.70
G1 X88.14 Y-19.69
G1 X88.14 Y-19.69
G1 X88.15 Y-19.69
G1 X88.15 Y-19.69
G1 X88.15 Y-19.69
G1 X88.15 Y-19.69
G1 X88.15 Y-19.69
G1 X88.15 Y-19.69
G1 X88.16 Y-19.69
G1 X88.16 Y-19.69
G1 X88.16 Y-19.69
G1 X88.16 Y-19.69
G1 X88.16 Y-19.69
G1 X88.16 Y-19.69
G1 X88.16 Y-19.69
G1 X88.16 Y-19.69
G1 X88.17 Y-19.69
G1 X88.17 Y-19.69
G1 X88.17 Y-19.70
G1 X88.17 Y-19.70
G1 X88.18 Y-19.70
G1 X88.18 Y-19.70
G1 X88.25 Y-19.80
G1 X88.33 Y-19.90
G1 X88.38 Y-19.98
G1 X88.43 Y-20.05
G1 X88.48 Y-20.12
G1 X88.53 Y-20.19
G1 X88.58 Y-20.26
G1 X88.63 Y-20.32
G1 X88.68 Y-20.39
G1 X88.73 Y-20.47
G1 X88.79 Y-20.54
G1 X88.84 Y-20.61
G1 X88.86 Y-20.65
G1 X88.89 Y-20.69
G1 X88.94 Y-20.75
G1 X88.98 Y-20.82
G1 X89.02 Y-20.87
G1 X89.05 Y-20.92
G1 X89.09 Y-20.98
G1 X89.13 Y-21.03
G1 X89.16 Y-21.08
G1 X89.20 Y-21.13
G1 X89.23 Y-21.19
G1 X89.27 Y-21.24
G1 X89.31 Y-21.29
G1 X89.34 Y-21.35
G1 X89.41 Y-21.45
G1 X89.48 Y-21.55
G1 X89.52 Y-21.60
G1 X89.55 Y-21.65
G1 X89.58 Y-21.70
G1 X89.62 Y-21.75
G1 X89.65 Y-21.80
G1 X89.69 Y-21.85
G1 X89.76 Y-21.95
G1 X89.83 Y-22.05
G1 X89.89 Y-22.15
G1 X89.96 Y-22.25
G1 X90.03 Y-22.35
G1 X90.10 Y-22.45
G1 X90.14 Y-22.50
G1 X90.17 Y-22.55
G1 X90.21 Y-22.60
G1 X90.25 Y-22.65
G1 X90.28 Y-22.70
G1 X90.32 Y-22.75
G1 X90.36 Y-22.81
G1 X90.40 Y-22.87
G1 X90.42 Y-22.90
G1 X90.44 Y-22.93
G1 X90.48 Y-22.98
G1 X90.52 Y-23.03
G1 X90.55 Y-23.08
G1 X90.59 Y-23.13
G1 X90.61 Y-23.15
G1 X90.63 Y-23.18
G1 X90.65 Y-23.20
G1 X90.67 Y-23.23
G1 X90.69 Y-23.25
G1 X90.71 Y-23.28
G1 X90.73 Y-23.30
G1 X90.75 Y-23.33
G1 X90.76 Y-23.35
G1 X90.78 Y-23.38
G1 X90.82 Y-23.43
G1 X90.86 Y-23.48
G1 X90.90 Y-23.53
G1 X90.94 Y-23.57
G1 X90.96 Y-23.60
G1 X90.98 Y-23.62
G1 X91.00 Y-23.65
G1 X91.02 Y-23.67
G1 X91.04 Y-23.70
G1 X91.06 Y-23.72
G1 X91.10 Y-23.76
G1 X91.13 Y-23.80
G1 X91.16 Y-23.84
G1 X91.19 Y-23.87
G1 X91.22 Y-23.90
G1 X91.25 Y-23.94
G1 X91.28 Y-23.97
G1 X91.31 Y-24.01
G1 X91.33 Y-24.02
G1 X91.34 Y-24.04
G1 X91.37 Y-24.07
G1 X91.40 Y-24.11
G1 X91.42 Y-24.13
G1 X91.44 Y-24.14
G1 X91.47 Y-24.17
G1 X91.50 Y-24.21
G1 X91.51 Y-24.22
G1 X91.53 Y-24.24
G1 X91.56 Y-24.27
G1 X91.60 Y-24.31
G1 X91.61 Y-24.32
G1 X91.63 Y-24.34
G1 X91.64 Y-24.35
G1 X91.66 Y-24.37
G1 X91.68 Y-24.39
G1 X91.69 Y-24.40
G1 X91.70 Y-24.41
G1 X91.71 Y-24.42
G1 X91.72 Y-24.43
G1 X91.73 Y-24.44
G1 X91.74 Y-24.45
G1 X91.75 Y-24.45
G1 X91.76 Y-24.46
G1 X91.77 Y-24.47
G1 X91.78 Y-24.48
G1 X91.79 Y-24.49
G1 X91.79 Y-24.49
G1 X91.80 Y-24.50
G1 X91.81 Y-24.51
G1 X91.82 Y-24.52
G1 X91.83 Y-24.52
G1 X91.84 Y-24.53
G1 X91.85 Y-24.54
G1 X91.86 Y-24.55
G1 X91.88 Y-24.56
G1 X91.90 Y-24.58
G1 X91.91 Y-24.58
G1 X91.92 Y-24.59
G1 X91.93 Y-24.60
G1 X91.94 Y-24.61
G1 X91.95 Y-24.61
G1 X91.96 Y-24.62
G1 X91.97 Y-24.63
G1 X91.98 Y-24.63
G1 X91.99 Y-24.64
G1 X92.00 Y-24.65
G1 X92.02 Y-24.66
G1 X92.04 Y-24.68
G1 X92.06 Y-24.69
G1 X92.08 Y-24.70
G1 X92.10 Y-24.71
G1 X92.12 Y-24.73
G1 X92.13 Y-24.73
G1 X92.14 Y-24.74
G1 X92.15 Y-24.74
G1 X92.16 Y-24.75
G1 X92.17 Y-24.76
G1 X92.18 Y-24.76
G1 X92.19 Y-24.77
G1 X92.20 Y-24.77 F67.36
G1 X92.42 Y-24.89 F46.63
G1 X92.64 Y-25.01
G1 X93.92 Y-24.11 F67.36
G1 X95.20 Y-23.21 F88.09
G1 X95.59 Y-22.94
G1 X95.98 Y-22.67 F82.91
G1 X96.24 Y-22.48 F77.72
G1 X96.50 Y-22.30 F72.54
G1 X96.65 Y-22.20
G1 X96.80 Y-22.09
G1 X97.15 Y-21.85
G1 X97.50 Y-21.60 F67.36
G1 X97.82 Y-21.41 F46.63
G1 X98.14 Y-21.22
G1 X98.14 Y-26.22 F67.36
G1 X98.14 Y-31.22 F88.09
G1 X98.14 Y-36.22 F103.63
G1 X98.14 Y-41.22
G1 X98.14 Y-46.22
G1 X98.14 Y-51.22
G1 X98.14 Y-56.22
G1 X98.14 Y-59.80
G1 X98.14 Y-64.80
G1 X98.14 Y-69.80
G1 X98.14 Y-74.80
G1 X98.14 Y-79.80
G1 X98.14 Y-84.80
G1 X98.14 Y-89.80 F88.09
G1 X98.14 Y-94.80 F67.36
G1 X98.14 Y-98.38 F46.63
G1 X93.14 Y-98.38 F67.36
G1 X88.14 Y-98.38 F88.09
G1 X83.14 Y-98.38 F103.63
G1 X78.14 Y-98.38
G1 X73.14 Y-98.38
G1 X68.14 Y-98.38
G1 X63.14 Y-98.38
G1 X58.14 Y-98.38
G1 X53.14 Y-98.38
G1 X51.47 Y-98.38
G1 X46.47 Y-98.38
G1 X41.47 Y-98.38
G1 X36.47 Y-98.38
G1 X31.47 Y-98.38
G1 X26.47 Y-98.38
G1 X21.47 Y-98.38
G1 X16.47 Y-98.38 F88.09
G1 X11.47 Y-98.38 F67.36
G1 X6.47 Y-98.38 F46.63
G1 X4.80 Y-98.38
G1 X4.80 Y-93.38 F67.36
G1 X4.80 Y-92.66 F88.09
G1 X4.80 Y-87.66 F72.54
G1 X4.80 Y-86.94
G1 X5.42 Y-86.46 F88.09
G1 X6.05 Y-85.97 F93.27
G1 X8.99 Y-83.78 F103.63
G1 X11.92 Y-81.58
G1 X14.69 Y-79.51 F88.09
G1 X17.46 Y-77.44 F72.54
G1 X18.11 Y-75.93 F88.09
G1 X18.77 Y-74.41 F103.63
G1 X18.83 Y-74.28 F98.45
G1 X18.89 Y-74.14 F93.27
G1 X18.92 Y-74.07 F88.09
G1 X18.95 Y-74.00 F82.91
G1 X19.01 Y-73.87 F77.72
G1 X19.07 Y-73.73 F72.54
G1 X19.10 Y-73.66
G1 X19.13 Y-73.59
G1 X19.19 Y-73.46
G1 X19.25 Y-73.32
G1 X19.31 Y-73.19
G1 X19.37 Y-73.05
G1 X19.43 Y-72.91
G1 X19.50 Y-72.77
G1 X19.54 Y-72.68
G1 X19.58 Y-72.58
G1 X19.63 Y-72.49
G1 X19.67 Y-72.39
G1 X19.72 Y-72.29
G1 X19.76 Y-72.20
G1 X19.80 Y-72.10
G1 X19.85 Y-72.01
G1 X19.89 Y-71.91
G1 X19.94 Y-71.82
G1 X19.98 Y-71.72
G1 X20.02 Y-71.62
G1 X20.07 Y-71.53
G1 X20.11 Y-71.43
G1 X20.18 Y-71.30
G1 X20.24 Y-71.16
G1 X20.28 Y-71.06
G1 X20.33 Y-70.97
G1 X20.37 Y-70.87
G1 X20.42 Y-70.78
G1 X20.46 Y-70.68
G1 X20.51 Y-70.59
G1 X20.55 Y-70.49
G1 X20.60 Y-70.40
G1 X20.64 Y-70.30
G1 X20.69 Y-70.21
G1 X20.73 Y-70.11
G1 X20.78 Y-70.02
G1 X20.82 Y-69.92
G1 X20.87 Y-69.83
G1 X20.90 Y-69.76
G1 X20.94 Y-69.68
G1 X20.97 Y-69.62
G1 X21.00 Y-69.55
G1 X21.03 Y-69.49
G1 X21.07 Y-69.42
G1 X21.10 Y-69.35
G1 X21.13 Y-69.29
G1 X21.16 Y-69.22
G1 X21.19 Y-69.16
G1 X21.23 Y-69.09
G1 X21.26 Y-69.03
G1 X21.29 Y-68.96
G1 X21.32 Y-68.90
G1 X21.35 Y-68.83
G1 X21.39 Y-68.77
G1 X21.42 Y-68.70
G1 X21.45 Y-68.64
G1 X21.48 Y-68.57
G1 X21.52 Y-68.50
G1 X22.24 Y-67.06
G1 X22.96 Y-65.62
G1 X22.96 Y-63.81
G1 X22.96 Y-62.00
G1 X23.53 Y-61.14 F88.09
G1 X24.11 Y-60.28 F93.27
G1 X24.16 Y-60.20 F88.09
G1 X24.22 Y-60.12 F82.91
G1 X24.24 Y-60.08 F77.72
G1 X24.27 Y-60.03 F72.54
G1 X24.32 Y-59.95
G1 X24.38 Y-59.87
G1 X24.40 Y-59.83
G1 X24.43 Y-59.79
G1 X24.48 Y-59.70
G1 X24.54 Y-59.62
G1 X24.56 Y-59.58
G1 X24.59 Y-59.54
G1 X24.64 Y-59.47
G1 X24.68 Y-59.39
G1 X24.72 Y-59.34
G1 X24.75 Y-59.28
G1 X24.82 Y-59.17
G1 X24.89 Y-59.06
G1 X24.93 Y-59.00
G1 X24.97 Y-58.94
G1 X25.00 Y-58.89
G1 X25.04 Y-58.83
G1 X25.11 Y-58.72
G1 X25.17 Y-58.60
G1 X25.21 Y-58.54
G1 X25.25 Y-58.48
G1 X25.28 Y-58.43
G1 X25.32 Y-58.37
G1 X25.35 Y-58.31
G1 X25.39 Y-58.26
G1 X25.45 Y-58.14
G1 X25.52 Y-58.03
G1 X25.56 Y-57.98
G1 X25.59 Y-57.92
G1 X25.62 Y-57.86
G1 X25.66 Y-57.81
G1 X25.69 Y-57.75
G1 X25.73 Y-57.69
G1 X25.77 Y-57.62
G1 X25.81 Y-57.54
G1 X25.84 Y-57.50
G1 X25.86 Y-57.47
G1 X25.90 Y-57.39
G1 X25.94 Y-57.31
G1 X25.97 Y-57.28
G1 X25.99 Y-57.24
G1 X26.03 Y-57.16
G1 X26.07 Y-57.09
G1 X26.09 Y-57.05
G1 X26.12 Y-57.01
G1 X26.16 Y-56.94
G1 X26.19 Y-56.87
G1 X26.22 Y-56.82
G1 X26.25 Y-56.78
G1 X26.30 Y-56.69
G1 X26.35 Y-56.60
G1 X26.40 Y-56.51
G1 X26.45 Y-56.42
G1 X26.48 Y-56.37
G1 X26.50 Y-56.32
G1 X26.54 Y-56.26
G1 X26.58 Y-56.19
G1 X26.62 Y-56.13
G1 X26.66 Y-56.06
G1 X26.68 Y-56.03
G1 X26.70 Y-56.00
G1 X26.73 Y-55.93
G1 X26.77 Y-55.87
G1 X26.80 Y-55.83
G1 X26.82 Y-55.79
G1 X26.85 Y-55.74
G1 X26.89 Y-55.68
G1 X26.92 Y-55.63
G1 X26.95 Y-55.57
G1 X26.99 Y-55.52
G1 X27.02 Y-55.47
G1 X27.05 Y-55.41
G1 X27.09 Y-55.36
G1 X27.09 Y-55.36
G1 X27.09 Y-55.35
G1 X27.09 Y-55.35
G1 X27.09 Y-55.35
G1 X27.09 Y-55.35
G1 X27.10 Y-55.35
G1 X27.10 Y-55.35
G1 X27.10 Y-55.35
G1 X27.10 Y-55.34
G1 X27.10 Y-55.34
G1 X27.11 Y-55.34
G1 X27.11 Y-55.34
G1 X27.11 Y-55.34
G1 X27.11 Y-55.34
G1 X27.12 Y-55.33
G1 X27.12 Y-55.33
G1 X27.12 Y-55.33
G1 X27.12 Y-55.33
G1 X27.13 Y-55.33
G1 X27.13 Y-55.33
G1 X27.14 Y-55.33
G1 X27.14 Y-55.33
G1 X27.14 Y-55.33
G1 X27.14 Y-55.33
G1 X27.15 Y-55.33
G1 X27.15 Y-55.33
G1 X27.16 Y-55.33
G1 X27.16 Y-55.33
G1 X27.16 Y-55.33
G1 X27.16 Y-55.33
G1 X27.17 Y-55.33
G1 X27.17 Y-55.33
G1 X27.17 Y-55.33
G1 X27.17 Y-55.33
G1 X27.17 Y-55.33
G1 X27.18 Y-55.34
G1 X27.18 Y-55.34
G1 X27.18 Y-55.34
G1 X27.18 Y-55.34
G1 X27.18 Y-55.34
G1 X27.18 Y-55.34
G1 X27.19 Y-55.34
G1 X27.19 Y-55.34
G1 X27.19 Y-55.35
G1 X27.19 Y-55.35
G1 X27.20 Y-55.36
G1 X27.20 Y-55.36
G1 X27.21 Y-55.36
G1 X27.21 Y-55.37
G1 X27.22 Y-55.37
G1 X27.22 Y-55.38
G1 X27.23 Y-55.39
G1 X27.24 Y-55.40
G1 X27.24 Y-55.40
G1 X27.25 Y-55.41
G1 X27.26 Y-55.42
G1 X27.26 Y-55.43
G1 X27.27 Y-55.44
G1 X27.28 Y-55.45
G1 X27.28 Y-55.46
G1 X27.29 Y-55.47
G1 X27.30 Y-55.48
G1 X27.30 Y-55.49
G1 X27.30 Y-55.49
G1 X27.31 Y-55.50
G1 X27.31 Y-55.50
G1 X27.32 Y-55.51
G1 X27.32 Y-55.52
G1 X27.32 Y-55.53
G1 X27.33 Y-55.54
G1 X27.33 Y-55.54
G1 X27.34 Y-55.55
G1 X27.34 Y-55.56
G1 X27.35 Y-55.57
G1 X27.35 Y-55.58
G1 X27.36 Y-55.60
G1 X27.36 Y-55.61
G1 X27.37 Y-55.61
G1 X27.37 Y-55.61
G1 X27.37 Y-55.62
G1 X27.37 Y-55.62
G1 X27.37 Y-55.62
G1 X27.37 Y-55.62
G1 X27.37 Y-55.62
G1 X27.37 Y-55.62
G1 X27.38 Y-55.63
G1 X27.38 Y-55.63
G1 X27.38 Y-55.63
G1 X27.38 Y-55.63
G1 X27.38 Y-55.63
G1 X27.38 Y-55.63
G1 X27.38 Y-55.63
G1 X27.39 Y-55.64
G1 X27.39 Y-55.64
G1 X27.39 Y-55.64
G1 X27.39 Y-55.64
G1 X27.39 Y-55.64
G1 X27.39 Y-55.64
G1 X27.40 Y-55.64
G1 X27.40 Y-55.64
G1 X27.40 Y-55.64
G1 X27.40 Y-55.64
G1 X27.40 Y-55.64
G1 X27.40 Y-55.64
G1 X27.41 Y-55.64
G1 X27.41 Y-55.64
G1 X27.41 Y-55.65
G1 X27.42 Y-55.65
G1 X27.42 Y-55.65
G1 X27.42 Y-55.65
G1 X27.42 Y-55.65
G1 X27.43 Y-55.65
G1 X27.43 Y-55.64
G1 X27.43 Y-55.64
G1 X27.43 Y-55.64
G1 X27.44 Y-55.64
G1 X27.44 Y-55.64
G1 X27.44 Y-55.64
G1 X27.45 Y-55.64
G1 X27.45 Y-55.64
G1 X27.45 Y-55.64
G1 X27.45 Y-55.64
G1 X27.45 Y-55.63
G1 X27.46 Y-55.63
G1 X27.46 Y-55.63
G1 X27.46 Y-55.63
G1 X27.46 Y-55.63
G1 X27.47 Y-55.63
G1 X27.47 Y-55.62
G1 X27.47 Y-55.62
G1 X27.47 Y-55.62
G1 X27.47 Y-55.62
G1 X27.47 Y-55.62
G1 X27.48 Y-55.62
G1 X27.48 Y-55.61
G1 X27.48 Y-55.61
G1 X27.48 Y-55.61
G1 X27.48 Y-55.60
G1 X27.48 Y-55.60
G1 X27.48 Y-55.60
G1 X27.49 Y-55.60
G1 X27.49 Y-55.60
G1 X27.49 Y-55.59
G1 X27.49 Y-55.59
G1 X27.49 Y-55.59
G1 X27.49 Y-55.59
G1 X27.49 Y-55.57
G1 X27.49 Y-55.56
G1 X27.50 Y-55.55
G1 X27.50 Y-55.54
G1 X27.50 Y-55.53
G1 X27.50 Y-55.52
G1 X27.51 Y-55.49
G1 X27.51 Y-55.47
G1 X27.51 Y-55.44
G1 X27.52 Y-55.42
G1 X27.52 Y-55.41
G1 X27.52 Y-55.40
G1 X27.52 Y-55.38
G1 X27.52 Y-55.37
G1 X27.53 Y-55.36
G1 X27.53 Y-55.35
G1 X27.53 Y-55.34
G1 X27.53 Y-55.33
G1 X27.53 Y-55.31
G1 X27.53 Y-55.29
G1 X27.54 Y-55.24
G1 X27.54 Y-55.19
G1 X27.55 Y-55.14
G1 X27.55 Y-55.08
G1 X27.55 Y-55.03
G1 X27.56 Y-54.98
G1 X27.56 Y-54.93
G1 X27.56 Y-54.88
G1 X27.57 Y-54.83
G1 X27.57 Y-54.78
G1 X27.58 Y-54.64
G1 X27.59 Y-54.51
G1 X27.59 Y-54.46
G1 X27.60 Y-54.41
G1 X27.60 Y-54.35
G1 X27.60 Y-54.30
G1 X27.61 Y-54.25
G1 X27.61 Y-54.20
G1 X27.62 Y-54.09
G1 X27.63 Y-53.99
G1 X27.63 Y-53.93
G1 X27.64 Y-53.87
G1 X27.64 Y-53.82
G1 X27.65 Y-53.76
G1 X27.65 Y-53.70
G1 X27.66 Y-53.65
G1 X27.66 Y-53.59
G1 X27.67 Y-53.53
G1 X27.68 Y-53.44
G1 X27.68 Y-53.35
G1 X27.69 Y-53.29
G1 X27.70 Y-53.24
G1 X27.70 Y-53.19
G1 X27.71 Y-53.13
G1 X27.71 Y-53.08
G1 X27.72 Y-53.02
G1 X27.72 Y-52.98
G1 X27.73 Y-52.94
G1 X27.73 Y-52.91
G1 X27.73 Y-52.88
G1 X27.73 Y-52.86
G1 X27.74 Y-52.83
G1 X27.74 Y-52.78
G1 X27.75 Y-52.73
G1 X27.75 Y-52.70
G1 X27.76 Y-52.67
G1 X27.76 Y-52.66
G1 X27.76 Y-52.65
G1 X27.76 Y-52.63
G1 X27.76 Y-52.62
G1 X27.77 Y-52.61
G1 X27.77 Y-52.60
G1 X27.77 Y-52.58
G1 X27.77 Y-52.57
G1 X27.78 Y-52.55
G1 X27.78 Y-52.52
G1 X27.79 Y-52.50
G1 X27.79 Y-52.47
G1 X27.80 Y-52.46
G1 X27.80 Y-52.45
G1 X27.80 Y-52.42
G1 X27.81 Y-52.40
G1 X27.81 Y-52.39
G1 X27.82 Y-52.37
G1 X27.82 Y-52.36
G1 X27.82 Y-52.35
G1 X27.83 Y-52.34
G1 X27.83 Y-52.33
G1 X27.83 Y-52.31
G1 X27.84 Y-52.30
G1 X27.84 Y-52.28
G1 X27.85 Y-52.25
G1 X27.86 Y-52.23
G1 X27.87 Y-52.21
G1 X27.87 Y-52.19
G1 X27.87 Y-52.18
G1 X27.88 Y-52.17
G1 X27.88 Y-52.16
G1 X27.89 Y-52.15
G1 X27.89 Y-52.14
G1 X27.90 Y-52.12
G1 X27.90 Y-52.11
G1 X27.90 Y-52.10
G1 X27.91 Y-52.09
G1 X27.91 Y-52.08
G1 X27.92 Y-52.07
G1 X27.92 Y-52.06
G1 X27.92 Y-52.05
G1 X27.93 Y-52.05
G1 X27.93 Y-52.04
G1 X27.94 Y-52.03
G1 X27.94 Y-52.01
G1 X27.95 Y-52.00
G1 X27.96 Y-51.99
G1 X27.96 Y-51.98
G1 X27.97 Y-51.96
G1 X27.98 Y-51.96
G1 X27.98 Y-51.95
G1 X27.99 Y-51.94
G1 X28.00 Y-51.93
G1 X28.00 Y-51.92
G1 X28.01 Y-51.90
G1 X28.02 Y-51.90
G1 X28.02 Y-51.89
G1 X28.03 Y-51.88
G1 X28.04 Y-51.87
G1 X28.04 Y-51.86
G1 X28.05 Y-51.86
G1 X28.05 Y-51.85
G1 X28.06 Y-51.85
G1 X28.07 Y-51.84
G1 X28.08 Y-51.83
G1 X28.09 Y-51.82
G1 X28.10 Y-51.81
G1 X28.11 Y-51.80
G1 X28.12 Y-51.79
G1 X28.12 Y-51.78
G1 X28.13 Y-51.78
G1 X28.14 Y-51.77
G1 X28.15 Y-51.76
G1 X28.16 Y-51.75
G1 X28.16 Y-51.75
G1 X28.17 Y-51.74
G1 X28.18 Y-51.73
G1 X28.19 Y-51.73
G1 X28.20 Y-51.72
G1 X28.21 Y-51.72
G1 X28.21 Y-51.71
G1 X28.22 Y-51.71
G1 X28.23 Y-51.70
G1 X28.24 Y-51.69
G1 X28.26 Y-51.68
G1 X28.26 Y-51.68
G1 X28.27 Y-51.67
G1 X28.29 Y-51.67
G1 X28.30 Y-51.66
G1 X28.32 Y-51.65
G1 X28.33 Y-51.64
G1 X28.34 Y-51.64
G1 X28.35 Y-51.63
G1 X28.35 Y-51.63
G1 X28.36 Y-51.62
G1 X28.37 Y-51.62
G1 X28.38 Y-51.62
G1 X28.38 Y-51.61
G1 X28.39 Y-51.61
G1 X28.40 Y-51.61
G1 X28.41 Y-51.60
G1 X28.42 Y-51.60
G1 X28.42 Y-51.60
G1 X28.43 Y-51.59
G1 X28.44 Y-51.59
G1 X28.45 Y-51.59
G1 X28.46 Y-51.58
G1 X28.46 Y-51.58
G1 X28.47 Y-51.58
G1 X28.48 Y-51.57
G1 X28.49 Y-51.57
G1 X28.50 Y-51.57
G1 X28.52 Y-51.56
G1 X28.54 Y-51.56
G1 X28.55 Y-51.55
G1 X28.57 Y-51.55
G1 X28.59 Y-51.54
G1 X28.59 Y-51.54
G1 X28.60 Y-51.54
G1 X28.61 Y-51.54
G1 X28.62 Y-51.53
G1 X28.63 Y-51.53
G1 X28.64 Y-51.53
G1 X28.64 Y-51.53
G1 X28.65 Y-51.53
G1 X28.69 Y-51.52
G1 X28.73 Y-51.51
G1 X28.75 Y-51.51
G1 X28.77 Y-51.51
G1 X28.79 Y-51.50
G1 X28.81 Y-51.50
G1 X28.83 Y-51.50
G1 X28.85 Y-51.49
G1 X28.87 Y-51.49
G1 X28.89 Y-51.49
G1 X28.93 Y-51.48
G1 X28.97 Y-51.47
G1 X28.99 Y-51.47
G1 X29.01 Y-51.47
G1 X29.03 Y-51.47
G1 X29.05 Y-51.46
G1 X29.07 Y-51.46
G1 X29.09 Y-51.46
G1 X29.11 Y-51.46
G1 X29.13 Y-51.45
G1 X29.17 Y-51.45
G1 X29.21 Y-51.44
G1 X29.23 Y-51.44
G1 X29.25 Y-51.44
G1 X29.27 Y-51.44
G1 X29.29 Y-51.44
G1 X29.33 Y-51.43
G1 X29.37 Y-51.43
G1 X29.39 Y-51.43
G1 X29.42 Y-51.43
G1 X29.45 Y-51.42
G1 X29.49 Y-51.42
G1 X29.51 Y-51.42
G1 X29.53 Y-51.42
G1 X29.55 Y-51.42
G1 X29.56 Y-51.42
G1 X29.58 Y-51.41
G1 X29.60 Y-51.41
G1 X29.62 Y-51.41
G1 X29.63 Y-51.41
G1 X29.67 Y-51.41
G1 X29.70 Y-51.40
G1 X29.74 Y-51.40
G1 X29.78 Y-51.39
G1 X29.79 Y-51.39
G1 X29.81 Y-51.39
G1 X29.83 Y-51.39
G1 X29.85 Y-51.38
G1 X29.88 Y-51.38
G1 X29.92 Y-51.37
G1 X29.93 Y-51.37
G1 X29.95 Y-51.37
G1 X29.99 Y-51.36
G1 X30.02 Y-51.35
G1 X30.04 Y-51.35
G1 X30.06 Y-51.35
G1 X30.08 Y-51.34
G1 X30.09 Y-51.34
G1 X30.11 Y-51.34
G1 X30.13 Y-51.33
G1 X30.16 Y-51.33
G1 X30.18 Y-51.32
G1 X30.20 Y-51.32
G1 X30.21 Y-51.32
G1 X30.24 Y-51.31
G1 X30.26 Y-51.30
G1 X30.28 Y-51.30
G1 X30.29 Y-51.30
G1 X30.31 Y-51.29
G1 X30.32 Y-51.29
G1 X30.33 Y-51.29
G1 X30.35 Y-51.28
G1 X30.36 Y-51.28
G1 X30.37 Y-51.27
G1 X30.39 Y-51.27
G1 X30.40 Y-51.27
G1 X30.41 Y-51.26
G1 X30.43 Y-51.26
G1 X30.44 Y-51.25
G1 X30.45 Y-51.25
G1 X30.48 Y-51.24
G1 X30.51 Y-51.23
G1 X30.53 Y-51.22
G1 X30.56 Y-51.21
G1 X30.57 Y-51.21
G1 X30.59 Y-51.20
G1 X30.61 Y-51.19
G1 X30.64 Y-51.19
G1 X30.65 Y-51.18
G1 X30.67 Y-51.17
G1 X30.69 Y-51.16
G1 X30.72 Y-51.15
G1 X30.73 Y-51.15
G1 X30.74 Y-51.14
G1 X30.76 Y-51.14
G1 X30.78 Y-51.13
G1 X30.80 Y-51.12
G1 X30.82 Y-51.11
G1 X30.83 Y-51.10
G1 X30.85 Y-51.10
G1 X30.86 Y-51.09
G1 X30.87 Y-51.09
G1 X30.88 Y-51.08
G1 X30.89 Y-51.07
G1 X30.90 Y-51.07
G1 X30.91 Y-51.06
G1 X30.93 Y-51.06
G1 X30.94 Y-51.05
G1 X30.95 Y-51.04
G1 X30.96 Y-51.04
G1 X30.98 Y-51.03
G1 X31.01 Y-51.01
G1 X31.03 Y-51.00
G1 X31.05 Y-50.99
G1 X31.07 Y-50.97
G1 X31.09 Y-50.96
G1 X31.11 Y-50.95
G1 X31.12 Y-50.95
G1 X31.13 Y-50.94
G1 X31.14 Y-50.93
G1 X31.16 Y-50.92
G1 X31.18 Y-50.90
G1 X31.19 Y-50.90
G1 X31.20 Y-50.89
G1 X31.21 Y-50.88
G1 X31.22 Y-50.87
G1 X31.23 Y-50.87
G1 X31.24 Y-50.86
G1 X31.26 Y-50.85
G1 X31.27 Y-50.84
G1 X31.28 Y-50.83
G1 X31.29 Y-50.82
G1 X31.30 Y-50.82
G1 X31.31 Y-50.81
G1 X31.32 Y-50.80
G1 X31.33 Y-50.79
G1 X31.34 Y-50.78
G1 X31.35 Y-50.78
G1 X31.36 Y-50.77
G1 X31.37 Y-50.76
G1 X31.38 Y-50.75
G1 X31.39 Y-50.74
G1 X31.41 Y-50.73
G1 X31.43 Y-50.71
G1 X31.44 Y-50.70
G1 X31.45 Y-50.70
G1 X31.47 Y-50.68
G1 X31.49 Y-50.66
G1 X31.51 Y-50.64
G1 X31.52 Y-50.63
G1 X31.53 Y-50.62
G1 X31.54 Y-50.61
G1 X31.55 Y-50.60
G1 X31.56 Y-50.59
G1 X31.57 Y-50.58
G1 X31.58 Y-50.57
G1 X31.59 Y-50.56
G1 X31.59 Y-50.56
G1 X31.61 Y-50.54
G1 X31.63 Y-50.52
G1 X31.64 Y-50.51
G1 X31.65 Y-50.50
G1 X31.66 Y-50.48
G1 X31.68 Y-50.46
G1 X31.69 Y-50.45
G1 X31.69 Y-50.45
G1 X31.70 Y-50.43
G1 X31.71 Y-50.42
G1 X31.73 Y-50.41
G1 X31.74 Y-50.40
G1 X31.74 Y-50.40
G1 X31.75 Y-50.39
G1 X31.76 Y-50.38
G1 X31.77 Y-50.37
G1 X31.78 Y-50.37
G1 X31.78 Y-50.36
G1 X31.79 Y-50.36
G1 X31.79 Y-50.35
G1 X31.81 Y-50.34
G1 X31.82 Y-50.33
G1 X31.83 Y-50.32
G1 X31.84 Y-50.32
G1 X31.86 Y-50.31
G1 X31.87 Y-50.30
G1 X31.89 Y-50.29
G1 X31.90 Y-50.28
G1 X31.91 Y-50.27
G1 X31.92 Y-50.27
G1 X31.92 Y-50.26
G1 X31.93 Y-50.26
G1 X31.94 Y-50.25
G1 X31.95 Y-50.25
G1 X31.95 Y-50.25
G1 X31.96 Y-50.24
G1 X31.97 Y-50.24
G1 X31.98 Y-50.23
G1 X31.98 Y-50.23
G1 X31.99 Y-50.23
G1 X32.00 Y-50.22
G1 X32.01 Y-50.22
G1 X32.02 Y-50.21
G1 X32.04 Y-50.20
G1 X32.06 Y-50.20
G1 X32.07 Y-50.19
G1 X32.09 Y-50.18
G1 X32.11 Y-50.17
G1 X32.12 Y-50.17
G1 X32.13 Y-50.17
G1 X32.15 Y-50.16
G1 X32.17 Y-50.15
G1 X32.18 Y-50.15
G1 X32.20 Y-50.14
G1 X32.21 Y-50.14
G1 X32.22 Y-50.13
G1 X32.23 Y-50.13
G1 X32.24 Y-50.13
G1 X32.25 Y-50.13
G1 X32.27 Y-50.12
G1 X32.28 Y-50.12
G1 X32.29 Y-50.11
G1 X32.30 Y-50.11
G1 X32.32 Y-50.11
G1 X32.33 Y-50.11
G1 X32.34 Y-50.10
G1 X32.36 Y-50.10
G1 X32.39 Y-50.09
G1 X32.40 Y-50.09
G1 X32.41 Y-50.09
G1 X32.44 Y-50.08
G1 X32.46 Y-50.08
G1 X32.47 Y-50.08
G1 X32.48 Y-50.07
G1 X32.49 Y-50.07
G1 X32.51 Y-50.07
G1 X32.53 Y-50.07
G1 X32.56 Y-50.06
G1 X32.57 Y-50.06
G1 X32.58 Y-50.06
G1 X32.59 Y-50.06
G1 X32.61 Y-50.05
G1 X32.62 Y-50.05
G1 X32.63 Y-50.05
G1 X32.65 Y-50.05
G1 X32.66 Y-50.04
G1 X32.67 Y-50.04
G1 X32.68 Y-50.04
G1 X32.71 Y-50.03
G1 X32.73 Y-50.03
G1 X32.76 Y-50.02
G1 X32.79 Y-50.02
G1 X32.80 Y-50.01
G1 X32.81 Y-50.01
G1 X32.84 Y-50.00
G1 X32.86 Y-50.00
G1 X32.88 Y-49.99
G1 X32.89 Y-49.99
G1 X32.90 Y-49.98
G1 X32.90 Y-49.98
G1 X32.91 Y-49.98
G1 X32.91 Y-49.98
G1 X32.92 Y-49.98
G1 X32.93 Y-49.97
G1 X32.93 Y-49.97
G1 X32.94 Y-49.97
G1 X32.94 Y-49.97
G1 X32.95 Y-49.97
G1 X32.96 Y-49.96
G1 X32.97 Y-49.96
G1 X32.98 Y-49.95
G1 X32.99 Y-49.95
G1 X33.00 Y-49.94
G1 X33.00 Y-49.94
G1 X33.01 Y-49.94
G1 X33.01 Y-49.93
G1 X33.02 Y-49.93
G1 X33.03 Y-49.92
G1 X33.04 Y-49.92
G1 X33.04 Y-49.91
G1 X33.05 Y-49.91
G1 X33.06 Y-49.90
G1 X33.07 Y-49.90
G1 X33.07 Y-49.89
G1 X33.08 Y-49.89
G1 X33.09 Y-49.88
G1 X33.10 Y-49.87
G1 X33.11 Y-49.87
G1 X33.11 Y-49.86
G1 X33.12 Y-49.86
G1 X33.13 Y-49.85
G1 X33.13 Y-49.84
G1 X33.14 Y-49.84
G1 X33.14 Y-49.83
G1 X33.15 Y-49.83
G1 X33.16 Y-49.82
G1 X33.16 Y-49.82
G1 X33.17 Y-49.81
G1 X33.18 Y-49.80
G1 X33.19 Y-49.79
G1 X33.20 Y-49.78
G1 X33.20 Y-49.77
G1 X33.21 Y-49.77
G1 X33.21 Y-49.76
G1 X33.22 Y-49.75
G1 X33.23 Y-49.74
G1 X33.24 Y-49.73
G1 X33.24 Y-49.72
G1 X33.25 Y-49.71
G1 X33.26 Y-49.70
G1 X33.27 Y-49.69
G1 X33.27 Y-49.68
G1 X33.28 Y-49.68
G1 X33.28 Y-49.67
G1 X33.29 Y-49.66
G1 X33.30 Y-49.64
G1 X33.32 Y-49.61
G1 X33.34 Y-49.58
G1 X33.36 Y-49.56
G1 X33.38 Y-49.53
G1 X33.39 Y-49.50
G1 X33.41 Y-49.47
G1 X33.43 Y-49.44
G1 X33.45 Y-49.41
G1 X33.46 Y-49.39
G1 X33.48 Y-49.36
G1 X33.52 Y-49.30
G1 X33.55 Y-49.24
G1 X33.57 Y-49.22
G1 X33.59 Y-49.19
G1 X33.62 Y-49.12
G1 X33.66 Y-49.06
G1 X33.67 Y-49.04
G1 X33.68 Y-49.02
G1 X33.70 Y-49.00
G1 X33.71 Y-48.99
G1 X33.73 Y-48.95
G1 X33.75 Y-48.91
G1 X33.76 Y-48.90
G1 X33.78 Y-48.88
G1 X33.79 Y-48.86
G1 X33.80 Y-48.84
G1 X33.81 Y-48.82
G1 X33.82 Y-48.80
G1 X33.85 Y-48.77
G1 X33.87 Y-48.73
G1 X33.89 Y-48.70
G1 X33.91 Y-48.67
G1 X33.94 Y-48.63
G1 X33.97 Y-48.59
G1 X33.98 Y-48.58
G1 X33.99 Y-48.56
G1 X34.01 Y-48.54
G1 X34.02 Y-48.52
G1 X34.03 Y-48.50
G1 X34.05 Y-48.48
G1 X34.06 Y-48.46
G1 X34.07 Y-48.45
G1 X34.09 Y-48.43
G1 X34.10 Y-48.41
G1 X34.12 Y-48.39
G1 X34.13 Y-48.37
G1 X34.15 Y-48.35
G1 X34.16 Y-48.33
G1 X34.17 Y-48.32
G1 X34.19 Y-48.30
G1 X34.21 Y-48.27
G1 X34.24 Y-48.23
G1 X34.25 Y-48.21
G1 X34.27 Y-48.20
G1 X34.29 Y-48.16
G1 X34.32 Y-48.13
G1 X34.35 Y-48.10
G1 X34.38 Y-48.07
G1 X34.38 Y-48.06
G1 X34.39 Y-48.05
G1 X34.41 Y-48.03
G1 X34.42 Y-48.02
G1 X34.43 Y-48.01
G1 X34.43 Y-48.00
G1 X34.44 Y-47.99
G1 X34.45 Y-47.99
G1 X34.45 Y-47.98
G1 X34.46 Y-47.97
G1 X34.47 Y-47.97
G1 X34.47 Y-47.96
G1 X34.48 Y-47.95
G1 X34.49 Y-47.94
G1 X34.50 Y-47.94
G1 X34.50 Y-47.93
G1 X34.51 Y-47.92
G1 X34.52 Y-47.92
G1 X34.53 Y-47.91
G1 X34.53 Y-47.90
G1 X34.54 Y-47.90
G1 X34.55 Y-47.89
G1 X34.57 Y-47.88
G1 X34.58 Y-47.86
G1 X34.59 Y-47.85
G1 X34.60 Y-47.84
G1 X34.61 Y-47.84
G1 X34.62 Y-47.83
G1 X34.63 Y-47.82
G1 X34.64 Y-47.81
G1 X34.65 Y-47.80
G1 X34.66 Y-47.79
G1 X34.67 Y-47.78
G1 X34.68 Y-47.78
G1 X34.69 Y-47.77
G1 X34.70 Y-47.76
G1 X34.71 Y-47.75
G1 X34.71 Y-47.74
G1 X34.72 Y-47.73
G1 X34.73 Y-47.72
G1 X34.74 Y-47.71
G1 X34.75 Y-47.70
G1 X34.76 Y-47.69
G1 X34.77 Y-47.68
G1 X34.78 Y-47.68
G1 X34.79 Y-47.67
G1 X34.79 Y-47.66
G1 X34.80 Y-47.65
G1 X34.80 Y-47.65
G1 X34.80 Y-47.65
G1 X34.81 Y-47.64
G1 X34.82 Y-47.63
G1 X34.82 Y-47.62
G1 X34.83 Y-47.61
G1 X34.84 Y-47.60
G1 X34.84 Y-47.59
G1 X34.85 Y-47.59
G1 X34.85 Y-47.58
G1 X34.86 Y-47.57
G1 X34.86 Y-47.56
G1 X34.86 Y-47.56
G1 X34.87 Y-47.55
G1 X34.87 Y-47.55
G1 X34.87 Y-47.54
G1 X34.88 Y-47.53
G1 X34.88 Y-47.52
G1 X34.88 Y-47.51
G1 X34.89 Y-47.50
G1 X34.89 Y-47.50
G1 X34.89 Y-47.49
G1 X34.90 Y-47.48
G1 X34.90 Y-47.48
G1 X34.90 Y-47.47
G1 X34.90 Y-47.47
G1 X34.90 Y-47.45
G1 X34.91 Y-47.44
G1 X34.91 Y-47.43
G1 X34.91 Y-47.43
G1 X34.91 Y-47.41
G1 X34.92 Y-47.40
G1 X34.92 Y-47.39
G1 X34.92 Y-47.38
G1 X34.92 Y-47.37
G1 X34.92 Y-47.36
G1 X34.92 Y-47.36
G1 X34.93 Y-47.35
G1 X34.93 Y-47.34
G1 X34.93 Y-47.34
G1 X34.93 Y-47.33
G1 X34.93 Y-47.32
G1 X34.93 Y-47.32
G1 X34.93 Y-47.31
G1 X34.93 Y-47.31
G1 X34.93 Y-47.30
G1 X34.93 Y-47.29
G1 X34.93 Y-47.29
G1 X34.93 Y-47.28
G1 X34.93 Y-47.27
G1 X34.93 Y-47.25
G1 X34.93 Y-47.23
G1 X34.93 Y-47.19
G1 X34.93 Y-47.15
G1 X34.93 Y-47.11
G1 X34.93 Y-47.06
G1 X34.92 Y-47.02
G1 X34.92 Y-46.98
G1 X34.92 Y-46.94
G1 X34.92 Y-46.90
G1 X34.92 Y-46.86
G1 X34.91 Y-46.83
G1 X34.91 Y-46.81
G1 X34.91 Y-46.79
G1 X34.91 Y-46.76
G1 X34.91 Y-46.73
G1 X34.91 Y-46.70
G1 X34.91 Y-46.67
G1 X34.91 Y-46.64
G1 X34.91 Y-46.61
G1 X34.91 Y-46.59
G1 X34.91 Y-46.58
G1 X34.91 Y-46.56
G1 X34.91 Y-46.55
G1 X34.91 Y-46.53
G1 X34.91 Y-46.52
G1 X34.91 Y-46.50
G1 X34.91 Y-46.49
G1 X34.91 Y-46.47
G1 X34.91 Y-46.46
G1 X34.91 Y-46.44
G1 X34.92 Y-46.41
G1 X34.92 Y-46.39
G1 X34.92 Y-46.37
G1 X34.92 Y-46.36
G1 X34.92 Y-46.35
G1 X34.92 Y-46.33
G1 X34.93 Y-46.31
G1 X34.93 Y-46.30
G1 X34.93 Y-46.28
G1 X34.93 Y-46.27
G1 X34.93 Y-46.26
G1 X34.93 Y-46.25
G1 X34.94 Y-46.24
G1 X34.94 Y-46.22
G1 X34.94 Y-46.20
G1 X34.95 Y-46.19
G1 X34.95 Y-46.17
G1 X34.95 Y-46.16
G1 X34.95 Y-46.15
G1 X34.96 Y-46.14
G1 X34.96 Y-46.13
G1 X34.96 Y-46.12
G1 X34.96 Y-46.11
G1 X34.97 Y-46.10
G1 X34.97 Y-46.08
G1 X34.97 Y-46.07
G1 X34.98 Y-46.06
G1 X34.98 Y-46.05
G1 X34.98 Y-46.04
G1 X34.98 Y-46.03
G1 X34.99 Y-46.02
G1 X34.99 Y-46.00
G1 X35.00 Y-45.98
G1 X35.01 Y-45.96
G1 X35.01 Y-45.93
G1 X35.02 Y-45.92
G1 X35.02 Y-45.91
G1 X35.03 Y-45.90
G1 X35.03 Y-45.89
G1 X35.04 Y-45.87
G1 X35.04 Y-45.85
G1 X35.05 Y-45.84
G1 X35.06 Y-45.82
G1 X35.06 Y-45.81
G1 X35.07 Y-45.79
G1 X35.08 Y-45.77
G1 X35.08 Y-45.76
G1 X35.09 Y-45.74
G1 X35.09 Y-45.73
G1 X35.11 Y-45.70
G1 X35.12 Y-45.66
G1 X35.13 Y-45.65
G1 X35.14 Y-45.63
G1 X35.15 Y-45.60
G1 X35.16 Y-45.57
G1 X35.17 Y-45.56
G1 X35.18 Y-45.54
G1 X35.19 Y-45.51
G1 X35.21 Y-45.48
G1 X35.22 Y-45.46
G1 X35.23 Y-45.43
G1 X35.24 Y-45.41
G1 X35.24 Y-45.40
G1 X35.26 Y-45.37
G1 X35.27 Y-45.34
G1 X35.28 Y-45.32
G1 X35.29 Y-45.29
G1 X35.30 Y-45.26
G1 X35.31 Y-45.23
G1 X35.32 Y-45.22
G1 X35.33 Y-45.20
G1 X35.33 Y-45.18
G1 X35.34 Y-45.16
G1 X35.36 Y-45.11
G1 X35.37 Y-45.07
G1 X35.39 Y-45.02
G1 X35.40 Y-44.98
G1 X35.41 Y-44.96
G1 X35.42 Y-44.94
G1 X35.43 Y-44.89
G1 X35.45 Y-44.85
G1 X35.46 Y-44.83
G1 X35.46 Y-44.80
G1 X35.47 Y-44.78
G1 X35.48 Y-44.76
G1 X35.49 Y-44.71
G1 X35.50 Y-44.67
G1 X35.51 Y-44.64
G1 X35.52 Y-44.62
G1 X35.52 Y-44.60
G1 X35.53 Y-44.58
G1 X35.54 Y-44.55
G1 X35.54 Y-44.53
G1 X35.55 Y-44.51
G1 X35.56 Y-44.49
G1 X35.56 Y-44.46
G1 X35.57 Y-44.44
G1 X35.58 Y-44.42
G1 X35.58 Y-44.40
G1 X35.59 Y-44.38
G1 X35.59 Y-44.35
G1 X35.60 Y-44.34
G1 X35.60 Y-44.32
G1 X35.61 Y-44.29
G1 X35.62 Y-44.25
G1 X35.63 Y-44.22
G1 X35.63 Y-44.18
G1 X35.64 Y-44.16
G1 X35.64 Y-44.15
G1 X35.65 Y-44.11
G1 X35.65 Y-44.08
G1 X35.66 Y-44.03
G1 X35.67 Y-43.98
G1 X35.68 Y-43.96
G1 X35.68 Y-43.94
G1 X35.69 Y-43.91
G1 X35.70 Y-43.87
G1 X35.70 Y-43.86
G1 X35.70 Y-43.84
G1 X35.71 Y-43.82
G1 X35.71 Y-43.80
G1 X35.72 Y-43.77
G1 X35.73 Y-43.74
G1 X35.73 Y-43.72
G1 X35.74 Y-43.70
G1 X35.74 Y-43.67
G1 X35.75 Y-43.63
G1 X35.76 Y-43.61
G1 X35.76 Y-43.60
G1 X35.77 Y-43.58
G1 X35.77 Y-43.56
G1 X35.78 Y-43.53
G1 X35.79 Y-43.49
G1 X35.80 Y-43.46
G1 X35.81 Y-43.43
G1 X35.82 Y-43.41
G1 X35.82 Y-43.39
G1 X35.83 Y-43.38
G1 X35.84 Y-43.36
G1 X35.84 Y-43.33
G1 X35.85 Y-43.31
G1 X35.86 Y-43.29
G1 X35.87 Y-43.27
G1 X35.88 Y-43.24
G1 X35.89 Y-43.21
G1 X35.90 Y-43.18
G1 X35.91 Y-43.14
G1 X35.92 Y-43.13
G1 X35.93 Y-43.11
G1 X35.93 Y-43.10
G1 X35.94 Y-43.08
G1 X35.95 Y-43.06
G1 X35.95 Y-43.05
G1 X35.96 Y-43.03
G1 X35.96 Y-43.02
G1 X35.97 Y-43.00
G1 X35.98 Y-42.98
G1 X35.99 Y-42.95
G1 X36.01 Y-42.92
G1 X36.02 Y-42.89
G1 X36.03 Y-42.86
G1 X36.04 Y-42.84
G1 X36.05 Y-42.83
G1 X36.06 Y-42.80
G1 X36.08 Y-42.77
G1 X36.09 Y-42.74
G1 X36.10 Y-42.72
G1 X36.11 Y-42.70
G1 X36.12 Y-42.69
G1 X36.13 Y-42.67
G1 X36.14 Y-42.65
G1 X36.15 Y-42.64
G1 X36.15 Y-42.62
G1 X36.16 Y-42.60
G1 X36.17 Y-42.59
G1 X36.19 Y-42.56
G1 X36.21 Y-42.52
G1 X36.23 Y-42.49
G1 X36.24 Y-42.46
G1 X36.25 Y-42.44
G1 X36.26 Y-42.43
G1 X36.28 Y-42.40
G1 X36.30 Y-42.36
G1 X36.31 Y-42.35
G1 X36.32 Y-42.33
G1 X36.33 Y-42.32
G1 X36.34 Y-42.30
G1 X36.36 Y-42.27
G1 X36.38 Y-42.24
G1 X36.39 Y-42.22
G1 X36.40 Y-42.21
G1 X36.41 Y-42.19
G1 X36.42 Y-42.18
G1 X36.43 Y-42.16
G1 X36.44 Y-42.15
G1 X36.45 Y-42.13
G1 X36.46 Y-42.11
G1 X36.48 Y-42.09
G1 X36.49 Y-42.07
G1 X36.51 Y-42.05
G1 X36.52 Y-42.03
G1 X36.55 Y-41.99
G1 X36.57 Y-41.95
G1 X36.59 Y-41.93
G1 X36.60 Y-41.91
G1 X36.62 Y-41.90
G1 X36.63 Y-41.88
G1 X36.64 Y-41.86
G1 X36.66 Y-41.84
G1 X36.69 Y-41.80
G1 X36.72 Y-41.76
G1 X36.74 Y-41.72
G1 X36.77 Y-41.69
G1 X36.79 Y-41.67
G1 X36.80 Y-41.65
G1 X36.82 Y-41.63
G1 X36.83 Y-41.61
G1 X36.85 Y-41.59
G1 X36.86 Y-41.57
G1 X36.89 Y-41.54
G1 X36.92 Y-41.50
G1 X36.95 Y-41.47
G1 X36.97 Y-41.44
G1 X36.99 Y-41.42
G1 X37.01 Y-41.40
G1 X37.01 Y-41.39
G1 X37.02 Y-41.37
G1 X37.04 Y-41.35
G1 X37.06 Y-41.33
G1 X37.07 Y-41.31
G1 X37.09 Y-41.28
G1 X37.11 Y-41.26
G1 X37.12 Y-41.24
G1 X37.14 Y-41.21
G1 X37.16 Y-41.19
G1 X37.17 Y-41.16
G1 X37.19 Y-41.13
G1 X37.20 Y-41.11
G1 X37.22 Y-41.09
G1 X37.24 Y-41.06
G1 X37.27 Y-41.02
G1 X37.28 Y-41.00
G1 X37.29 Y-40.98
G1 X37.30 Y-40.96
G1 X37.31 Y-40.94
G1 X37.34 Y-40.90
G1 X37.36 Y-40.86
G1 X37.38 Y-40.82
G1 X37.41 Y-40.78
G1 X37.42 Y-40.76
G1 X37.43 Y-40.74
G1 X37.45 Y-40.70
G1 X37.48 Y-40.66
G1 X37.49 Y-40.63
G1 X37.50 Y-40.61
G1 X37.51 Y-40.59
G1 X37.52 Y-40.57
G1 X37.55 Y-40.53
G1 X37.57 Y-40.49
G1 X37.58 Y-40.47
G1 X37.59 Y-40.45
G1 X37.60 Y-40.43
G1 X37.61 Y-40.41
G1 X37.62 Y-40.38
G1 X37.63 Y-40.36
G1 X37.64 Y-40.34
G1 X37.65 Y-40.32
G1 X37.66 Y-40.30
G1 X37.67 Y-40.29
G1 X37.69 Y-40.25
G1 X37.70 Y-40.22
G1 X37.72 Y-40.19
G1 X37.73 Y-40.15
G1 X37.74 Y-40.13
G1 X37.75 Y-40.12
G1 X37.77 Y-40.08
G1 X37.78 Y-40.05
G1 X37.79 Y-40.03
G1 X37.80 Y-40.01
G1 X37.81 Y-39.98
G1 X37.83 Y-39.94
G1 X37.84 Y-39.90
G1 X37.86 Y-39.87
G1 X37.87 Y-39.83
G1 X37.89 Y-39.80
G1 X37.89 Y-39.78
G1 X37.90 Y-39.77
G1 X37.92 Y-39.73
G1 X37.93 Y-39.70
G1 X37.95 Y-39.67
G1 X37.97 Y-39.63
G1 X37.97 Y-39.62
G1 X37.98 Y-39.60
G1 X37.99 Y-39.58
G1 X38.00 Y-39.57
G1 X38.01 Y-39.55
G1 X38.02 Y-39.53
G1 X38.03 Y-39.50
G1 X38.05 Y-39.47
G1 X38.07 Y-39.44
G1 X38.08 Y-39.41
G1 X38.10 Y-39.38
G1 X38.12 Y-39.34
G1 X38.14 Y-39.31
G1 X38.16 Y-39.28
G1 X38.18 Y-39.25
G1 X38.20 Y-39.22
G1 X38.21 Y-39.18
G1 X38.23 Y-39.15
G1 X38.25 Y-39.12
G1 X38.27 Y-39.09
G1 X38.29 Y-39.06
G1 X38.31 Y-39.03
G1 X38.33 Y-39.00
G1 X38.35 Y-38.97
G1 X38.37 Y-38.95
G1 X38.38 Y-38.94
G1 X38.40 Y-38.90
G1 X38.42 Y-38.87
G1 X38.43 Y-38.86
G1 X38.45 Y-38.84
G1 X38.46 Y-38.82
G1 X38.47 Y-38.81
G1 X38.48 Y-38.79
G1 X38.49 Y-38.78
G1 X38.50 Y-38.76
G1 X38.52 Y-38.75
G1 X38.53 Y-38.73
G1 X38.54 Y-38.71
G1 X38.55 Y-38.70
G1 X38.56 Y-38.68
G1 X38.57 Y-38.67
G1 X38.59 Y-38.65
G1 X38.60 Y-38.63
G1 X38.62 Y-38.61
G1 X38.64 Y-38.59
G1 X38.65 Y-38.57
G1 X38.67 Y-38.55
G1 X38.68 Y-38.53
G1 X38.70 Y-38.51
G1 X38.71 Y-38.49
G1 X38.73 Y-38.47
G1 X38.75 Y-38.46
G1 X38.78 Y-38.42
G1 X38.81 Y-38.38
G1 X38.82 Y-38.36
G1 X38.84 Y-38.34
G1 X38.86 Y-38.32
G1 X38.87 Y-38.31
G1 X38.89 Y-38.29
G1 X38.90 Y-38.27
G1 X38.92 Y-38.25
G1 X38.94 Y-38.23
G1 X38.95 Y-38.21
G1 X38.97 Y-38.20
G1 X39.39 Y-37.73
G1 X39.81 Y-37.26
G1 X39.92 Y-36.60
G1 X40.03 Y-35.94
G1 X40.04 Y-35.89
G1 X40.04 Y-35.85
G1 X40.06 Y-35.76
G1 X40.07 Y-35.68
G1 X40.09 Y-35.59
G1 X40.11 Y-35.51
G1 X40.11 Y-35.46
G1 X40.12 Y-35.41
G1 X40.13 Y-35.37
G1 X40.14 Y-35.34
G1 X40.14 Y-35.31
G1 X40.15 Y-35.27
G1 X40.16 Y-35.24
G1 X40.16 Y-35.20
G1 X40.18 Y-35.14
G1 X40.19 Y-35.07
G1 X40.20 Y-35.01
G1 X40.22 Y-34.95
G1 X40.22 Y-34.90
G1 X40.23 Y-34.86
G1 X40.24 Y-34.82
G1 X40.25 Y-34.78
G1 X40.26 Y-34.74
G1 X40.27 Y-34.70
G1 X40.27 Y-34.69
G1 X40.27 Y-34.69
G1 X40.27 Y-34.68
G1 X40.27 Y-34.68
G1 X40.28 Y-34.67
G1 X40.28 Y-34.67
G1 X40.28 Y-34.67
G1 X40.28 Y-34.66
G1 X40.28 Y-34.65
G1 X40.29 Y-34.65
G1 X40.29 Y-34.64
G1 X40.29 Y-34.64
G1 X40.29 Y-34.63
G1 X40.29 Y-34.63
G1 X40.30 Y-34.63
G1 X40.30 Y-34.62
G1 X40.30 Y-34.61
G1 X40.31 Y-34.61
G1 X40.31 Y-34.60
G1 X40.31 Y-34.60
G1 X40.31 Y-34.60
G1 X40.31 Y-34.60
G1 X40.32 Y-34.60
G1 X40.32 Y-34.59
G1 X40.32 Y-34.59
G1 X40.32 Y-34.59
G1 X40.32 Y-34.59
G1 X40.32 Y-34.59
G1 X40.33 Y-34.59
G1 X40.33 Y-34.59
G1 X40.33 Y-34.59
G1 X40.33 Y-34.59
G1 X40.33 Y-34.59
G1 X40.33 Y-34.59
G1 X40.34 Y-34.59
G1 X40.34 Y-34.59
G1 X40.34 Y-34.59
G1 X40.34 Y-34.59
G1 X40.34 Y-34.59
G1 X40.35 Y-34.59
G1 X40.35 Y-34.59
G1 X40.35 Y-34.59
G1 X40.35 Y-34.59
G1 X40.36 Y-34.59
G1 X40.36 Y-34.59
G1 X40.37 Y-34.60
G1 X40.38 Y-34.60
G1 X40.38 Y-34.61
G1 X40.39 Y-34.61
G1 X40.39 Y-34.61
G1 X40.40 Y-34.62
G1 X40.40 Y-34.62
G1 X40.41 Y-34.62
G1 X40.42 Y-34.63
G1 X40.42 Y-34.63
G1 X40.43 Y-34.64
G1 X40.43 Y-34.64
G1 X40.43 Y-34.64
G1 X40.44 Y-34.65
G1 X40.44 Y-34.65
G1 X40.44 Y-34.65
G1 X40.45 Y-34.66
G1 X40.46 Y-34.67
G1 X40.47 Y-34.68
G1 X40.47 Y-34.68
G1 X40.48 Y-34.69
G1 X40.48 Y-34.69
G1 X40.49 Y-34.70
G1 X40.49 Y-34.70
G1 X40.50 Y-34.71
G1 X40.51 Y-34.72
G1 X40.52 Y-34.73
G1 X40.53 Y-34.74
G1 X40.53 Y-34.75
G1 X40.54 Y-34.75
G1 X40.54 Y-34.76
G1 X40.54 Y-34.76
G1 X40.55 Y-34.77
G1 X40.56 Y-34.78
G1 X40.57 Y-34.80
G1 X40.58 Y-34.82
G1 X40.60 Y-34.84
G1 X40.61 Y-34.86
G1 X40.62 Y-34.88
G1 X40.64 Y-34.90
G1 X40.65 Y-34.92
G1 X40.66 Y-34.94
G1 X40.68 Y-34.96 F67.36
G1 X40.82 Y-35.20 F46.63
G1 X40.96 Y-35.44
G1 X41.14 Y-35.09 F67.36
G1 X41.31 Y-34.75 F72.54
G1 X41.34 Y-34.69
G1 X41.37 Y-34.63
G1 X41.39 Y-34.59
G1 X41.40 Y-34.56
G1 X41.44 Y-34.49
G1 X41.47 Y-34.43
G1 X41.51 Y-34.36
G1 X41.54 Y-34.29
G1 X41.58 Y-34.23
G1 X41.61 Y-34.16
G1 X41.63 Y-34.13
G1 X41.65 Y-34.10
G1 X41.68 Y-34.03
G1 X41.72 Y-33.96
G1 X41.74 Y-33.92
G1 X41.77 Y-33.88
G1 X41.77 Y-33.87
G1 X41.78 Y-33.85
G1 X41.79 Y-33.84
G1 X41.80 Y-33.82
G1 X41.81 Y-33.81
G1 X41.82 Y-33.79
G1 X41.83 Y-33.78
G1 X41.83 Y-33.76
G1 X41.84 Y-33.75
G1 X41.85 Y-33.73
G1 X41.87 Y-33.70
G1 X41.89 Y-33.67
G1 X41.90 Y-33.66
G1 X41.91 Y-33.64
G1 X41.93 Y-33.62
G1 X41.95 Y-33.59
G1 X41.96 Y-33.57
G1 X41.97 Y-33.56
G1 X41.98 Y-33.53
G1 X42.00 Y-33.50
G1 X42.01 Y-33.49
G1 X42.02 Y-33.47
G1 X42.03 Y-33.46
G1 X42.04 Y-33.44
G1 X42.05 Y-33.43
G1 X42.06 Y-33.42
G1 X42.07 Y-33.40
G1 X42.08 Y-33.39
G1 X42.10 Y-33.37
G1 X42.11 Y-33.36
G1 X42.12 Y-33.35
G1 X42.13 Y-33.33
G1 X42.13 Y-33.32
G1 X42.14 Y-33.31
G1 X42.16 Y-33.30
G1 X42.17 Y-33.28
G1 X42.18 Y-33.27
G1 X42.19 Y-33.26
G1 X42.19 Y-33.25
G1 X42.20 Y-33.24
G1 X42.21 Y-33.23
G1 X42.22 Y-33.22
G1 X42.23 Y-33.20
G1 X42.25 Y-33.19
G1 X42.26 Y-33.18
G1 X42.26 Y-33.17
G1 X42.27 Y-33.16
G1 X42.28 Y-33.15
G1 X42.29 Y-33.14
G1 X42.30 Y-33.14
G1 X42.31 Y-33.13
G1 X42.31 Y-33.12
G1 X42.33 Y-33.10
G1 X42.35 Y-33.09
G1 X42.36 Y-33.08
G1 X42.37 Y-33.07
G1 X42.37 Y-33.06
G1 X42.38 Y-33.05
G1 X42.39 Y-33.05
G1 X42.40 Y-33.04
G1 X42.41 Y-33.03
G1 X42.42 Y-33.02
G1 X42.43 Y-33.01
G1 X42.44 Y-33.00
G1 X42.45 Y-33.00
G1 X42.45 Y-32.99
G1 X42.47 Y-32.98
G1 X42.48 Y-32.97
G1 X42.49 Y-32.96
G1 X42.50 Y-32.95
G1 X42.51 Y-32.95
G1 X42.52 Y-32.95
G1 X42.52 Y-32.94
G1 X42.53 Y-32.94
G1 X42.54 Y-32.93
G1 X42.56 Y-32.92
G1 X42.56 Y-32.92
G1 X42.57 Y-32.91
G1 X42.58 Y-32.91
G1 X42.58 Y-32.91
G1 X42.59 Y-32.90
G1 X42.60 Y-32.90
G1 X42.61 Y-32.89
G1 X42.62 Y-32.89
G1 X42.64 Y-32.88
G1 X42.65 Y-32.87
G1 X42.66 Y-32.87
G1 X42.66 Y-32.87
G1 X42.68 Y-32.86
G1 X42.69 Y-32.85
G1 X42.71 Y-32.85
G1 X42.72 Y-32.84
G1 X42.74 Y-32.84
G1 X42.75 Y-32.83
G1 X42.76 Y-32.83
G1 X42.77 Y-32.83
G1 X42.78 Y-32.82
G1 X42.79 Y-32.82
G1 X42.80 Y-32.82
G1 X42.81 Y-32.81
G1 X42.82 Y-32.81
G1 X42.82 Y-32.81
G1 X42.84 Y-32.80
G1 X42.85 Y-32.79
G1 X42.87 Y-32.79
G1 X42.88 Y-32.78
G1 X42.89 Y-32.77
G1 X42.91 Y-32.76
G1 X42.92 Y-32.76
G1 X42.93 Y-32.75
G1 X42.95 Y-32.74
G1 X42.96 Y-32.73
G1 X42.97 Y-32.73
G1 X42.97 Y-32.72
G1 X42.98 Y-32.72
G1 X42.99 Y-32.71
G1 X43.00 Y-32.70
G1 X43.01 Y-32.69
G1 X43.02 Y-32.68
G1 X43.04 Y-32.67
G1 X43.05 Y-32.66
G1 X43.06 Y-32.65
G1 X43.08 Y-32.64
G1 X43.09 Y-32.63
G1 X43.10 Y-32.62
G1 X43.11 Y-32.61
G1 X43.12 Y-32.60
G1 X43.13 Y-32.59
G1 X43.14 Y-32.59
G1 X43.14 Y-32.58
G1 X43.15 Y-32.57
G1 X43.16 Y-32.56
G1 X43.16 Y-32.56
G1 X43.17 Y-32.55
G1 X43.18 Y-32.54
G1 X43.18 Y-32.54
G1 X43.20 Y-32.52
G1 X43.21 Y-32.51
G1 X43.21 Y-32.50
G1 X43.22 Y-32.49
G1 X43.23 Y-32.48
G1 X43.23 Y-32.48
G1 X43.24 Y-32.47
G1 X43.24 Y-32.46
G1 X43.26 Y-32.45
G1 X43.27 Y-32.43
G1 X43.28 Y-32.41
G1 X43.29 Y-32.40
G1 X43.30 Y-32.39
G1 X43.30 Y-32.38
G1 X43.31 Y-32.37
G1 X43.32 Y-32.35
G1 X43.33 Y-32.34
G1 X43.34 Y-32.33
G1 X43.35 Y-32.31
G1 X43.35 Y-32.30
G1 X43.37 Y-32.28
G1 X43.39 Y-32.25
G1 X43.40 Y-32.24
G1 X43.40 Y-32.22
G1 X43.41 Y-32.21
G1 X43.42 Y-32.20
G1 X43.43 Y-32.18
G1 X43.43 Y-32.17
G1 X43.44 Y-32.16
G1 X43.45 Y-32.14
G1 X43.46 Y-32.13
G1 X43.47 Y-32.12
G1 X43.48 Y-32.09
G1 X43.50 Y-32.06
G1 X43.50 Y-32.05
G1 X43.51 Y-32.03
G1 X43.52 Y-32.02
G1 X43.52 Y-32.01
G1 X43.54 Y-31.99
G1 X43.55 Y-31.97
G1 X43.56 Y-31.95
G1 X43.57 Y-31.94
G1 X43.58 Y-31.92
G1 X43.59 Y-31.90
G1 X43.60 Y-31.89
G1 X43.61 Y-31.88
G1 X43.62 Y-31.85
G1 X43.64 Y-31.83
G1 X43.65 Y-31.81
G1 X43.67 Y-31.79
G1 X43.68 Y-31.78
G1 X43.68 Y-31.77
G1 X43.69 Y-31.76
G1 X43.70 Y-31.75
G1 X43.71 Y-31.73
G1 X43.72 Y-31.72
G1 X43.72 Y-31.71
G1 X43.73 Y-31.70
G1 X43.74 Y-31.69
G1 X43.75 Y-31.68
G1 X43.76 Y-31.67
G1 X43.77 Y-31.66
G1 X43.77 Y-31.65
G1 X43.78 Y-31.64
G1 X43.80 Y-31.62
G1 X43.82 Y-31.60
G1 X43.82 Y-31.59
G1 X43.83 Y-31.58
G1 X43.85 Y-31.56
G1 X43.87 Y-31.54
G1 X43.88 Y-31.53
G1 X43.89 Y-31.52
G1 X43.90 Y-31.51
G1 X43.91 Y-31.50
G1 X43.91 Y-31.49
G1 X43.92 Y-31.48
G1 X43.93 Y-31.47
G1 X43.94 Y-31.46
G1 X43.95 Y-31.46
G1 X43.95 Y-31.45
G1 X43.95 Y-31.45
G1 X43.96 Y-31.45
G1 X43.96 Y-31.44
G1 X43.97 Y-31.44
G1 X43.97 Y-31.43
G1 X43.98 Y-31.43
G1 X43.99 Y-31.42
G1 X43.99 Y-31.42
G1 X44.00 Y-31.41
G1 X44.01 Y-31.41
G1 X44.02 Y-31.40
G1 X44.02 Y-31.40
G1 X44.03 Y-31.39
G1 X44.04 Y-31.39
G1 X44.05 Y-31.38
G1 X44.05 Y-31.38
G1 X44.06 Y-31.38
G1 X44.07 Y-31.37
G1 X44.08 Y-31.37
G1 X44.09 Y-31.36
G1 X44.10 Y-31.36
G1 X44.11 Y-31.36
G1 X44.12 Y-31.35
G1 X44.13 Y-31.35
G1 X44.14 Y-31.35
G1 X44.15 Y-31.35
G1 X44.15 Y-31.34
G1 X44.16 Y-31.34
G1 X44.16 Y-31.34
G1 X44.17 Y-31.34
G1 X44.18 Y-31.34
G1 X44.18 Y-31.34
G1 X44.19 Y-31.34
G1 X44.20 Y-31.34
G1 X44.21 Y-31.33
G1 X44.22 Y-31.33
G1 X44.23 Y-31.33
G1 X44.23 Y-31.33
G1 X44.24 Y-31.33
G1 X44.25 Y-31.33
G1 X44.26 Y-31.33
G1 X44.27 Y-31.33
G1 X44.28 Y-31.33
G1 X44.28 Y-31.33
G1 X44.30 Y-31.34
G1 X44.31 Y-31.34
G1 X44.32 Y-31.34
G1 X44.33 Y-31.34
G1 X44.33 Y-31.34
G1 X44.34 Y-31.34
G1 X44.34 Y-31.34
G1 X44.35 Y-31.34
G1 X44.36 Y-31.35
G1 X44.37 Y-31.35
G1 X44.37 Y-31.35
G1 X44.38 Y-31.35
G1 X44.38 Y-31.35
G1 X44.39 Y-31.36
G1 X44.39 Y-31.36
G1 X44.39 Y-31.36
G1 X44.40 Y-31.36
G1 X44.40 Y-31.36
G1 X44.41 Y-31.36
G1 X44.41 Y-31.36
G1 X44.42 Y-31.37
G1 X44.43 Y-31.37
G1 X44.43 Y-31.37
G1 X44.43 Y-31.38
G1 X44.44 Y-31.38
G1 X44.44 Y-31.38
G1 X44.45 Y-31.38
G1 X44.46 Y-31.39
G1 X44.46 Y-31.39
G1 X44.47 Y-31.40
G1 X44.47 Y-31.40
G1 X44.48 Y-31.40
G1 X44.48 Y-31.41
G1 X44.48 Y-31.41
G1 X44.49 Y-31.42
G1 X44.49 Y-31.42
G1 X44.50 Y-31.42
G1 X44.50 Y-31.43
G1 X44.50 Y-31.43
G1 X44.51 Y-31.43
G1 X44.51 Y-31.44
G1 X44.51 Y-31.44
G1 X44.51 Y-31.44
G1 X44.52 Y-31.45
G1 X44.52 Y-31.45
G1 X44.53 Y-31.46
G1 X44.53 Y-31.46
G1 X44.53 Y-31.47
G1 X44.53 Y-31.47
G1 X44.54 Y-31.48
G1 X44.54 Y-31.48
G1 X44.55 Y-31.49
G1 X44.55 Y-31.49
G1 X44.55 Y-31.50
G1 X44.55 Y-31.51
G1 X44.56 Y-31.51
G1 X44.56 Y-31.52
G1 X44.56 Y-31.52
G1 X44.56 Y-31.52
G1 X44.56 Y-31.53
G1 X44.57 Y-31.54
G1 X44.57 Y-31.55
G1 X44.57 Y-31.55
G1 X44.57 Y-31.55
G1 X44.57 Y-31.56
G1 X44.57 Y-31.56
G1 X44.57 Y-31.57
G1 X44.58 Y-31.58
G1 X44.58 Y-31.58
G1 X44.58 Y-31.59
G1 X44.58 Y-31.59
G1 X44.58 Y-31.60
G1 X44.58 Y-31.60
G1 X44.58 Y-31.60
G1 X44.58 Y-31.61
G1 X44.58 Y-31.61
G1 X44.58 Y-31.62
G1 X44.58 Y-31.62
G1 X44.58 Y-31.63
G1 X44.58 Y-31.63
G1 X44.58 Y-31.64
G1 X44.58 Y-31.65
G1 X44.58 Y-31.65
G1 X44.58 Y-31.65
G1 X44.58 Y-31.66
G1 X44.58 Y-31.66
G1 X44.58 Y-31.67
G1 X44.58 Y-31.67
G1 X44.58 Y-31.68
G1 X44.57 Y-31.69
G1 X44.57 Y-31.71
G1 X44.57 Y-31.72
G1 X44.57 Y-31.73
G1 X44.56 Y-31.74
G1 X44.56 Y-31.75
G1 X44.56 Y-31.76
G1 X44.56 Y-31.78
G1 X44.56 Y-31.79
G1 X44.55 Y-31.80
G1 X44.55 Y-31.81
G1 X44.55 Y-31.82
G1 X44.54 Y-31.83
G1 X44.54 Y-31.85
G1 X44.54 Y-31.86
G1 X44.54 Y-31.87
G1 X44.53 Y-31.88
G1 X44.53 Y-31.90
G1 X44.52 Y-31.93
G1 X44.52 Y-31.94
G1 X44.51 Y-31.95
G1 X44.51 Y-31.97
G1 X44.50 Y-32.00
G1 X44.49 Y-32.02
G1 X44.49 Y-32.04
G1 X44.48 Y-32.05
G1 X44.48 Y-32.06
G1 X44.47 Y-32.07
G1 X44.47 Y-32.09
G1 X44.46 Y-32.11
G1 X44.45 Y-32.13
G1 X44.45 Y-32.14
G1 X44.44 Y-32.15
G1 X44.44 Y-32.16
G1 X44.44 Y-32.17
G1 X44.43 Y-32.19
G1 X44.43 Y-32.20
G1 X44.42 Y-32.22
G1 X44.41 Y-32.24
G1 X44.40 Y-32.26
G1 X44.39 Y-32.28
G1 X44.38 Y-32.29
G1 X44.38 Y-32.30
G1 X44.37 Y-32.31
G1 X44.37 Y-32.33
G1 X44.36 Y-32.34
G1 X44.35 Y-32.36
G1 X44.34 Y-32.37
G1 X44.34 Y-32.38
G1 X44.34 Y-32.38
G1 X44.33 Y-32.39
G1 X44.33 Y-32.41
G1 X44.32 Y-32.42
G1 X44.31 Y-32.44
G1 X44.31 Y-32.45
G1 X44.30 Y-32.47
G1 X44.29 Y-32.49
G1 X44.29 Y-32.50
G1 X44.28 Y-32.52
G1 X44.28 Y-32.53
G1 X44.28 Y-32.53
G1 X44.28 Y-32.54
G1 X44.27 Y-32.55
G1 X44.27 Y-32.56
G1 X44.27 Y-32.57
G1 X44.27 Y-32.57
G1 X44.27 Y-32.58
G1 X44.26 Y-32.60
G1 X44.26 Y-32.61
G1 X44.25 Y-32.63
G1 X44.25 Y-32.65
G1 X44.25 Y-32.65
G1 X44.25 Y-32.66
G1 X44.25 Y-32.66
G1 X44.25 Y-32.66
G1 X44.25 Y-32.66
G1 X44.25 Y-32.67
G1 X44.25 Y-32.67
G1 X44.25 Y-32.67
G1 X44.25 Y-32.67
G1 X44.25 Y-32.67
G1 X44.25 Y-32.68
G1 X44.25 Y-32.68
G1 X44.25 Y-32.68
G1 X44.25 Y-32.68
G1 X44.25 Y-32.69
G1 X44.25 Y-32.69
G1 X44.25 Y-32.69
G1 X44.25 Y-32.69
G1 X44.25 Y-32.69
G1 X44.25 Y-32.70
G1 X44.25 Y-32.70
G1 X44.25 Y-32.70
G1 X44.26 Y-32.70
G1 X44.26 Y-32.71
G1 X44.26 Y-32.71
G1 X44.26 Y-32.71
G1 X44.26 Y-32.71
G1 X44.27 Y-32.72
G1 X44.27 Y-32.72
G1 X44.27 Y-32.72
G1 X44.27 Y-32.73
G1 X44.27 Y-32.73
G1 X44.28 Y-32.73
G1 X44.28 Y-32.73
G1 X44.28 Y-32.73
G1 X44.28 Y-32.73
G1 X44.29 Y-32.74
G1 X44.29 Y-32.74
G1 X44.29 Y-32.74
G1 X44.30 Y-32.74
G1 X44.30 Y-32.74
G1 X44.30 Y-32.74
G1 X44.30 Y-32.74
G1 X44.30 Y-32.74
G1 X44.31 Y-32.74
G1 X44.31 Y-32.74
G1 X44.31 Y-32.74
G1 X44.31 Y-32.74
G1 X44.32 Y-32.74
G1 X44.32 Y-32.74
G1 X44.32 Y-32.74
G1 X44.33 Y-32.74
G1 X44.33 Y-32.74
G1 X44.33 Y-32.74
G1 X44.34 Y-32.74
G1 X44.34 Y-32.74
G1 X44.35 Y-32.74
G1 X44.36 Y-32.73
G1 X44.37 Y-32.73
G1 X44.38 Y-32.73
G1 X44.39 Y-32.72
G1 X44.40 Y-32.72
G1 X44.41 Y-32.71
G1 X44.42 Y-32.71
G1 X44.43 Y-32.70
G1 X44.44 Y-32.70
G1 X44.45 Y-32.69
G1 X44.46 Y-32.69
G1 X44.47 Y-32.68
G1 X44.48 Y-32.68
G1 X44.48 Y-32.67
G1 X44.49 Y-32.67
G1 X44.49 Y-32.67
G1 X44.50 Y-32.66
G1 X44.50 Y-32.66
G1 X44.51 Y-32.66
G1 X44.51 Y-32.65
G1 X44.51 Y-32.65
G1 X44.52 Y-32.64
G1 X44.52 Y-32.64
G1 X44.53 Y-32.63
G1 X44.54 Y-32.63
G1 X44.54 Y-32.62
G1 X44.55 Y-32.62
G1 X44.55 Y-32.61
G1 X44.56 Y-32.60
G1 X44.56 Y-32.60
G1 X44.57 Y-32.59
G1 X44.57 Y-32.59
G1 X44.57 Y-32.59
G1 X44.58 Y-32.57
G1 X44.59 Y-32.56
G1 X44.60 Y-32.55
G1 X44.61 Y-32.54
G1 X44.63 Y-32.52
G1 X44.64 Y-32.50
G1 X44.65 Y-32.49
G1 X44.66 Y-32.48
G1 X44.67 Y-32.46
G1 X44.69 Y-32.43
G1 X44.70 Y-32.42
G1 X44.70 Y-32.41
G1 X44.71 Y-32.40
G1 X44.72 Y-32.39
G1 X44.73 Y-32.38
G1 X44.73 Y-32.37
G1 X44.75 Y-32.35
G1 X44.76 Y-32.32
G1 X44.78 Y-32.30
G1 X44.79 Y-32.28
G1 X44.80 Y-32.25
G1 X44.82 Y-32.23
G1 X44.83 Y-32.20
G1 X44.85 Y-32.18
G1 X44.86 Y-32.16
G1 X44.87 Y-32.14
G1 X44.88 Y-32.11
G1 X44.90 Y-32.08
G1 X44.91 Y-32.07
G1 X44.92 Y-32.05
G1 X44.93 Y-32.04
G1 X44.94 Y-32.03
G1 X44.95 Y-32.01
G1 X44.96 Y-32.00
G1 X44.97 Y-31.98
G1 X44.98 Y-31.97
G1 X44.99 Y-31.94
G1 X45.01 Y-31.91
G1 X45.02 Y-31.90
G1 X45.02 Y-31.89
G1 X45.03 Y-31.89
G1 X45.03 Y-31.89
G1 X45.04 Y-31.88
G1 X45.04 Y-31.87
G1 X45.05 Y-31.86
G1 X45.06 Y-31.85
G1 X45.06 Y-31.85
G1 X45.07 Y-31.84
G1 X45.08 Y-31.83
G1 X45.09 Y-31.82
G1 X45.09 Y-31.82
G1 X45.10 Y-31.81
G1 X45.11 Y-31.81
G1 X45.11 Y-31.80
G1 X45.11 Y-31.80
G1 X45.12 Y-31.80
G1 X45.12 Y-31.79
G1 X45.13 Y-31.79
G1 X45.14 Y-31.79
G1 X45.14 Y-31.78
G1 X45.15 Y-31.78
G1 X45.16 Y-31.77
G1 X45.16 Y-31.77
G1 X45.17 Y-31.77
G1 X45.17 Y-31.76
G1 X45.18 Y-31.76
G1 X45.19 Y-31.76
G1 X45.19 Y-31.76
G1 X45.19 Y-31.75
G1 X45.20 Y-31.75
G1 X45.21 Y-31.75
G1 X45.21 Y-31.75
G1 X45.22 Y-31.75
G1 X45.22 Y-31.74
G1 X45.23 Y-31.74
G1 X45.24 Y-31.74
G1 X45.25 Y-31.74
G1 X45.26 Y-31.74
G1 X45.26 Y-31.74
G1 X45.27 Y-31.73
G1 X45.27 Y-31.73
G1 X45.28 Y-31.73
G1 X45.28 Y-31.73
G1 X45.29 Y-31.73
G1 X45.30 Y-31.73
G1 X45.31 Y-31.73
G1 X45.32 Y-31.73
G1 X45.33 Y-31.73
G1 X45.35 Y-31.73
G1 X45.37 Y-31.73
G1 X45.39 Y-31.73
G1 X45.41 Y-31.73
G1 X45.43 Y-31.73
G1 X45.44 Y-31.73
G1 X45.45 Y-31.73
G1 X45.46 Y-31.73
G1 X45.47 Y-31.73
G1 X45.48 Y-31.74
G1 X45.49 Y-31.74
G1 X45.50 Y-31.74
G1 X45.52 Y-31.74
G1 X45.54 Y-31.74
G1 X45.56 Y-31.74
G1 X45.58 Y-31.75
G1 X45.59 Y-31.75
G1 X45.60 Y-31.75
G1 X45.61 Y-31.75
G1 X45.62 Y-31.75
G1 X45.63 Y-31.75
G1 X45.63 Y-31.75
G1 X45.65 Y-31.75
G1 X45.67 Y-31.75
G1 X45.68 Y-31.75
G1 X45.69 Y-31.75
G1 X45.70 Y-31.75
G1 X45.70 Y-31.75
G1 X45.71 Y-31.75
G1 X45.72 Y-31.75
G1 X45.73 Y-31.75
G1 X45.74 Y-31.75
G1 X45.76 Y-31.75
G1 X45.77 Y-31.75
G1 X45.79 Y-31.75
G1 X45.80 Y-31.75
G1 X45.81 Y-31.75
G1 X45.82 Y-31.75
G1 X45.83 Y-31.75
G1 X45.85 Y-31.74
G1 X45.87 Y-31.74
G1 X45.89 Y-31.74
G1 X45.90 Y-31.74
G1 X45.91 Y-31.74
G1 X45.92 Y-31.74
G1 X45.93 Y-31.73
G1 X45.94 Y-31.73
G1 X45.95 Y-31.73
G1 X45.96 Y-31.73
G1 X45.97 Y-31.73
G1 X45.99 Y-31.72
G1 X46.01 Y-31.72
G1 X46.03 Y-31.72
G1 X46.04 Y-31.71
G1 X46.05 Y-31.71
G1 X46.06 Y-31.71
G1 X46.08 Y-31.70
G1 X46.11 Y-31.70
G1 X46.13 Y-31.69
G1 X46.15 Y-31.69
G1 X46.16 Y-31.68
G1 X46.17 Y-31.68
G1 X46.19 Y-31.67
G1 X46.21 Y-31.67
G1 X46.22 Y-31.66
G1 X46.23 Y-31.66
G1 X46.25 Y-31.66
G1 X46.26 Y-31.65
G1 X46.28 Y-31.64
G1 X46.30 Y-31.64
G1 X46.31 Y-31.63
G1 X46.32 Y-31.63
G1 X46.33 Y-31.62
G1 X46.34 Y-31.62
G1 X46.35 Y-31.62
G1 X46.36 Y-31.61
G1 X46.37 Y-31.61
G1 X46.38 Y-31.60
G1 X46.40 Y-31.60
G1 X46.43 Y-31.59
G1 X46.44 Y-31.58
G1 X46.45 Y-31.58
G1 X46.45 Y-31.57
G1 X46.46 Y-31.57
G1 X46.51 Y-31.55
G1 X46.56 Y-31.52
G1 X46.59 Y-31.51
G1 X46.63 Y-31.49
G1 X46.64 Y-31.48
G1 X46.66 Y-31.47
G1 X46.68 Y-31.46
G1 X46.70 Y-31.46
G1 X46.72 Y-31.45
G1 X46.73 Y-31.44
G1 X46.75 Y-31.43
G1 X46.77 Y-31.42
G1 X46.79 Y-31.42
G1 X46.81 Y-31.41
G1 X46.81 Y-31.41
G1 X46.82 Y-31.40
G1 X46.82 Y-31.40
G1 X46.83 Y-31.40
G1 X46.83 Y-31.40
G1 X46.84 Y-31.40
G1 X46.84 Y-31.39
G1 X46.85 Y-31.39
G1 X46.85 Y-31.39
G1 X46.86 Y-31.39
G1 X46.87 Y-31.39
G1 X46.88 Y-31.39
G1 X46.88 Y-31.38
G1 X46.89 Y-31.38
G1 X46.90 Y-31.38
G1 X46.91 Y-31.38
G1 X46.91 Y-31.38
G1 X46.92 Y-31.38
G1 X46.92 Y-31.38
G1 X46.93 Y-31.38
G1 X46.93 Y-31.38
G1 X46.94 Y-31.38
G1 X46.94 Y-31.38
G1 X46.95 Y-31.38
G1 X46.95 Y-31.38
G1 X46.96 Y-31.38
G1 X46.96 Y-31.38
G1 X46.97 Y-31.38
G1 X46.97 Y-31.38
G1 X46.97 Y-31.38
G1 X46.98 Y-31.38
G1 X46.99 Y-31.38
G1 X47.00 Y-31.38
G1 X47.00 Y-31.38
G1 X47.01 Y-31.38
G1 X47.01 Y-31.38
G1 X47.02 Y-31.38
G1 X47.02 Y-31.38
G1 X47.03 Y-31.38
G1 X47.04 Y-31.38
G1 X47.04 Y-31.39
G1 X47.05 Y-31.39
G1 X47.05 Y-31.39
G1 X47.06 Y-31.39
G1 X47.06 Y-31.39
G1 X47.07 Y-31.39
G1 X47.07 Y-31.39
G1 X47.08 Y-31.40
G1 X47.08 Y-31.40
G1 X47.08 Y-31.40
G1 X47.09 Y-31.40
G1 X47.09 Y-31.40
G1 X47.10 Y-31.41
G1 X47.11 Y-31.41
G1 X47.12 Y-31.42
G1 X47.14 Y-31.42
G1 X47.16 Y-31.44
G1 X47.19 Y-31.45
G1 X47.22 Y-31.47
G1 X47.25 Y-31.48
G1 X47.26 Y-31.49
G1 X47.27 Y-31.50
G1 X47.29 Y-31.51
G1 X47.30 Y-31.51
G1 X47.33 Y-31.53
G1 X47.35 Y-31.55
G1 X47.38 Y-31.56
G1 X47.40 Y-31.57
G1 X47.41 Y-31.58
G1 X47.42 Y-31.58
G1 X47.43 Y-31.59
G1 X47.43 Y-31.59
G1 X47.44 Y-31.60
G1 X47.45 Y-31.60
G1 X47.46 Y-31.61
G1 X47.47 Y-31.61
G1 X47.49 Y-31.62
G1 X47.51 Y-31.63
G1 X47.52 Y-31.64
G1 X47.53 Y-31.64
G1 X47.53 Y-31.64
G1 X47.54 Y-31.65
G1 X47.55 Y-31.65
G1 X47.56 Y-31.66
G1 X47.57 Y-31.66
G1 X47.58 Y-31.67
G1 X47.59 Y-31.67
G1 X47.60 Y-31.67
G1 X47.61 Y-31.68
G1 X47.62 Y-31.68
G1 X47.63 Y-31.69
G1 X47.64 Y-31.69
G1 X47.65 Y-31.70
G1 X47.67 Y-31.70
G1 X47.68 Y-31.71
G1 X47.70 Y-31.71
G1 X47.72 Y-31.72
G1 X47.73 Y-31.72
G1 X47.74 Y-31.72
G1 X47.75 Y-31.73
G1 X47.76 Y-31.73
G1 X47.76 Y-31.73
G1 X47.78 Y-31.73
G1 X47.80 Y-31.74
G1 X47.81 Y-31.74
G1 X47.83 Y-31.74
G1 X47.83 Y-31.74
G1 X47.84 Y-31.75
G1 X47.86 Y-31.75
G1 X47.88 Y-31.75
G1 X47.89 Y-31.75
G1 X47.90 Y-31.75
G1 X47.90 Y-31.75
G1 X47.91 Y-31.76
G1 X47.92 Y-31.76
G1 X47.93 Y-31.76
G1 X47.94 Y-31.76
G1 X47.95 Y-31.76
G1 X47.96 Y-31.76
G1 X47.97 Y-31.76
G1 X47.97 Y-31.76
G1 X47.98 Y-31.76
G1 X48.00 Y-31.76
G1 X48.02 Y-31.76
G1 X48.03 Y-31.76
G1 X48.04 Y-31.76
G1 X48.05 Y-31.76
G1 X48.05 Y-31.76
G1 X48.07 Y-31.76
G1 X48.09 Y-31.76
G1 X48.11 Y-31.76
G1 X48.12 Y-31.76
G1 X48.15 Y-31.76
G1 X48.18 Y-31.76
G1 X48.20 Y-31.76
G1 X48.23 Y-31.76
G1 X48.24 Y-31.76
G1 X48.26 Y-31.75
G1 X48.27 Y-31.75
G1 X48.28 Y-31.75
G1 X48.30 Y-31.75
G1 X48.31 Y-31.75
G1 X48.33 Y-31.75
G1 X48.34 Y-31.75
G1 X48.36 Y-31.75
G1 X48.38 Y-31.74
G1 X48.40 Y-31.74
G1 X48.43 Y-31.74
G1 X48.45 Y-31.74
G1 X48.47 Y-31.74
G1 X48.48 Y-31.73
G1 X48.49 Y-31.73
G1 X48.50 Y-31.73
G1 X48.51 Y-31.73
G1 X48.54 Y-31.73
G1 X48.56 Y-31.73
G1 X48.57 Y-31.73
G1 X48.58 Y-31.73
G1 X48.59 Y-31.73
G1 X48.60 Y-31.73
G1 X48.61 Y-31.73
G1 X48.63 Y-31.73
G1 X48.64 Y-31.73
G1 X48.65 Y-31.73
G1 X48.66 Y-31.73
G1 X48.67 Y-31.73
G1 X48.68 Y-31.73
G1 X48.69 Y-31.73
G1 X48.74 Y-31.74
G1 X48.79 Y-31.74
G1 X48.84 Y-31.74
G1 X48.89 Y-31.75
G1 X48.91 Y-31.75
G1 X48.94 Y-31.75
G1 X48.96 Y-31.75
G1 X48.99 Y-31.75
G1 X49.01 Y-31.76
G1 X49.04 Y-31.76
G1 X49.06 Y-31.76
G1 X49.09 Y-31.76
G1 X49.11 Y-31.76
G1 X49.13 Y-31.77
G1 X49.16 Y-31.77
G1 X49.18 Y-31.77
G1 X49.23 Y-31.78
G1 X49.27 Y-31.78
G1 X49.29 Y-31.78
G1 X49.32 Y-31.79
G1 X49.35 Y-31.79
G1 X49.38 Y-31.79
G1 X49.43 Y-31.80
G1 X49.49 Y-31.81
G1 X49.51 Y-31.81
G1 X49.54 Y-31.81
G1 X49.60 Y-31.82
G1 X49.65 Y-31.83
G1 X49.68 Y-31.83
G1 X49.71 Y-31.84
G1 X49.76 Y-31.85
G1 X49.81 Y-31.85
G1 X49.84 Y-31.86
G1 X49.87 Y-31.86
G1 X49.91 Y-31.87
G1 X49.94 Y-31.87
G1 X49.97 Y-31.88
G1 X50.00 Y-31.88
G1 X50.06 Y-31.89
G1 X50.13 Y-31.91
G1 X50.16 Y-31.91
G1 X50.19 Y-31.92
G1 X50.26 Y-31.93
G1 X50.32 Y-31.94
G1 X50.40 Y-31.96
G1 X50.49 Y-31.97
G1 X50.54 Y-31.98
G1 X50.60 Y-31.99
G1 X50.71 Y-32.01
G1 X50.81 Y-32.03
G1 X50.87 Y-32.04
G1 X50.92 Y-32.05
G1 X50.97 Y-32.06
G1 X51.01 Y-32.07
G1 X51.09 Y-32.08
G1 X51.17 Y-32.10
G1 X51.21 Y-32.10
G1 X51.25 Y-32.11
G1 X51.29 Y-32.12
G1 X51.33 Y-32.12
G1 X51.37 Y-32.13
G1 X51.41 Y-32.13
G1 X51.48 Y-32.15
G1 X51.56 Y-32.16
G1 X51.69 Y-32.18
G1 X51.82 Y-32.20
G1 X51.82 Y-32.20
G1 X51.83 Y-32.20
G1 X51.83 Y-32.20
G1 X51.83 Y-32.20
G1 X51.83 Y-32.20
G1 X51.84 Y-32.20
G1 X51.84 Y-32.20
G1 X51.84 Y-32.20
G1 X51.84 Y-32.20
G1 X51.84 Y-32.20
G1 X51.84 Y-32.20
G1 X51.85 Y-32.20
G1 X51.85 Y-32.19
G1 X51.85 Y-32.19
G1 X51.85 Y-32.19
G1 X51.85 Y-32.19
G1 X51.85 Y-32.19
G1 X51.85 Y-32.19
G1 X51.86 Y-32.19
G1 X51.86 Y-32.19
G1 X51.86 Y-32.19
G1 X51.86 Y-32.18
G1 X51.86 Y-32.18
G1 X51.87 Y-32.18
G1 X51.87 Y-32.17
G1 X51.87 Y-32.17
G1 X51.87 Y-32.17
G1 X51.87 Y-32.17
G1 X51.87 Y-32.17
G1 X51.87 Y-32.16
G1 X51.87 Y-32.16
G1 X51.87 Y-32.16
G1 X51.88 Y-32.16
G1 X51.88 Y-32.15
G1 X51.92 Y-32.01
G1 X51.95 Y-31.87
G1 X51.99 Y-31.74
G1 X52.02 Y-31.62
G1 X52.04 Y-31.56
G1 X52.05 Y-31.49
G1 X52.07 Y-31.43
G1 X52.09 Y-31.36
G1 X52.10 Y-31.30
G1 X52.12 Y-31.24
G1 X52.14 Y-31.17
G1 X52.15 Y-31.11
G1 X52.19 Y-30.98
G1 X52.22 Y-30.84
G1 X52.26 Y-30.67
G1 X52.31 Y-30.49
G1 X52.40 Y-30.13
G1 X52.49 Y-29.76
G1 X52.53 Y-29.59
G1 X52.58 Y-29.42
G1 X52.62 Y-29.25
G1 X52.66 Y-29.08
G1 X52.71 Y-28.90
G1 X52.75 Y-28.72
G1 X52.76 Y-28.69
G1 X52.77 Y-28.66
G1 X52.77 Y-28.64
G1 X52.78 Y-28.63
G1 X52.78 Y-28.61
G1 X52.79 Y-28.60
G1 X52.80 Y-28.56
G1 X52.81 Y-28.53
G1 X52.81 Y-28.52
G1 X52.81 Y-28.50
G1 X52.82 Y-28.49
G1 X52.83 Y-28.47
G1 X52.83 Y-28.45
G1 X52.84 Y-28.44
G1 X52.84 Y-28.42
G1 X52.85 Y-28.41
G1 X52.85 Y-28.39
G1 X52.86 Y-28.38
G1 X52.86 Y-28.36
G1 X52.87 Y-28.34
G1 X52.87 Y-28.34
G1 X52.87 Y-28.33
G1 X52.87 Y-28.33
G1 X52.88 Y-28.33
G1 X52.88 Y-28.32
G1 X52.88 Y-28.32
G1 X52.88 Y-28.32
G1 X52.88 Y-28.31
G1 X52.88 Y-28.31
G1 X52.89 Y-28.31
G1 X52.89 Y-28.31
G1 X52.89 Y-28.30
G1 X52.89 Y-28.30
G1 X52.89 Y-28.30
G1 X52.89 Y-28.29
G1 X52.90 Y-28.29
G1 X52.90 Y-28.29
G1 X52.90 Y-28.29
G1 X52.91 Y-28.28
G1 X52.91 Y-28.27
G1 X52.92 Y-28.27
G1 X52.92 Y-28.27
G1 X52.92 Y-28.26
G1 X52.93 Y-28.26
G1 X52.93 Y-28.26
G1 X52.93 Y-28.26
G1 X52.93 Y-28.25
G1 X52.94 Y-28.25
G1 X52.94 Y-28.25
G1 X52.95 Y-28.24
G1 X52.95 Y-28.24
G1 X52.95 Y-28.24
G1 X52.96 Y-28.24
G1 X52.97 Y-28.23
G1 X52.97 Y-28.23
G1 X52.97 Y-28.23
G1 X52.97 Y-28.23
G1 X52.98 Y-28.23
G1 X52.98 Y-28.23
G1 X52.98 Y-28.23
G1 X52.99 Y-28.23
G1 X52.99 Y-28.23
G1 X53.00 Y-28.23
G1 X53.00 Y-28.22
G1 X53.01 Y-28.22
G1 X53.01 Y-28.22
G1 X53.02 Y-28.22
G1 X53.02 Y-28.22
G1 X53.02 Y-28.22
G1 X53.02 Y-28.22
G1 X53.03 Y-28.23
G1 X53.03 Y-28.23
G1 X53.03 Y-28.23
G1 X53.04 Y-28.23
G1 X53.04 Y-28.23
G1 X53.04 Y-28.23
G1 X53.05 Y-28.23
G1 X53.05 Y-28.23
G1 X53.06 Y-28.23
G1 X53.06 Y-28.23
G1 X53.06 Y-28.24
G1 X53.07 Y-28.24
G1 X53.07 Y-28.24
G1 X53.07 Y-28.24
G1 X53.08 Y-28.25
G1 X53.08 Y-28.25
G1 X53.08 Y-28.25
G1 X53.08 Y-28.25
G1 X53.10 Y-28.26
G1 X53.11 Y-28.28
G1 X53.12 Y-28.29
G1 X53.13 Y-28.30
G1 X53.14 Y-28.30
G1 X53.14 Y-28.31
G1 X53.15 Y-28.31
G1 X53.15 Y-28.32
G1 X53.17 Y-28.32
G1 X53.18 Y-28.33
G1 X53.18 Y-28.34
G1 X53.19 Y-28.34
G1 X53.20 Y-28.35
G1 X53.21 Y-28.36
G1 X53.23 Y-28.37
G1 X53.24 Y-28.38
G1 X53.24 Y-28.38
G1 X53.25 Y-28.38
G1 X53.25 Y-28.38
G1 X53.25 Y-28.38
G1 X53.25 Y-28.38
G1 X53.25 Y-28.38
G1 X53.26 Y-28.39
G1 X53.26 Y-28.39
G1 X53.27 Y-28.39
G1 X53.27 Y-28.39
G1 X53.28 Y-28.39
G1 X53.28 Y-28.39
G1 X53.29 Y-28.39
G1 X53.29 Y-28.39
G1 X53.29 Y-28.39
G1 X53.30 Y-28.39
G1 X53.30 Y-28.39
G1 X53.31 Y-28.39
G1 X53.31 Y-28.39
G1 X53.32 Y-28.39
G1 X53.32 Y-28.39
G1 X53.33 Y-28.39
G1 X53.33 Y-28.39
G1 X53.33 Y-28.38
G1 X53.34 Y-28.38
G1 X53.34 Y-28.38
G1 X53.34 Y-28.38
G1 X53.34 Y-28.38
G1 X53.35 Y-28.37
G1 X53.35 Y-28.37
G1 X53.36 Y-28.37
G1 X53.36 Y-28.36
G1 X53.37 Y-28.36
G1 X53.37 Y-28.36
G1 X53.37 Y-28.35
G1 X53.38 Y-28.35
G1 X53.38 Y-28.35
G1 X53.38 Y-28.35
G1 X53.39 Y-28.34
G1 X53.39 Y-28.33
G1 X53.39 Y-28.33
G1 X53.39 Y-28.33
G1 X53.40 Y-28.32
G1 X53.40 Y-28.32
G1 X53.40 Y-28.31
G1 X53.41 Y-28.31
G1 X53.41 Y-28.31
G1 X53.41 Y-28.31
G1 X53.41 Y-28.30
G1 X53.41 Y-28.30
G1 X53.41 Y-28.30
G1 X53.41 Y-28.29
G1 X53.42 Y-28.29
G1 X53.42 Y-28.29
G1 X53.42 Y-28.28
G1 X53.42 Y-28.28
G1 X53.42 Y-28.28
G1 X53.42 Y-28.27
G1 X53.43 Y-28.24
G1 X53.44 Y-28.22
G1 X53.44 Y-28.20
G1 X53.44 Y-28.19
G1 X53.45 Y-28.16
G1 X53.46 Y-28.13
G1 X53.46 Y-28.11
G1 X53.47 Y-28.08
G1 X53.47 Y-28.07
G1 X53.48 Y-28.05
G1 X53.48 Y-28.04
G1 X53.48 Y-28.02
G1 X53.49 Y-28.00
G1 X53.49 Y-27.97
G1 X53.49 Y-27.97
G1 X53.50 Y-27.96
G1 X53.50 Y-27.95
G1 X53.50 Y-27.94
G1 X53.50 Y-27.93
G1 X53.50 Y-27.93
G1 X53.51 Y-27.91
G1 X53.51 Y-27.89
G1 X53.52 Y-27.88
G1 X53.52 Y-27.86
G1 X53.53 Y-27.85
G1 X53.53 Y-27.83
G1 X53.54 Y-27.82
G1 X53.54 Y-27.81
G1 X53.54 Y-27.80
G1 X53.55 Y-27.78
G1 X53.55 Y-27.78
G1 X53.56 Y-27.77
G1 X53.56 Y-27.76
G1 X53.56 Y-27.75
G1 X53.58 Y-27.72
G1 X53.59 Y-27.69
G1 X53.61 Y-27.66
G1 X53.62 Y-27.63
G1 X53.63 Y-27.60
G1 X53.64 Y-27.57
G1 X53.66 Y-27.54
G1 X53.67 Y-27.52
G1 X53.68 Y-27.49
G1 X53.70 Y-27.46
G1 X53.71 Y-27.43
G1 X53.72 Y-27.40
G1 X53.74 Y-27.37
G1 X53.75 Y-27.35
G1 X53.77 Y-27.32
G1 X53.78 Y-27.29
G1 X53.80 Y-27.25
G1 X53.82 Y-27.21
G1 X53.83 Y-27.18
G1 X53.85 Y-27.15
G1 X53.86 Y-27.12
G1 X53.88 Y-27.09
G1 X53.89 Y-27.06
G1 X53.91 Y-27.03
G1 X53.92 Y-27.00
G1 X53.94 Y-26.98
G1 X53.95 Y-26.95
G1 X53.96 Y-26.92
G1 X53.99 Y-26.86
G1 X54.02 Y-26.80
G1 X54.05 Y-26.75
G1 X54.09 Y-26.69
G1 X54.10 Y-26.66
G1 X54.12 Y-26.63
G1 X54.14 Y-26.59
G1 X54.15 Y-26.56
G1 X54.19 Y-26.50
G1 X54.22 Y-26.43
G1 X54.24 Y-26.40
G1 X54.26 Y-26.37
G1 X54.30 Y-26.31
G1 X54.33 Y-26.24
G1 X54.36 Y-26.19
G1 X54.40 Y-26.13
G1 X54.45 Y-26.04
G1 X54.50 Y-25.95
G1 X54.56 Y-25.85
G1 X54.61 Y-25.76
G1 X54.66 Y-25.67
G1 X54.72 Y-25.58
G1 X54.75 Y-25.53
G1 X54.77 Y-25.49
G1 X54.80 Y-25.44
G1 X54.83 Y-25.40
G1 X54.84 Y-25.37
G1 X54.85 Y-25.35
G1 X54.86 Y-25.34
G1 X54.87 Y-25.33
G1 X54.88 Y-25.32
G1 X54.88 Y-25.31
G1 X54.89 Y-25.29
G1 X54.90 Y-25.28
G1 X54.91 Y-25.27
G1 X54.91 Y-25.26
G1 X54.92 Y-25.25
G1 X54.93 Y-25.23
G1 X54.94 Y-25.22
G1 X54.95 Y-25.21
G1 X54.95 Y-25.20
G1 X54.96 Y-25.19
G1 X54.97 Y-25.18
G1 X54.98 Y-25.16
G1 X54.99 Y-25.15
G1 X55.00 Y-25.14
G1 X55.00 Y-25.13
G1 X55.01 Y-25.12
G1 X55.03 Y-25.10
G1 X55.05 Y-25.07
G1 X55.07 Y-25.05
G1 X55.08 Y-25.03
G1 X55.09 Y-25.02
G1 X55.10 Y-25.01
G1 X55.10 Y-25.01
G1 X55.11 Y-25.00
G1 X55.11 Y-25.00
G1 X55.12 Y-24.99
G1 X55.13 Y-24.98
G1 X55.14 Y-24.97
G1 X55.15 Y-24.96
G1 X55.16 Y-24.95
G1 X55.16 Y-24.94
G1 X55.17 Y-24.94
G1 X55.17 Y-24.93
G1 X55.18 Y-24.93
G1 X55.18 Y-24.92
G1 X55.19 Y-24.92
G1 X55.20 Y-24.91
G1 X55.20 Y-24.91
G1 X55.21 Y-24.90
G1 X55.21 Y-24.90
G1 X55.22 Y-24.89
G1 X55.22 Y-24.89
G1 X55.23 Y-24.89
G1 X55.24 Y-24.88
G1 X55.25 Y-24.87
G1 X55.26 Y-24.86
G1 X55.27 Y-24.86
G1 X55.27 Y-24.86
G1 X55.28 Y-24.85
G1 X55.28 Y-24.85
G1 X55.29 Y-24.84
G1 X55.30 Y-24.84
G1 X55.31 Y-24.84
G1 X55.31 Y-24.83
G1 X55.32 Y-24.83
G1 X55.32 Y-24.83
G1 X55.33 Y-24.82
G1 X55.34 Y-24.82
G1 X55.34 Y-24.82
G1 X55.35 Y-24.81
G1 X55.35 Y-24.81
G1 X55.36 Y-24.81
G1 X55.37 Y-24.81
G1 X55.38 Y-24.80
G1 X55.39 Y-24.80
G1 X55.40 Y-24.80
G1 X55.41 Y-24.80
G1 X55.41 Y-24.80
G1 X55.42 Y-24.79
G1 X55.42 Y-24.79
G1 X55.43 Y-24.79
G1 X55.43 Y-24.79
G1 X55.44 Y-24.79
G1 X55.45 Y-24.79
G1 X55.46 Y-24.79
G1 X55.46 Y-24.79
G1 X55.47 Y-24.79
G1 X55.47 Y-24.79
G1 X55.48 Y-24.79
G1 X55.48 Y-24.79
G1 X55.49 Y-24.79
G1 X55.50 Y-24.79
G1 X55.52 Y-24.79
G1 X55.53 Y-24.79
G1 X55.53 Y-24.79
G1 X55.54 Y-24.79
G1 X55.54 Y-24.79
G1 X55.55 Y-24.79
G1 X55.56 Y-24.78
G1 X55.56 Y-24.78
G1 X55.57 Y-24.78
G1 X55.57 Y-24.78
G1 X55.58 Y-24.78
G1 X55.60 Y-24.78
G1 X55.61 Y-24.78
G1 X55.62 Y-24.77
G1 X55.62 Y-24.77
G1 X55.63 Y-24.77
G1 X55.64 Y-24.77
G1 X55.65 Y-24.76
G1 X55.66 Y-24.76
G1 X55.67 Y-24.76
G1 X55.68 Y-24.75
G1 X55.69 Y-24.75
G1 X55.70 Y-24.75
G1 X55.70 Y-24.75
G1 X55.71 Y-24.74
G1 X55.71 Y-24.74
G1 X55.72 Y-24.74
G1 X55.72 Y-24.73
G1 X55.73 Y-24.73
G1 X55.73 Y-24.73
G1 X55.73 Y-24.73
G1 X55.73 Y-24.72
G1 X55.74 Y-24.72
G1 X55.74 Y-24.72
G1 X55.75 Y-24.71
G1 X55.75 Y-24.71
G1 X55.75 Y-24.71
G1 X55.75 Y-24.71
G1 X55.76 Y-24.70
G1 X55.76 Y-24.70
G1 X55.76 Y-24.69
G1 X55.77 Y-24.69
G1 X55.77 Y-24.68
G1 X55.77 Y-24.68
G1 X55.78 Y-24.67
G1 X55.78 Y-24.67
G1 X55.78 Y-24.66
G1 X55.78 Y-24.66
G1 X55.78 Y-24.66
G1 X55.78 Y-24.65
G1 X55.79 Y-24.65
G1 X55.79 Y-24.64
G1 X55.79 Y-24.63
G1 X55.79 Y-24.63
G1 X55.80 Y-24.62
G1 X55.80 Y-24.61
G1 X55.80 Y-24.61
G1 X55.80 Y-24.60
G1 X55.81 Y-24.59
G1 X55.81 Y-24.57
G1 X55.82 Y-24.56
G1 X55.82 Y-24.54
G1 X55.82 Y-24.53
G1 X55.83 Y-24.52
G1 X55.83 Y-24.51
G1 X55.83 Y-24.50
G1 X55.83 Y-24.50
G1 X55.83 Y-24.49
G1 X55.83 Y-24.48
G1 X55.83 Y-24.47
G1 X55.83 Y-24.46
G1 X55.84 Y-24.45
G1 X55.84 Y-24.44
G1 X55.84 Y-24.43
G1 X55.84 Y-24.38
G1 X55.85 Y-24.34
G1 X55.85 Y-24.29
G1 X55.85 Y-24.25
G1 X55.86 Y-24.20
G1 X55.86 Y-24.16
G1 X55.86 Y-24.11
G1 X55.87 Y-24.06
G1 X55.87 Y-24.02
G1 X55.87 Y-23.97
G1 X55.88 Y-23.93
G1 X55.88 Y-23.88
G1 X55.89 Y-23.80
G1 X55.89 Y-23.72
G1 X55.90 Y-23.67
G1 X55.90 Y-23.62
G1 X55.90 Y-23.59
G1 X55.91 Y-23.57
G1 X55.91 Y-23.54
G1 X55.91 Y-23.52
G1 X55.91 Y-23.49
G1 X55.92 Y-23.46
G1 X55.92 Y-23.44
G1 X55.92 Y-23.41
G1 X55.93 Y-23.36
G1 X55.93 Y-23.31
G1 X55.93 Y-23.29
G1 X55.94 Y-23.27
G1 X55.94 Y-23.26
G1 X55.94 Y-23.24
G1 X55.94 Y-23.23
G1 X55.94 Y-23.22
G1 X55.95 Y-23.20
G1 X55.95 Y-23.19
G1 X55.95 Y-23.16
G1 X55.96 Y-23.13
G1 X55.96 Y-23.12
G1 X55.96 Y-23.11
G1 X55.96 Y-23.09
G1 X55.97 Y-23.08
G1 X55.97 Y-23.05
G1 X55.98 Y-23.03
G1 X55.98 Y-23.00
G1 X55.99 Y-22.97
G1 X55.99 Y-22.96
G1 X55.99 Y-22.95
G1 X56.00 Y-22.94
G1 X56.00 Y-22.93
G1 X56.00 Y-22.92
G1 X56.00 Y-22.91
G1 X56.01 Y-22.90
G1 X56.01 Y-22.89
G1 X56.01 Y-22.88
G1 X56.02 Y-22.87
G1 X56.02 Y-22.86
G1 X56.02 Y-22.85
G1 X56.02 Y-22.84
G1 X56.03 Y-22.83
G1 X56.03 Y-22.82
G1 X56.04 Y-22.80
G1 X56.04 Y-22.79
G1 X56.05 Y-22.78
G1 X56.05 Y-22.77
G1 X56.05 Y-22.76
G1 X56.06 Y-22.75
G1 X56.06 Y-22.74
G1 X56.06 Y-22.73
G1 X56.07 Y-22.73
G1 X56.07 Y-22.72
G1 X56.07 Y-22.71
G1 X56.08 Y-22.71
G1 X56.08 Y-22.71
G1 X56.08 Y-22.70
G1 X56.08 Y-22.70
G1 X56.08 Y-22.70
G1 X56.09 Y-22.69
G1 X56.09 Y-22.69
G1 X56.10 Y-22.68
G1 X56.10 Y-22.67
G1 X56.11 Y-22.67
G1 X56.11 Y-22.66
G1 X56.12 Y-22.65
G1 X56.12 Y-22.65
G1 X56.12 Y-22.65
G1 X56.13 Y-22.64
G1 X56.13 Y-22.64
G1 X56.14 Y-22.64
G1 X56.14 Y-22.63
G1 X56.14 Y-22.63
G1 X56.15 Y-22.63
G1 X56.16 Y-22.62
G1 X56.16 Y-22.61
G1 X56.17 Y-22.61
G1 X56.17 Y-22.61
G1 X56.17 Y-22.60
G1 X56.18 Y-22.60
G1 X56.19 Y-22.59
G1 X56.19 Y-22.59
G1 X56.20 Y-22.58
G1 X56.20 Y-22.58
G1 X56.20 Y-22.58
G1 X56.21 Y-22.57
G1 X56.22 Y-22.57
G1 X56.22 Y-22.56
G1 X56.23 Y-22.55
G1 X56.23 Y-22.55
G1 X56.23 Y-22.55
G1 X56.24 Y-22.54
G1 X56.24 Y-22.54
G1 X56.24 Y-22.53
G1 X56.25 Y-22.52
G1 X56.26 Y-22.50
G1 X56.27 Y-22.49
G1 X56.28 Y-22.48
G1 X56.29 Y-22.47
G1 X56.29 Y-22.46
G1 X56.31 Y-22.43
G1 X56.33 Y-22.41
G1 X56.34 Y-22.39
G1 X56.36 Y-22.36
G1 X56.36 Y-22.35
G1 X56.37 Y-22.34
G1 X56.38 Y-22.33
G1 X56.39 Y-22.31
G1 X56.39 Y-22.30
G1 X56.40 Y-22.29
G1 X56.41 Y-22.28
G1 X56.42 Y-22.26
G1 X56.43 Y-22.24
G1 X56.45 Y-22.21
G1 X56.45 Y-22.20
G1 X56.46 Y-22.18
G1 X56.47 Y-22.17
G1 X56.47 Y-22.16
G1 X56.49 Y-22.13
G1 X56.50 Y-22.11
G1 X56.50 Y-22.10
G1 X56.51 Y-22.08
G1 X56.52 Y-22.07
G1 X56.53 Y-22.05
G1 X56.54 Y-22.03
G1 X56.55 Y-22.00
G1 X56.56 Y-21.98
G1 X56.57 Y-21.97
G1 X56.57 Y-21.95
G1 X56.58 Y-21.94
G1 X56.59 Y-21.92
G1 X56.59 Y-21.91
G1 X56.60 Y-21.89
G1 X56.61 Y-21.87 F67.36
G1 X56.74 Y-21.56 F46.63
G1 X56.87 Y-21.26
G1 X57.14 Y-21.29 F67.36
G1 X57.41 Y-21.33 F72.54
G1 X57.44 Y-21.33
G1 X57.46 Y-21.34
G1 X57.47 Y-21.34
G1 X57.49 Y-21.34
G1 X57.50 Y-21.34
G1 X57.51 Y-21.34
G1 X57.53 Y-21.34
G1 X57.54 Y-21.35
G1 X57.55 Y-21.35
G1 X57.57 Y-21.35
G1 X57.58 Y-21.35
G1 X57.59 Y-21.35
G1 X57.62 Y-21.35
G1 X57.64 Y-21.35
G1 X57.66 Y-21.35
G1 X57.68 Y-21.35
G1 X57.69 Y-21.35
G1 X57.70 Y-21.35
G1 X57.71 Y-21.35
G1 X57.71 Y-21.35
G1 X57.73 Y-21.35
G1 X57.75 Y-21.35
G1 X57.76 Y-21.35
G1 X57.78 Y-21.35
G1 X57.79 Y-21.35
G1 X57.80 Y-21.35
G1 X57.81 Y-21.35
G1 X57.83 Y-21.35
G1 X57.84 Y-21.35
G1 X57.84 Y-21.34
G1 X57.85 Y-21.34
G1 X57.86 Y-21.34
G1 X57.87 Y-21.34
G1 X57.88 Y-21.34
G1 X57.89 Y-21.34
G1 X57.89 Y-21.34
G1 X57.90 Y-21.34
G1 X57.90 Y-21.33
G1 X57.92 Y-21.33
G1 X57.93 Y-21.33
G1 X57.94 Y-21.32
G1 X57.96 Y-21.32
G1 X57.96 Y-21.32
G1 X57.97 Y-21.32
G1 X57.97 Y-21.32
G1 X57.98 Y-21.31
G1 X57.99 Y-21.31
G1 X57.99 Y-21.31
G1 X58.00 Y-21.31
G1 X58.00 Y-21.30
G1 X58.01 Y-21.30
G1 X58.02 Y-21.30
G1 X58.03 Y-21.30
G1 X58.03 Y-21.29
G1 X58.04 Y-21.29
G1 X58.04 Y-21.29
G1 X58.05 Y-21.29
G1 X58.05 Y-21.28
G1 X58.06 Y-21.28
G1 X58.06 Y-21.28
G1 X58.07 Y-21.28
G1 X58.07 Y-21.27
G1 X58.08 Y-21.27
G1 X58.08 Y-21.27
G1 X58.09 Y-21.27
G1 X58.09 Y-21.26
G1 X58.10 Y-21.26
G1 X58.11 Y-21.25
G1 X58.11 Y-21.25
G1 X58.12 Y-21.24
G1 X58.12 Y-21.24
G1 X58.12 Y-21.24
G1 X58.13 Y-21.24
G1 X58.13 Y-21.23
G1 X58.14 Y-21.23
G1 X58.14 Y-21.22
G1 X58.15 Y-21.22
G1 X58.15 Y-21.21
G1 X58.16 Y-21.21
G1 X58.17 Y-21.20
G1 X58.17 Y-21.20
G1 X58.18 Y-21.19
G1 X58.19 Y-21.19
G1 X58.19 Y-21.18
G1 X58.20 Y-21.18
G1 X58.20 Y-21.18
G1 X58.21 Y-21.18
G1 X58.22 Y-21.17
G1 X58.22 Y-21.17
G1 X58.22 Y-21.17
G1 X58.23 Y-21.17
G1 X58.23 Y-21.17
G1 X58.23 Y-21.17
G1 X58.24 Y-21.16
G1 X58.24 Y-21.16
G1 X58.25 Y-21.16
G1 X58.25 Y-21.16
G1 X58.25 Y-21.16
G1 X58.26 Y-21.16
G1 X58.27 Y-21.16
G1 X58.28 Y-21.15
G1 X58.29 Y-21.15
G1 X58.29 Y-21.15
G1 X58.29 Y-21.15
G1 X58.30 Y-21.15
G1 X58.31 Y-21.15
G1 X58.31 Y-21.15
G1 X58.32 Y-21.15
G1 X58.33 Y-21.15
G1 X58.34 Y-21.15
G1 X58.35 Y-21.15
G1 X58.35 Y-21.15
G1 X58.36 Y-21.15
G1 X58.37 Y-21.15
G1 X58.38 Y-21.15
G1 X58.38 Y-21.15
G1 X58.39 Y-21.15
G1 X58.40 Y-21.15
G1 X58.41 Y-21.15
G1 X58.43 Y-21.16
G1 X58.44 Y-21.16
G1 X58.44 Y-21.16
G1 X58.46 Y-21.16
G1 X58.47 Y-21.16
G1 X58.49 Y-21.16
G1 X58.50 Y-21.17
G1 X58.51 Y-21.17
G1 X58.52 Y-21.17
G1 X58.52 Y-21.17
G1 X58.53 Y-21.17
G1 X58.54 Y-21.18
G1 X58.54 Y-21.18
G1 X58.55 Y-21.18
G1 X58.56 Y-21.18
G1 X58.57 Y-21.19
G1 X58.59 Y-21.19
G1 X58.60 Y-21.19
G1 X58.61 Y-21.20
G1 X58.63 Y-21.20
G1 X58.64 Y-21.21
G1 X58.66 Y-21.21
G1 X58.67 Y-21.22
G1 X58.69 Y-21.22
G1 X58.70 Y-21.23
G1 X58.72 Y-21.23
G1 X58.73 Y-21.24
G1 X58.76 Y-21.25
G1 X58.79 Y-21.26
G1 X58.82 Y-21.27
G1 X58.85 Y-21.28
G1 X58.88 Y-21.30
G1 X58.91 Y-21.31
G1 X58.92 Y-21.31
G1 X58.94 Y-21.32
G1 X58.95 Y-21.33
G1 X58.97 Y-21.33
G1 X58.98 Y-21.34
G1 X59.00 Y-21.34
G1 X59.01 Y-21.35
G1 X59.02 Y-21.36
G1 X59.13 Y-21.40
G1 X59.23 Y-21.45
G1 X59.29 Y-21.48
G1 X59.35 Y-21.51
G1 X59.41 Y-21.53
G1 X59.47 Y-21.56
G1 X59.53 Y-21.59
G1 X59.59 Y-21.62
G1 X59.71 Y-21.67
G1 X59.83 Y-21.73 F67.36
G1 X60.69 Y-22.14 F46.63
G1 X61.55 Y-22.54
G1 X61.59 Y-22.33 F67.36
G1 X61.64 Y-22.13 F72.54
G1 X61.64 Y-22.11
G1 X61.64 Y-22.10
G1 X61.65 Y-22.08
G1 X61.65 Y-22.06
G1 X61.66 Y-22.05
G1 X61.66 Y-22.04
G1 X61.66 Y-22.02
G1 X61.67 Y-21.99
G1 X61.67 Y-21.98
G1 X61.68 Y-21.97
G1 X61.68 Y-21.96
G1 X61.68 Y-21.95
G1 X61.69 Y-21.94
G1 X61.69 Y-21.93
G1 X61.69 Y-21.92
G1 X61.70 Y-21.91
G1 X61.70 Y-21.89
G1 X61.71 Y-21.87
G1 X61.72 Y-21.84
G1 X61.73 Y-21.82
G1 X61.74 Y-21.80
G1 X61.74 Y-21.78
G1 X61.75 Y-21.76
G1 X61.76 Y-21.74
G1 X61.77 Y-21.73
G1 X61.77 Y-21.72
G1 X61.78 Y-21.71
G1 X61.78 Y-21.70
G1 X61.79 Y-21.69
G1 X61.79 Y-21.68
G1 X61.80 Y-21.67
G1 X61.80 Y-21.66
G1 X61.81 Y-21.64
G1 X61.82 Y-21.62
G1 X61.83 Y-21.61
G1 X61.83 Y-21.60
G1 X61.85 Y-21.57
G1 X61.86 Y-21.55
G1 X61.87 Y-21.52
G1 X61.89 Y-21.50
G1 X61.90 Y-21.48
G1 X61.91 Y-21.45
G1 X61.94 Y-21.41
G1 X61.96 Y-21.36
G1 X61.98 Y-21.34
G1 X61.99 Y-21.32
G1 X62.00 Y-21.30
G1 X62.02 Y-21.27
G1 X62.03 Y-21.25
G1 X62.04 Y-21.23
G1 X62.06 Y-21.21
G1 X62.07 Y-21.18
G1 X62.08 Y-21.16
G1 X62.10 Y-21.14
G1 X62.11 Y-21.12
G1 X62.13 Y-21.10
G1 X62.14 Y-21.07
G1 X62.15 Y-21.05
G1 X62.17 Y-21.03
G1 X62.18 Y-21.01
G1 X62.21 Y-20.96
G1 X62.24 Y-20.92
G1 X62.25 Y-20.90
G1 X62.27 Y-20.87
G1 X62.28 Y-20.85
G1 X62.30 Y-20.83
G1 X62.31 Y-20.81
G1 X62.33 Y-20.79
G1 X62.34 Y-20.76
G1 X62.36 Y-20.73
G1 X62.38 Y-20.70
G1 X62.40 Y-20.68
G1 X62.42 Y-20.65
G1 X62.44 Y-20.62
G1 X62.47 Y-20.57
G1 X62.51 Y-20.51
G1 X62.53 Y-20.49
G1 X62.55 Y-20.46
G1 X62.59 Y-20.41
G1 X62.63 Y-20.35
G1 X62.66 Y-20.30
G1 X62.70 Y-20.25
G1 X62.74 Y-20.19
G1 X62.78 Y-20.14
G1 X62.80 Y-20.11
G1 X62.82 Y-20.09
G1 X62.84 Y-20.06
G1 X62.86 Y-20.03
G1 X62.86 Y-20.03
G1 X62.86 Y-20.03
G1 X62.87 Y-20.03
G1 X62.87 Y-20.02
G1 X62.87 Y-20.02
G1 X62.87 Y-20.02
G1 X62.88 Y-20.02
G1 X62.88 Y-20.01
G1 X62.88 Y-20.01
G1 X62.88 Y-20.01
G1 X62.89 Y-20.01
G1 X62.89 Y-20.00
G1 X62.89 Y-20.00
G1 X62.90 Y-20.00
G1 X62.90 Y-19.99
G1 X62.91 Y-19.99
G1 X62.91 Y-19.99
G1 X62.91 Y-19.99
G1 X62.92 Y-19.98
G1 X62.92 Y-19.98
G1 X62.93 Y-19.98
G1 X62.93 Y-19.98
G1 X62.94 Y-19.97
G1 X62.94 Y-19.97
G1 X62.95 Y-19.97
G1 X62.95 Y-19.97
G1 X62.96 Y-19.97
G1 X62.96 Y-19.96
G1 X62.97 Y-19.96
G1 X62.98 Y-19.96
G1 X62.99 Y-19.96
G1 X62.99 Y-19.96
G1 X63.00 Y-19.96
G1 X63.01 Y-19.96
G1 X63.01 Y-19.96
G1 X63.01 Y-19.96
G1 X63.02 Y-19.96
G1 X63.02 Y-19.96
G1 X63.03 Y-19.96
G1 X63.04 Y-19.96
G1 X63.04 Y-19.96
G1 X63.05 Y-19.96
G1 X63.06 Y-19.96
G1 X63.06 Y-19.96
G1 X63.07 Y-19.96
G1 X63.07 Y-19.96
G1 X63.08 Y-19.96
G1 X63.08 Y-19.97
G1 X63.11 Y-19.98
G1 X63.14 Y-19.99
G1 X63.15 Y-19.99
G1 X63.17 Y-20.00
G1 X63.18 Y-20.00
G1 X63.20 Y-20.01
G1 X63.21 Y-20.01
G1 X63.23 Y-20.02
G1 X63.24 Y-20.02
G1 X63.26 Y-20.03
G1 X63.28 Y-20.03
G1 X63.31 Y-20.04
G1 X63.33 Y-20.05
G1 X63.35 Y-20.05
G1 X63.35 Y-20.05
G1 X63.36 Y-20.06
G1 X63.37 Y-20.06
G1 X63.37 Y-20.06
G1 X63.38 Y-20.06
G1 X63.39 Y-20.06
G1 X63.39 Y-20.06
G1 X63.39 Y-20.06
G1 X63.40 Y-20.06
G1 X63.40 Y-20.06
G1 X63.40 Y-20.06
G1 X63.40 Y-20.06
G1 X63.41 Y-20.06
G1 X63.41 Y-20.06
G1 X63.41 Y-20.06
G1 X63.41 Y-20.06
G1 X63.42 Y-20.06
G1 X63.42 Y-20.06
G1 X63.42 Y-20.06
G1 X63.42 Y-20.06
G1 X63.42 Y-20.06
G1 X63.43 Y-20.06
G1 X63.43 Y-20.06
G1 X63.43 Y-20.06
G1 X63.43 Y-20.06
G1 X63.43 Y-20.06
G1 X63.43 Y-20.06
G1 X63.44 Y-20.05
G1 X63.44 Y-20.05
G1 X63.44 Y-20.05
G1 X63.44 Y-20.05
G1 X63.44 Y-20.05
G1 X63.45 Y-20.05
G1 X63.45 Y-20.05
G1 X63.45 Y-20.05
G1 X63.45 Y-20.04
G1 X63.45 Y-20.04
G1 X63.45 Y-20.04
G1 X63.45 Y-20.04
G1 X63.46 Y-20.04
G1 X63.50 Y-19.99
G1 X63.53 Y-19.93
G1 X63.57 Y-19.88
G1 X63.61 Y-19.83
G1 X63.65 Y-19.78
G1 X63.69 Y-19.73
G1 X63.75 Y-19.64
G1 X63.82 Y-19.56
G1 X63.86 Y-19.50
G1 X63.91 Y-19.43
G1 X63.93 Y-19.40
G1 X63.96 Y-19.37
G1 X63.98 Y-19.34
G1 X64.00 Y-19.31
G1 X64.03 Y-19.28
G1 X64.05 Y-19.24
G1 X64.07 Y-19.21
G1 X64.09 Y-19.18
G1 X64.12 Y-19.15
G1 X64.14 Y-19.12
G1 X64.16 Y-19.09
G1 X64.19 Y-19.05
G1 X64.24 Y-18.98
G1 X64.29 Y-18.91
G1 X64.32 Y-18.86
G1 X64.35 Y-18.82
G1 X64.38 Y-18.77
G1 X64.41 Y-18.73
G1 X64.44 Y-18.69
G1 X64.47 Y-18.64
G1 X64.50 Y-18.60
G1 X64.53 Y-18.55
G1 X64.56 Y-18.51
G1 X64.60 Y-18.46
G1 X64.63 Y-18.42
G1 X64.66 Y-18.37
G1 X64.70 Y-18.31
G1 X64.75 Y-18.24
G1 X64.78 Y-18.20
G1 X64.80 Y-18.15
G1 X64.86 Y-18.07
G1 X64.91 Y-17.99
G1 X64.97 Y-17.91
G1 X65.02 Y-17.82
G1 X65.08 Y-17.74
G1 X65.13 Y-17.65
G1 X65.16 Y-17.61
G1 X65.19 Y-17.57
G1 X65.23 Y-17.51
G1 X65.27 Y-17.45
G1 X65.30 Y-17.40
G1 X65.33 Y-17.35
G1 X65.34 Y-17.33
G1 X65.36 Y-17.30
G1 X65.39 Y-17.25
G1 X65.42 Y-17.21
G1 X65.43 Y-17.18
G1 X65.45 Y-17.16
G1 X65.47 Y-17.11
G1 X65.50 Y-17.06
G1 X65.52 Y-17.04
G1 X65.53 Y-17.01
G1 X65.55 Y-16.99
G1 X65.56 Y-16.96
G1 X65.57 Y-16.94
G1 X65.59 Y-16.91
G1 X65.60 Y-16.89
G1 X65.62 Y-16.86
G1 X65.63 Y-16.84
G1 X65.64 Y-16.82
G1 X65.66 Y-16.78
G1 X65.68 Y-16.74
G1 X65.70 Y-16.71
G1 X65.72 Y-16.67
G1 X65.73 Y-16.65
G1 X65.74 Y-16.63
G1 X65.75 Y-16.61
G1 X65.76 Y-16.59
G1 X65.77 Y-16.57
G1 X65.78 Y-16.55
G1 X65.79 Y-16.53
G1 X65.80 Y-16.51
G1 X65.81 Y-16.49
G1 X65.82 Y-16.47
G1 X65.83 Y-16.45
G1 X65.84 Y-16.43
G1 X65.85 Y-16.40
G1 X65.87 Y-16.37
G1 X65.87 Y-16.36
G1 X65.88 Y-16.36
G1 X65.88 Y-16.35
G1 X65.88 Y-16.34
G1 X65.89 Y-16.32
G1 X65.90 Y-16.31
G1 X65.90 Y-16.30
G1 X65.90 Y-16.29
G1 X65.91 Y-16.27
G1 X65.92 Y-16.26
G1 X65.92 Y-16.25
G1 X65.92 Y-16.24
G1 X65.93 Y-16.22
G1 X65.93 Y-16.21
G1 X65.93 Y-16.20
G1 X65.94 Y-16.19
G1 X65.94 Y-16.18
G1 X65.94 Y-16.17
G1 X65.94 Y-16.16
G1 X65.95 Y-16.16
G1 X65.95 Y-16.14
G1 X65.95 Y-16.12
G1 X65.96 Y-16.11
G1 X65.96 Y-16.10
G1 X65.96 Y-16.09
G1 X65.97 Y-16.07
G1 X65.97 Y-16.05
G1 X65.97 Y-16.02
G1 X65.98 Y-16.01
G1 X65.98 Y-16.00
G1 X65.98 Y-15.99
G1 X65.98 Y-15.98
G1 X65.98 Y-15.97
G1 X65.99 Y-15.95
G1 X65.99 Y-15.94
G1 X65.99 Y-15.93
G1 X66.00 Y-15.91
G1 X66.00 Y-15.89
G1 X66.01 Y-15.87
G1 X66.01 Y-15.86
G1 X66.02 Y-15.84
G1 X66.02 Y-15.82
G1 X66.03 Y-15.81
G1 X66.03 Y-15.80
G1 X66.03 Y-15.79
G1 X66.04 Y-15.78
G1 X66.05 Y-15.76
G1 X66.05 Y-15.74
G1 X66.06 Y-15.72
G1 X66.07 Y-15.70
G1 X66.08 Y-15.68
G1 X66.08 Y-15.67
G1 X66.09 Y-15.66
G1 X66.09 Y-15.65
G1 X66.09 Y-15.64
G1 X66.10 Y-15.63
G1 X66.10 Y-15.62
G1 X66.11 Y-15.61
G1 X66.12 Y-15.59
G1 X66.13 Y-15.57
G1 X66.13 Y-15.56
G1 X66.14 Y-15.55
G1 X66.15 Y-15.54
G1 X66.15 Y-15.53
G1 X66.16 Y-15.51
G1 X66.17 Y-15.48
G1 X66.18 Y-15.46
G1 X66.20 Y-15.44
G1 X66.20 Y-15.43
G1 X66.21 Y-15.42
G1 X66.22 Y-15.40
G1 X66.23 Y-15.38
G1 X66.24 Y-15.37
G1 X66.25 Y-15.36
G1 X66.26 Y-15.34
G1 X66.27 Y-15.32
G1 X66.28 Y-15.31
G1 X66.29 Y-15.30
G1 X66.30 Y-15.28
G1 X66.32 Y-15.26
G1 X66.33 Y-15.24
G1 X66.34 Y-15.22
G1 X66.36 Y-15.20
G1 X66.37 Y-15.19
G1 X66.38 Y-15.18
G1 X66.39 Y-15.17
G1 X66.39 Y-15.16
G1 X66.40 Y-15.15
G1 X66.41 Y-15.14
G1 X66.41 Y-15.13
G1 X66.42 Y-15.12
G1 X66.43 Y-15.11
G1 X66.44 Y-15.10
G1 X66.44 Y-15.10
G1 X66.46 Y-15.08
G1 X66.48 Y-15.06
G1 X66.48 Y-15.05
G1 X66.49 Y-15.04
G1 X66.50 Y-15.04
G1 X66.51 Y-15.03
G1 X66.51 Y-15.02
G1 X66.52 Y-15.01
G1 X66.53 Y-14.99
G1 X66.55 Y-14.97
G1 X66.56 Y-14.96
G1 X66.56 Y-14.95
G1 X66.58 Y-14.94
G1 X66.59 Y-14.92
G1 X66.60 Y-14.91
G1 X66.60 Y-14.90
G1 X66.61 Y-14.89
G1 X66.62 Y-14.88
G1 X66.63 Y-14.86
G1 X66.64 Y-14.85
G1 X66.65 Y-14.84
G1 X66.65 Y-14.83
G1 X66.67 Y-14.80
G1 X66.69 Y-14.78
G1 X66.70 Y-14.76
G1 X66.71 Y-14.73
G1 X66.72 Y-14.72
G1 X66.73 Y-14.71
G1 X66.74 Y-14.69
G1 X66.76 Y-14.66
G1 X66.77 Y-14.64
G1 X66.78 Y-14.63
G1 X66.79 Y-14.60
G1 X66.80 Y-14.58
G1 X66.82 Y-14.56
G1 X66.83 Y-14.53
G1 X66.84 Y-14.51
G1 X66.85 Y-14.49
G1 X66.86 Y-14.47
G1 X66.86 Y-14.46
G1 X66.87 Y-14.44
G1 X66.89 Y-14.41
G1 X66.89 Y-14.40
G1 X66.90 Y-14.38
G1 X66.91 Y-14.37
G1 X66.91 Y-14.35
G1 X66.91 Y-14.34
G1 X66.92 Y-14.34
G1 X66.92 Y-14.33
G1 X66.92 Y-14.32
G1 X66.93 Y-14.31
G1 X66.93 Y-14.31
G1 X66.93 Y-14.29
G1 X66.94 Y-14.28
G1 X66.94 Y-14.27
G1 X66.94 Y-14.26
G1 X66.95 Y-14.24
G1 X66.95 Y-14.23
G1 X66.96 Y-14.21
G1 X66.96 Y-14.20
G1 X66.97 Y-14.17
G1 X66.97 Y-14.15
G1 X66.98 Y-14.12
G1 X66.98 Y-14.10
G1 X66.99 Y-14.08
G1 X67.00 Y-14.05
G1 X67.00 Y-14.04
G1 X67.00 Y-14.03
G1 X67.01 Y-14.01
G1 X67.01 Y-13.99
G1 X67.02 Y-13.98
G1 X67.02 Y-13.97
G1 X67.02 Y-13.96
G1 X67.03 Y-13.95
G1 X67.03 Y-13.94
G1 X67.03 Y-13.93
G1 X67.04 Y-13.92
G1 X67.04 Y-13.91
G1 X67.04 Y-13.90
G1 X67.05 Y-13.89
G1 X67.06 Y-13.87
G1 X67.06 Y-13.85
G1 X67.07 Y-13.83
G1 X67.08 Y-13.81
G1 X67.08 Y-13.80
G1 X67.09 Y-13.79
G1 X67.09 Y-13.77
G1 X67.10 Y-13.75
G1 X67.11 Y-13.75
G1 X67.11 Y-13.74
G1 X67.12 Y-13.73
G1 X67.12 Y-13.72
G1 X67.12 Y-13.72
G1 X67.12 Y-13.71
G1 X67.13 Y-13.71
G1 X67.13 Y-13.71
G1 X67.13 Y-13.70
G1 X67.13 Y-13.70
G1 X67.13 Y-13.70
G1 X67.14 Y-13.69
G1 X67.14 Y-13.69
G1 X67.14 Y-13.69
G1 X67.14 Y-13.69
G1 X67.15 Y-13.68
G1 X67.15 Y-13.68
G1 X67.15 Y-13.68
G1 X67.15 Y-13.68
G1 X67.16 Y-13.67
G1 X67.16 Y-13.67
G1 X67.16 Y-13.67
G1 X67.17 Y-13.67
G1 X67.17 Y-13.66
G1 X67.18 Y-13.66
G1 X67.18 Y-13.66
G1 X67.19 Y-13.65
G1 X67.19 Y-13.65
G1 X67.20 Y-13.64
G1 X67.20 Y-13.64
G1 X67.21 Y-13.64
G1 X67.21 Y-13.63
G1 X67.21 Y-13.63
G1 X67.21 Y-13.63
G1 X67.22 Y-13.62
G1 X67.22 Y-13.62
G1 X67.23 Y-13.61
G1 X67.23 Y-13.61
G1 X67.23 Y-13.60
G1 X67.24 Y-13.60
G1 X67.24 Y-13.59
G1 X67.24 Y-13.59
G1 X67.24 Y-13.58
G1 X67.25 Y-13.58
G1 X67.25 Y-13.57
G1 X67.25 Y-13.57
G1 X67.25 Y-13.56
G1 X67.26 Y-13.56
G1 X67.26 Y-13.55
G1 X67.26 Y-13.54
G1 X67.26 Y-13.54
G1 X67.26 Y-13.54
G1 X67.26 Y-13.53
G1 X67.26 Y-13.53
G1 X67.27 Y-13.52
G1 X67.27 Y-13.51
G1 X67.27 Y-13.51
G1 X67.27 Y-13.50
G1 X67.29 Y-13.31
G1 X67.30 Y-13.11
G1 X67.32 Y-12.92
G1 X67.34 Y-12.72
G1 X67.35 Y-12.63
G1 X67.36 Y-12.53
G1 X67.37 Y-12.43
G1 X67.37 Y-12.34
G1 X67.38 Y-12.22
G1 X67.39 Y-12.10
G1 X67.40 Y-11.98
G1 X67.41 Y-11.86
G1 X67.42 Y-11.80
G1 X67.42 Y-11.73
G1 X67.43 Y-11.61
G1 X67.44 Y-11.49
G1 X67.45 Y-11.42
G1 X67.45 Y-11.36
G1 X67.46 Y-11.30
G1 X67.46 Y-11.24
G1 X67.47 Y-11.18
G1 X67.47 Y-11.11
G1 X67.48 Y-10.99
G1 X67.49 Y-10.87
G1 X67.49 Y-10.74
G1 X67.50 Y-10.62
G1 X67.51 Y-10.54
G1 X67.51 Y-10.45
G1 X67.52 Y-10.36
G1 X67.52 Y-10.28
G1 X67.53 Y-10.19
G1 X67.53 Y-10.10
G1 X67.54 Y-10.01
G1 X67.54 Y-9.92
G1 X67.54 Y-9.83
G1 X67.55 Y-9.75
G1 X67.55 Y-9.66
G1 X67.56 Y-9.57
G1 X67.56 Y-9.48
G1 X67.57 Y-9.39
G1 X67.57 Y-9.30
G1 X67.58 Y-9.22
G1 X67.58 Y-9.13
G1 X67.58 Y-9.04
G1 X67.59 Y-8.95
G1 X67.59 Y-8.86
G1 X67.60 Y-8.77
G1 X67.60 Y-8.69
G1 X67.60 Y-8.56
G1 X67.61 Y-8.44
G1 X67.61 Y-8.40
G1 X67.61 Y-8.35
G1 X67.62 Y-8.30
G1 X67.62 Y-8.25
G1 X67.62 Y-8.16
G1 X67.63 Y-8.06
G1 X67.63 Y-7.97
G1 X67.64 Y-7.87
G1 X67.64 Y-7.83
G1 X67.64 Y-7.78
G1 X67.65 Y-7.69
G1 X67.66 Y-7.59
G1 X67.66 Y-7.50
G1 X67.67 Y-7.40
G1 X67.67 Y-7.35
G1 X67.68 Y-7.31
G1 X67.68 Y-7.26
G1 X67.68 Y-7.21
G1 X67.69 Y-7.17
G1 X67.69 Y-7.12
G1 X67.69 Y-7.07
G1 X67.70 Y-7.02
G1 X67.70 Y-6.98
G1 X67.71 Y-6.93
G1 X67.71 Y-6.91
G1 X67.71 Y-6.88
G1 X67.71 Y-6.84
G1 X67.72 Y-6.80
G1 X67.72 Y-6.76
G1 X67.73 Y-6.71
G1 X67.73 Y-6.67
G1 X67.74 Y-6.63
G1 X67.74 Y-6.61
G1 X67.74 Y-6.59
G1 X67.75 Y-6.57
G1 X67.75 Y-6.55
G1 X67.75 Y-6.51
G1 X67.76 Y-6.46
G1 X67.76 Y-6.44
G1 X67.77 Y-6.42
G1 X67.77 Y-6.40
G1 X67.77 Y-6.38
G1 X67.78 Y-6.34
G1 X67.79 Y-6.30
G1 X67.79 Y-6.28
G1 X67.80 Y-6.26
G1 X67.80 Y-6.24
G1 X67.80 Y-6.22
G1 X67.81 Y-6.19
G1 X67.81 Y-6.17
G1 X67.82 Y-6.15
G1 X67.82 Y-6.13
G1 X67.82 Y-6.11
G1 X67.83 Y-6.09
G1 X67.83 Y-6.07
G1 X67.84 Y-6.05
G1 X67.84 Y-6.03
G1 X67.85 Y-6.01
G1 X67.85 Y-5.99
G1 X67.86 Y-5.97
G1 X67.86 Y-5.95
G1 X67.86 Y-5.93
G1 X67.87 Y-5.91
G1 X67.87 Y-5.89
G1 X67.88 Y-5.87
G1 X67.89 Y-5.84
G1 X67.89 Y-5.83
G1 X67.89 Y-5.82
G1 X67.90 Y-5.80
G1 X67.90 Y-5.79
G1 X67.90 Y-5.78
G1 X67.91 Y-5.76
G1 X67.91 Y-5.75
G1 X67.92 Y-5.74
G1 X67.92 Y-5.71
G1 X67.93 Y-5.69
G1 X67.94 Y-5.66
G1 X67.95 Y-5.63
G1 X67.96 Y-5.61
G1 X67.97 Y-5.58
G1 X67.97 Y-5.57
G1 X67.98 Y-5.56
G1 X67.98 Y-5.54
G1 X67.99 Y-5.53
G1 X67.99 Y-5.52
G1 X68.00 Y-5.51
G1 X68.00 Y-5.49
G1 X68.01 Y-5.48
G1 X68.02 Y-5.46
G1 X68.03 Y-5.43
G1 X68.03 Y-5.42
G1 X68.04 Y-5.41
G1 X68.05 Y-5.39
G1 X68.05 Y-5.38
G1 X68.06 Y-5.36
G1 X68.07 Y-5.33
G1 X68.08 Y-5.32
G1 X68.09 Y-5.31
G1 X68.09 Y-5.30
G1 X68.10 Y-5.28
G1 X68.10 Y-5.27
G1 X68.11 Y-5.26
G1 X68.11 Y-5.25
G1 X68.12 Y-5.25
G1 X68.12 Y-5.24
G1 X68.13 Y-5.22
G1 X68.14 Y-5.22
G1 X68.14 Y-5.21
G1 X68.14 Y-5.21
G1 X68.15 Y-5.20
G1 X68.15 Y-5.19
G1 X68.16 Y-5.18
G1 X68.17 Y-5.17
G1 X68.17 Y-5.17
G1 X68.18 Y-5.15
G1 X68.19 Y-5.14
G1 X68.19 Y-5.14
G1 X68.20 Y-5.13
G1 X68.21 Y-5.12
G1 X68.22 Y-5.11
G1 X68.22 Y-5.10
G1 X68.23 Y-5.09
G1 X68.24 Y-5.09
G1 X68.24 Y-5.08
G1 X68.25 Y-5.07
G1 X68.26 Y-5.06
G1 X68.27 Y-5.05
G1 X68.29 Y-5.04
G1 X68.29 Y-5.04
G1 X68.30 Y-5.03
G1 X68.30 Y-5.03
G1 X68.31 Y-5.03
G1 X68.32 Y-5.02
G1 X68.33 Y-5.01
G1 X68.33 Y-5.00
G1 X68.34 Y-5.00
G1 X68.35 Y-4.99
G1 X68.36 Y-4.98
G1 X68.37 Y-4.98
G1 X68.38 Y-4.98
G1 X68.38 Y-4.97
G1 X68.39 Y-4.97
G1 X68.40 Y-4.96
G1 X68.41 Y-4.96
G1 X68.42 Y-4.95
G1 X68.42 Y-4.95
G1 X68.43 Y-4.94
G1 X68.44 Y-4.94
G1 X68.45 Y-4.94
G1 X68.46 Y-4.93
G1 X68.47 Y-4.93
G1 X68.48 Y-4.92
G1 X68.50 Y-4.91
G1 X68.52 Y-4.90
G1 X68.53 Y-4.90
G1 X68.54 Y-4.89
G1 X68.57 Y-4.88
G1 X68.59 Y-4.87
G1 X68.61 Y-4.86
G1 X68.63 Y-4.85
G1 X68.65 Y-4.85
G1 X68.67 Y-4.84
G1 X68.69 Y-4.83
G1 X68.71 Y-4.83
G1 X68.72 Y-4.82
G1 X68.73 Y-4.82
G1 X68.73 Y-4.82
G1 X68.74 Y-4.82
G1 X68.75 Y-4.81
G1 X68.75 Y-4.81
G1 X68.76 Y-4.81
G1 X68.76 Y-4.81
G1 X68.77 Y-4.81
G1 X68.77 Y-4.81
G1 X68.79 Y-4.81
G1 X68.80 Y-4.80
G1 X68.80 Y-4.80
G1 X68.81 Y-4.80
G1 X68.82 Y-4.80
G1 X68.82 Y-4.80
G1 X68.83 Y-4.80
G1 X68.85 Y-4.80
G1 X68.86 Y-4.80
G1 X68.87 Y-4.80
G1 X68.88 Y-4.80
G1 X68.89 Y-4.80
G1 X68.91 Y-4.80
G1 X68.92 Y-4.80
G1 X68.93 Y-4.80
G1 X68.94 Y-4.80
G1 X68.94 Y-4.80
G1 X68.95 Y-4.80
G1 X68.96 Y-4.80
G1 X68.97 Y-4.80
G1 X68.98 Y-4.80
G1 X68.99 Y-4.80
G1 X69.00 Y-4.81
G1 X69.02 Y-4.81
G1 X69.03 Y-4.81
G1 X69.04 Y-4.81
G1 X69.06 Y-4.81
G1 X69.07 Y-4.82
G1 X69.09 Y-4.82
G1 X69.11 Y-4.82
G1 X69.12 Y-4.83
G1 X69.14 Y-4.83
G1 X69.19 Y-4.84
G1 X69.24 Y-4.85
G1 X69.28 Y-4.86
G1 X69.32 Y-4.87
G1 X69.35 Y-4.88
G1 X69.39 Y-4.89
G1 X69.43 Y-4.90
G1 X69.47 Y-4.91
G1 X69.50 Y-4.92
G1 X69.54 Y-4.93
G1 X69.58 Y-4.94
G1 X69.61 Y-4.95
G1 X69.67 Y-4.96
G1 X69.73 Y-4.98
G1 X69.75 Y-4.98
G1 X69.77 Y-4.99
G1 X69.79 Y-4.99
G1 X69.81 Y-5.00
G1 X69.85 Y-5.01
G1 X69.89 Y-5.02
G1 X69.93 Y-5.03
G1 X69.97 Y-5.04
G1 X69.99 Y-5.04
G1 X70.01 Y-5.05
G1 X70.03 Y-5.05
G1 X70.05 Y-5.05
G1 X70.06 Y-5.06
G1 X70.07 Y-5.06
G1 X70.08 Y-5.06
G1 X70.09 Y-5.06
G1 X70.11 Y-5.06
G1 X70.13 Y-5.07
G1 X70.14 Y-5.07
G1 X70.16 Y-5.07
G1 X70.17 Y-5.07
G1 X70.18 Y-5.07
G1 X70.19 Y-5.08
G1 X70.20 Y-5.08
G1 X70.21 Y-5.08
G1 X70.22 Y-5.08
G1 X70.23 Y-5.08
G1 X70.24 Y-5.08
G1 X70.25 Y-5.08
G1 X70.26 Y-5.08
G1 X70.28 Y-5.08
G1 X70.29 Y-5.08
G1 X70.30 Y-5.08
G1 X70.30 Y-5.08
G1 X70.31 Y-5.08
G1 X70.32 Y-5.08
G1 X70.32 Y-5.08
G1 X70.33 Y-5.08
G1 X70.34 Y-5.08
G1 X70.34 Y-5.08
G1 X70.36 Y-5.08
G1 X70.37 Y-5.08
G1 X70.38 Y-5.08
G1 X70.38 Y-5.08
G1 X70.39 Y-5.07
G1 X70.39 Y-5.07
G1 X70.40 Y-5.07
G1 X70.41 Y-5.07
G1 X70.41 Y-5.07
G1 X70.42 Y-5.07
G1 X70.43 Y-5.07
G1 X70.44 Y-5.07
G1 X70.44 Y-5.06
G1 X70.45 Y-5.06
G1 X70.45 Y-5.06
G1 X70.46 Y-5.06
G1 X70.46 Y-5.06
G1 X70.46 Y-5.06
G1 X70.47 Y-5.06
G1 X70.47 Y-5.06
G1 X70.48 Y-5.05
G1 X70.49 Y-5.05
G1 X70.49 Y-5.05
G1 X70.49 Y-5.05
G1 X70.50 Y-5.04
G1 X70.50 Y-5.04
G1 X70.51 Y-5.04
G1 X70.52 Y-5.03
G1 X70.52 Y-5.03
G1 X70.52 Y-5.03
G1 X70.53 Y-5.03
G1 X70.53 Y-5.03
G1 X70.53 Y-5.02
G1 X70.54 Y-5.02
G1 X70.54 Y-5.02
G1 X70.54 Y-5.02
G1 X70.55 Y-5.01
G1 X70.56 Y-5.00
G1 X70.56 Y-5.00
G1 X70.57 Y-5.00
G1 X70.57 Y-5.00
G1 X70.58 Y-4.99
G1 X70.58 Y-4.99
G1 X70.59 Y-4.98
G1 X70.60 Y-4.98
G1 X70.60 Y-4.98
G1 X70.61 Y-4.98
G1 X70.61 Y-4.98
G1 X70.62 Y-4.97
G1 X70.62 Y-4.97
G1 X70.63 Y-4.97
G1 X70.63 Y-4.97
G1 X70.63 Y-4.97
G1 X70.64 Y-4.97
G1 X70.64 Y-4.97
G1 X70.65 Y-4.97
G1 X70.65 Y-4.96
G1 X70.65 Y-4.96
G1 X70.66 Y-4.96
G1 X70.66 Y-4.96
G1 X70.67 Y-4.96
G1 X70.67 Y-4.96
G1 X70.68 Y-4.96
G1 X70.69 Y-4.96
G1 X70.69 Y-4.96
G1 X70.70 Y-4.96
G1 X70.70 Y-4.96
G1 X70.71 Y-4.96
G1 X70.72 Y-4.96
G1 X70.73 Y-4.97
G1 X70.73 Y-4.97
G1 X70.73 Y-4.97
G1 X70.74 Y-4.97
G1 X70.74 Y-4.97
G1 X70.74 Y-4.97
G1 X70.75 Y-4.97
G1 X70.75 Y-4.97
G1 X70.75 Y-4.97
G1 X70.76 Y-4.97
G1 X70.76 Y-4.98
G1 X70.76 Y-4.98
G1 X70.77 Y-4.98
G1 X70.77 Y-4.98
G1 X70.77 Y-4.98
G1 X70.78 Y-4.98
G1 X70.78 Y-4.98
G1 X70.78 Y-4.99
G1 X70.79 Y-4.99
G1 X70.79 Y-4.99
G1 X70.79 Y-4.99
G1 X70.80 Y-4.99
G1 X70.80 Y-5.00
G1 X70.81 Y-5.01
G1 X70.83 Y-5.02
G1 X70.85 Y-5.03
G1 X70.88 Y-5.05
G1 X70.90 Y-5.07
G1 X70.92 Y-5.09
G1 X70.95 Y-5.10
G1 X70.97 Y-5.12
G1 X70.98 Y-5.13
G1 X70.99 Y-5.14
G1 X71.01 Y-5.16
G1 X71.04 Y-5.18
G1 X71.05 Y-5.19
G1 X71.06 Y-5.19
G1 X71.07 Y-5.20
G1 X71.08 Y-5.21
G1 X71.10 Y-5.23
G1 X71.12 Y-5.25
G1 X71.15 Y-5.27
G1 X71.17 Y-5.29
G1 X71.18 Y-5.30
G1 X71.19 Y-5.31
G1 X71.21 Y-5.33
G1 X71.23 Y-5.35
G1 X71.25 Y-5.37
G1 X71.27 Y-5.39
G1 X71.28 Y-5.40
G1 X71.29 Y-5.41
G1 X71.30 Y-5.42
G1 X71.31 Y-5.44
G1 X71.33 Y-5.45
G1 X71.34 Y-5.46
G1 X71.35 Y-5.47
G1 X71.36 Y-5.48
G1 X71.38 Y-5.51
G1 X71.40 Y-5.53
G1 X71.42 Y-5.55
G1 X71.45 Y-5.58
G1 X71.47 Y-5.60
G1 X71.49 Y-5.63
G1 X71.51 Y-5.65
G1 X71.53 Y-5.68
G1 X71.54 Y-5.69
G1 X71.55 Y-5.70
G1 X71.57 Y-5.73
G1 X71.59 Y-5.75
G1 X71.61 Y-5.78
G1 X71.63 Y-5.81
G1 X71.65 Y-5.83
G1 X71.67 Y-5.86
G1 X71.69 Y-5.88
G1 X71.71 Y-5.91
G1 X71.72 Y-5.93
G1 X71.74 Y-5.95
G1 X71.75 Y-5.98
G1 X71.77 Y-6.00
G1 X71.79 Y-6.03
G1 X71.80 Y-6.05
G1 X71.81 Y-6.06
G1 X71.82 Y-6.08
G1 X71.83 Y-6.09
G1 X71.84 Y-6.10
G1 X71.85 Y-6.13
G1 X71.87 Y-6.15
G1 X71.88 Y-6.18
G1 X71.90 Y-6.20
G1 X71.90 Y-6.22
G1 X71.91 Y-6.23
G1 X71.92 Y-6.24
G1 X71.93 Y-6.26
G1 X71.93 Y-6.27
G1 X71.94 Y-6.28
G1 X71.95 Y-6.30
G1 X71.95 Y-6.31
G1 X71.97 Y-6.34
G1 X71.98 Y-6.36
G1 X71.99 Y-6.37
G1 X71.99 Y-6.39
G1 X72.00 Y-6.40
G1 X72.01 Y-6.42
G1 X72.01 Y-6.43
G1 X72.02 Y-6.44
G1 X72.03 Y-6.46
G1 X72.03 Y-6.47
G1 X72.08 Y-6.56
G1 X72.12 Y-6.66
G1 X72.14 Y-6.70
G1 X72.16 Y-6.74
G1 X72.18 Y-6.78
G1 X72.19 Y-6.82
G1 X72.29 Y-7.03
G1 X72.40 Y-7.25
G1 X72.48 Y-7.43
G1 X72.57 Y-7.61
G1 X72.69 Y-7.87
G1 X72.81 Y-8.13
G1 X72.98 Y-8.48
G1 X73.14 Y-8.83
G1 X73.24 Y-9.04
G1 X73.34 Y-9.24
G1 X73.56 Y-9.72
G1 X73.79 Y-10.19
G1 X73.83 Y-10.29
G1 X73.88 Y-10.38
G1 X73.92 Y-10.47
G1 X73.97 Y-10.56
G1 X74.01 Y-10.66
G1 X74.05 Y-10.75
G1 X74.10 Y-10.84
G1 X74.14 Y-10.93
G1 X74.23 Y-11.12
G1 X74.31 Y-11.30
G1 X74.36 Y-11.40
G1 X74.40 Y-11.49
G1 X74.45 Y-11.60
G1 X74.50 Y-11.71
G1 X74.52 Y-11.76
G1 X74.55 Y-11.81
G1 X74.57 Y-11.87
G1 X74.59 Y-11.92
G1 X74.61 Y-11.95
G1 X74.62 Y-11.97
G1 X74.63 Y-12.00
G1 X74.64 Y-12.02
G1 X74.65 Y-12.05
G1 X74.66 Y-12.08
G1 X74.68 Y-12.13
G1 X74.71 Y-12.18
G1 X74.72 Y-12.21
G1 X74.73 Y-12.24
G1 X74.75 Y-12.29
G1 X74.77 Y-12.34
G1 X74.78 Y-12.37
G1 X74.79 Y-12.40
G1 X74.80 Y-12.42
G1 X74.81 Y-12.45
G1 X74.82 Y-12.48
G1 X74.83 Y-12.50
G1 X74.84 Y-12.53
G1 X74.85 Y-12.56
G1 X74.86 Y-12.57
G1 X74.87 Y-12.59
G1 X74.87 Y-12.61
G1 X74.88 Y-12.63
G1 X74.89 Y-12.65
G1 X74.89 Y-12.66
G1 X74.90 Y-12.68
G1 X74.91 Y-12.70
G1 X74.91 Y-12.72
G1 X74.92 Y-12.74
G1 X74.92 Y-12.75
G1 X74.93 Y-12.77
G1 X74.94 Y-12.79
G1 X74.94 Y-12.81
G1 X74.95 Y-12.83
G1 X74.95 Y-12.84
G1 X74.96 Y-12.86
G1 X74.96 Y-12.88
G1 X74.97 Y-12.90
G1 X74.98 Y-12.92
G1 X74.98 Y-12.93
G1 X74.99 Y-12.95
G1 X75.00 Y-12.99
G1 X75.01 Y-13.03
G1 X75.02 Y-13.06
G1 X75.03 Y-13.10
G1 X75.04 Y-13.14
G1 X75.05 Y-13.17
G1 X75.05 Y-13.19
G1 X75.05 Y-13.21
G1 X75.06 Y-13.23
G1 X75.06 Y-13.25
G1 X75.07 Y-13.28
G1 X75.08 Y-13.32
G1 X75.09 Y-13.34
G1 X75.09 Y-13.37
G1 X75.10 Y-13.39
G1 X75.10 Y-13.42
G1 X75.11 Y-13.44
G1 X75.11 Y-13.47
G1 X75.12 Y-13.49
G1 X75.12 Y-13.52
G1 X75.13 Y-13.54
G1 X75.13 Y-13.57
G1 X75.14 Y-13.62
G1 X75.15 Y-13.67
G1 X75.16 Y-13.69
G1 X75.16 Y-13.72
G1 X75.17 Y-13.76
G1 X75.18 Y-13.81
G1 X75.18 Y-13.84
G1 X75.19 Y-13.86
G1 X75.19 Y-13.89
G1 X75.20 Y-13.91
G1 X75.20 Y-13.94
G1 X75.21 Y-13.96
G1 X75.21 Y-13.99
G1 X75.21 Y-14.01
G1 X75.22 Y-14.06
G1 X75.23 Y-14.11
G1 X75.23 Y-14.14
G1 X75.24 Y-14.16
G1 X75.24 Y-14.19
G1 X75.24 Y-14.21
G1 X75.25 Y-14.26
G1 X75.26 Y-14.31
G1 X75.27 Y-14.33
G1 X75.27 Y-14.36
G1 X75.27 Y-14.38
G1 X75.28 Y-14.40
G1 X75.28 Y-14.43
G1 X75.29 Y-14.45
G1 X75.29 Y-14.48
G1 X75.30 Y-14.50
G1 X75.30 Y-14.53
G1 X75.31 Y-14.55
G1 X75.31 Y-14.57
G1 X75.32 Y-14.60
G1 X75.32 Y-14.62
G1 X75.33 Y-14.65
G1 X75.33 Y-14.67
G1 X75.34 Y-14.69
G1 X75.34 Y-14.72
G1 X75.35 Y-14.74
G1 X75.36 Y-14.78
G1 X75.36 Y-14.81
G1 X75.37 Y-14.84
G1 X75.38 Y-14.87
G1 X75.38 Y-14.89
G1 X75.39 Y-14.92
G1 X75.40 Y-14.95
G1 X75.40 Y-14.97
G1 X75.42 Y-15.03
G1 X75.43 Y-15.08
G1 X75.44 Y-15.11
G1 X75.44 Y-15.13
G1 X75.45 Y-15.16
G1 X75.46 Y-15.19
G1 X75.47 Y-15.24
G1 X75.49 Y-15.29
G1 X75.49 Y-15.32
G1 X75.50 Y-15.35
G1 X75.51 Y-15.37
G1 X75.52 Y-15.40
G1 X75.53 Y-15.45
G1 X75.55 Y-15.50
G1 X75.56 Y-15.55
G1 X75.57 Y-15.59
G1 X75.58 Y-15.63
G1 X75.59 Y-15.66
G1 X75.62 Y-15.73
G1 X75.64 Y-15.79
G1 X75.65 Y-15.83
G1 X75.66 Y-15.86
G1 X75.67 Y-15.89
G1 X75.68 Y-15.93
G1 X75.70 Y-16.00
G1 X75.72 Y-16.06
G1 X75.74 Y-16.10
G1 X75.75 Y-16.13
G1 X75.76 Y-16.16
G1 X75.77 Y-16.20
G1 X75.78 Y-16.23
G1 X75.79 Y-16.26
G1 X75.80 Y-16.30
G1 X75.82 Y-16.33
G1 X75.83 Y-16.36
G1 X75.84 Y-16.40
G1 X75.86 Y-16.46
G1 X75.89 Y-16.53
G1 X75.91 Y-16.60
G1 X75.94 Y-16.66
G1 X75.98 Y-16.79
G1 X76.03 Y-16.92
G1 X76.07 Y-17.04
G1 X76.12 Y-17.17
G1 X76.14 Y-17.23
G1 X76.17 Y-17.29
G1 X76.22 Y-17.42
G1 X76.26 Y-17.55
G1 X76.31 Y-17.67
G1 X76.36 Y-17.80
G1 X76.49 Y-18.13
G1 X76.62 Y-18.47
G1 X76.74 Y-18.80
G1 X76.87 Y-19.13
G1 X76.93 Y-19.29
G1 X77.00 Y-19.46
G1 X77.12 Y-19.79
G1 X77.25 Y-20.12
G1 X77.31 Y-20.29
G1 X77.37 Y-20.45
G1 X77.41 Y-20.55
G1 X77.44 Y-20.64
G1 X77.46 Y-20.69
G1 X77.48 Y-20.74
G1 X77.52 Y-20.84
G1 X77.55 Y-20.94
G1 X77.59 Y-21.04
G1 X77.62 Y-21.14
G1 X77.64 Y-21.18
G1 X77.66 Y-21.23
G1 X77.68 Y-21.28
G1 X77.69 Y-21.33
G1 X77.71 Y-21.38
G1 X77.73 Y-21.43
G1 X77.75 Y-21.48
G1 X77.76 Y-21.53
G1 X77.78 Y-21.58
G1 X77.80 Y-21.63
G1 X77.82 Y-21.68
G1 X77.83 Y-21.73
G1 X77.85 Y-21.78
G1 X77.87 Y-21.83
G1 X77.88 Y-21.87
G1 X77.90 Y-21.91
G1 X77.92 Y-21.97
G1 X77.94 Y-22.03
G1 X77.95 Y-22.09
G1 X77.97 Y-22.15
G1 X77.98 Y-22.18
G1 X77.99 Y-22.21
G1 X78.00 Y-22.24
G1 X78.01 Y-22.27
G1 X78.02 Y-22.30
G1 X78.03 Y-22.33
G1 X78.04 Y-22.36
G1 X78.05 Y-22.39
G1 X78.06 Y-22.42
G1 X78.06 Y-22.45
G1 X78.07 Y-22.48
G1 X78.08 Y-22.51
G1 X78.10 Y-22.57
G1 X78.12 Y-22.64
G1 X78.13 Y-22.67
G1 X78.13 Y-22.70
G1 X78.14 Y-22.71
G1 X78.14 Y-22.73
G1 X78.15 Y-22.74
G1 X78.15 Y-22.75
G1 X78.15 Y-22.76
G1 X78.15 Y-22.77
G1 X78.16 Y-22.78
G1 X78.16 Y-22.79
G1 X78.16 Y-22.82
G1 X78.17 Y-22.84
G1 X78.17 Y-22.85
G1 X78.17 Y-22.86
G1 X78.17 Y-22.87
G1 X78.18 Y-22.88
G1 X78.18 Y-22.89
G1 X78.18 Y-22.90
G1 X78.18 Y-22.91
G1 X78.18 Y-22.92
G1 X78.18 Y-22.94
G1 X78.19 Y-22.95
G1 X78.19 Y-22.96
G1 X78.19 Y-22.97
G1 X78.19 Y-22.98
G1 X78.19 Y-22.99
G1 X78.19 Y-23.01
G1 X78.20 Y-23.03
G1 X78.20 Y-23.05
G1 X78.20 Y-23.06
G1 X78.20 Y-23.07
G1 X78.20 Y-23.08
G1 X78.20 Y-23.10
G1 X78.20 Y-23.12
G1 X78.20 Y-23.13
G1 X78.20 Y-23.14
G1 X78.20 Y-23.16
G1 X78.20 Y-23.17
G1 X78.20 Y-23.18
G1 X78.20 Y-23.19
G1 X78.20 Y-23.21
G1 X78.20 Y-23.24
G1 X78.20 Y-23.25
G1 X78.20 Y-23.26
G1 X78.21 Y-23.29
G1 X78.21 Y-23.31
G1 X78.21 Y-23.33
G1 X78.21 Y-23.34
G1 X78.21 Y-23.35
G1 X78.21 Y-23.37
G1 X78.21 Y-23.38
G1 X78.21 Y-23.39
G1 X78.21 Y-23.42
G1 X78.21 Y-23.44
G1 X78.22 Y-23.47
G1 X78.22 Y-23.49
G1 X78.22 Y-23.50
G1 X78.22 Y-23.51
G1 X78.22 Y-23.52
G1 X78.23 Y-23.53
G1 X78.23 Y-23.54
G1 X78.23 Y-23.55
G1 X78.23 Y-23.56
G1 X78.24 Y-23.57
G1 X78.24 Y-23.58
G1 X78.24 Y-23.59
G1 X78.24 Y-23.59
G1 X78.25 Y-23.60
G1 X78.25 Y-23.60
G1 X78.25 Y-23.60
G1 X78.25 Y-23.61
G1 X78.25 Y-23.61
G1 X78.26 Y-23.62
G1 X78.26 Y-23.63
G1 X78.26 Y-23.64
G1 X78.27 Y-23.64
G1 X78.27 Y-23.64
G1 X78.27 Y-23.65
G1 X78.28 Y-23.65
G1 X78.28 Y-23.66
G1 X78.28 Y-23.67
G1 X78.29 Y-23.67
G1 X78.29 Y-23.68
G1 X78.29 Y-23.68
G1 X78.30 Y-23.69
G1 X78.31 Y-23.70
G1 X78.31 Y-23.70
G1 X78.31 Y-23.70
G1 X78.32 Y-23.71
G1 X78.33 Y-23.72
G1 X78.33 Y-23.72
G1 X78.34 Y-23.73
G1 X78.34 Y-23.73
G1 X78.35 Y-23.73
G1 X78.35 Y-23.74
G1 X78.35 Y-23.74
G1 X78.36 Y-23.75
G1 X78.37 Y-23.75
G1 X78.37 Y-23.75
G1 X78.38 Y-23.76
G1 X78.38 Y-23.76
G1 X78.39 Y-23.76
G1 X78.40 Y-23.77
G1 X78.41 Y-23.78
G1 X78.43 Y-23.79
G1 X78.45 Y-23.80
G1 X78.47 Y-23.81
G1 X78.48 Y-23.82
G1 X78.50 Y-23.83
G1 X78.52 Y-23.84
G1 X78.53 Y-23.84
G1 X78.54 Y-23.85
G1 X78.56 Y-23.86
G1 X78.58 Y-23.87
G1 X78.60 Y-23.87
G1 X78.62 Y-23.88
G1 X78.63 Y-23.89
G1 X78.65 Y-23.89
G1 X78.68 Y-23.90
G1 X78.70 Y-23.92
G1 X78.73 Y-23.93
G1 X78.76 Y-23.94
G1 X78.78 Y-23.95
G1 X78.79 Y-23.95
G1 X78.81 Y-23.96
G1 X78.82 Y-23.96
G1 X78.84 Y-23.97
G1 X78.86 Y-23.98
G1 X78.87 Y-23.98
G1 X78.88 Y-23.98
G1 X78.88 Y-23.98
G1 X78.89 Y-23.98
G1 X78.89 Y-23.98
G1 X78.90 Y-23.99
G1 X78.91 Y-23.99
G1 X78.91 Y-23.99
G1 X78.92 Y-23.99
G1 X78.92 Y-23.99
G1 X78.93 Y-23.99
G1 X78.94 Y-23.99
G1 X78.94 Y-23.99
G1 X78.95 Y-23.99
G1 X78.96 Y-23.99
G1 X78.96 Y-23.99
G1 X78.97 Y-23.99
G1 X78.98 Y-23.99
G1 X78.99 Y-23.99
G1 X78.99 Y-23.99
G1 X78.99 Y-23.99
G1 X79.00 Y-23.99
G1 X79.00 Y-23.99
G1 X79.00 Y-23.99
G1 X79.01 Y-23.99
G1 X79.02 Y-23.99
G1 X79.02 Y-23.99
G1 X79.02 Y-23.98
G1 X79.03 Y-23.98
G1 X79.03 Y-23.98
G1 X79.04 Y-23.98
G1 X79.04 Y-23.98
G1 X79.05 Y-23.97
G1 X79.05 Y-23.97
G1 X79.06 Y-23.97
G1 X79.06 Y-23.97
G1 X79.06 Y-23.97
G1 X79.07 Y-23.96
G1 X79.08 Y-23.96
G1 X79.08 Y-23.95
G1 X79.08 Y-23.95
G1 X79.09 Y-23.95
G1 X79.09 Y-23.94
G1 X79.10 Y-23.94
G1 X79.11 Y-23.93
G1 X79.11 Y-23.93
G1 X79.12 Y-23.92
G1 X79.12 Y-23.92
G1 X79.13 Y-23.91
G1 X79.13 Y-23.90
G1 X79.14 Y-23.90
G1 X79.14 Y-23.89
G1 X79.15 Y-23.88
G1 X79.16 Y-23.87
G1 X79.17 Y-23.87
G1 X79.17 Y-23.86
G1 X79.18 Y-23.85
G1 X79.19 Y-23.84
G1 X79.20 Y-23.82
G1 X79.21 Y-23.80
G1 X79.22 Y-23.80
G1 X79.22 Y-23.79
G1 X79.23 Y-23.79
G1 X79.23 Y-23.78
G1 X79.24 Y-23.77
G1 X79.24 Y-23.77
G1 X79.25 Y-23.76
G1 X79.26 Y-23.74
G1 X79.27 Y-23.74
G1 X79.27 Y-23.73
G1 X79.28 Y-23.73
G1 X79.28 Y-23.72
G1 X79.29 Y-23.72
G1 X79.30 Y-23.71
G1 X79.30 Y-23.70
G1 X79.31 Y-23.70
G1 X79.31 Y-23.69
G1 X79.32 Y-23.69
G1 X79.32 Y-23.69
G1 X79.32 Y-23.68
G1 X79.33 Y-23.68
G1 X79.33 Y-23.68
G1 X79.33 Y-23.68
G1 X79.34 Y-23.67
G1 X79.34 Y-23.67
G1 X79.34 Y-23.67
G1 X79.34 Y-23.67
G1 X79.35 Y-23.67
G1 X79.35 Y-23.67
G1 X79.35 Y-23.66
G1 X79.36 Y-23.66
G1 X79.36 Y-23.66
G1 X79.36 Y-23.66
G1 X79.37 Y-23.66
G1 X79.37 Y-23.66
G1 X79.37 Y-23.66
G1 X79.38 Y-23.66
G1 X79.38 Y-23.65
G1 X79.38 Y-23.65
G1 X79.39 Y-23.65
G1 X79.39 Y-23.65
G1 X79.39 Y-23.65
G1 X79.39 Y-23.65
G1 X79.40 Y-23.65
G1 X79.40 Y-23.65
G1 X79.40 Y-23.65
G1 X79.41 Y-23.65
G1 X79.41 Y-23.65
G1 X79.42 Y-23.65
G1 X79.42 Y-23.65
G1 X79.43 Y-23.65
G1 X79.43 Y-23.65
G1 X79.44 Y-23.65
G1 X79.45 Y-23.65
G1 X79.46 Y-23.65
G1 X79.46 Y-23.66
G1 X79.47 Y-23.66
G1 X79.47 Y-23.66
G1 X79.47 Y-23.66
G1 X79.48 Y-23.66
G1 X79.49 Y-23.66
G1 X79.50 Y-23.66
G1 X79.50 Y-23.66
G1 X79.51 Y-23.67
G1 X79.51 Y-23.67
G1 X79.51 Y-23.67
G1 X79.52 Y-23.67
G1 X79.52 Y-23.67
G1 X79.53 Y-23.67
G1 X79.53 Y-23.67
G1 X79.54 Y-23.68
G1 X79.54 Y-23.68
G1 X79.54 Y-23.68
